; generated by PrusaSlicer 2.3.0+ on 2021-02-15 at 22:36:08 UTC

; 

; external perimeters extrusion width = 0.45mm
; perimeters extrusion width = 0.45mm
; infill extrusion width = 0.45mm
; solid infill extrusion width = 0.45mm
; top infill extrusion width = 0.40mm
; first layer extrusion width = 0.42mm

M201 X500 Y500 Z100 E5000 ; sets maximum accelerations, mm/sec^2
M203 X500 Y500 Z10 E60 ; sets maximum feedrates, mm/sec
M204 P500 R1000 T500 ; sets acceleration (P, T) and retract acceleration (R), mm/sec^2
M205 X8.00 Y8.00 Z0.40 E5.00 ; sets the jerk limits, mm/sec
M205 S0 T0 ; sets the minimum extruding and travel feed rate, mm/sec
M107
;TYPE:Custom
G90 ; use absolute coordinates
M83 ; extruder relative mode
M104 S200 ; set extruder temp
M140 S60 ; set bed temp
M190 S60 ; wait for bed temp
M109 S200 ; wait for extruder temp
G28 ; home all
G1 Z2 F240
G1 X2 Y10 F3000
G1 Z0.28 F240
G92 E0
G1 Y190 E15 F1500 ; intro line
G1 X2.3 F5000
G92 E0
G1 Y10 E15 F1200 ; intro line
G92 E0
G21 ; set units to millimeters
G90 ; use absolute coordinates
M83 ; use relative distances for extrusion
; Filament gcode
;LAYER_CHANGE
;Z:0.2
;HEIGHT:0.2
;BEFORE_LAYER_CHANGE
G92 E0
;0.2


G1 E-6.50000 F3300.000
G1 Z0.200 F9000.000
;AFTER_LAYER_CHANGE
;0.2
G1 X108.796 Y110.712
G1 E6.50000 F2400.000
;TYPE:Skirt
;WIDTH:0.42
G1 F969
G1 X109.191 Y109.945 E0.02705
G1 X109.613 Y109.462 E0.02011
G1 X110.128 Y109.072 E0.02025
G1 X110.712 Y108.796 E0.02025
G1 X111.340 Y108.646 E0.02025
G1 X119.254 Y108.619 E0.24816
G1 X120.304 Y108.802 E0.03342
G1 X121.232 Y109.326 E0.03342
G1 X121.928 Y110.128 E0.03328
G1 X122.317 Y111.120 E0.03342
G1 X122.381 Y111.728 E0.01916
G1 X122.377 Y119.412 E0.24092
G1 X122.209 Y120.276 E0.02760
G1 X121.809 Y121.055 E0.02746
G1 X121.345 Y121.577 E0.02189
G1 X120.778 Y121.983 E0.02189
G1 X120.134 Y122.254 E0.02189
G1 X119.447 Y122.375 E0.02189
G1 X111.562 Y122.376 E0.24722
G1 X110.712 Y122.204 E0.02719
G1 X109.945 Y121.809 E0.02705
G1 X109.423 Y121.345 E0.02189
G1 X109.017 Y120.778 E0.02189
G1 X108.746 Y120.134 E0.02189
G1 X108.625 Y119.447 E0.02189
G1 X108.624 Y111.562 E0.24722
G1 X108.784 Y110.771 E0.02531
G1 X109.152 Y110.846 F9000.000
G1 F969
G1 X109.526 Y110.125 E0.02547
G1 X109.908 Y109.703 E0.01784
G1 X110.364 Y109.370 E0.01771
G1 X110.883 Y109.136 E0.01784
G1 X111.434 Y109.014 E0.01771
G1 X119.254 Y108.996 E0.24519
G1 X120.190 Y109.161 E0.02980
G1 X121.011 Y109.632 E0.02968
G1 X121.626 Y110.357 E0.02980
G1 X121.957 Y111.244 E0.02968
G1 X122.001 Y119.389 E0.25540
G1 X121.846 Y120.171 E0.02498
G1 X121.474 Y120.875 E0.02498
G1 X121.061 Y121.325 E0.01912
G1 X120.561 Y121.672 E0.01912
G1 X119.996 Y121.901 E0.01912
G1 X119.394 Y122.000 E0.01912
G1 X111.594 Y122.000 E0.24456
G1 X110.821 Y121.843 E0.02473
G1 X110.125 Y121.474 E0.02473
G1 X109.675 Y121.061 E0.01912
G1 X109.328 Y120.561 E0.01912
G1 X109.099 Y119.996 E0.01912
G1 X109.000 Y119.394 E0.01912
G1 X109.000 Y111.594 E0.24456
G1 X109.140 Y110.904 E0.02207
G1 X110.590 Y109.675 F9000.000
G1 F969
G1 X111.513 Y109.385 E0.03036
G1 X119.254 Y109.373 E0.24270
G1 X120.071 Y109.519 E0.02602
G1 X120.788 Y109.937 E0.02602
G1 X121.317 Y110.576 E0.02602
G1 X121.595 Y111.358 E0.02602
G1 X121.624 Y119.364 E0.25102
G1 X121.484 Y120.064 E0.02237
G1 X121.142 Y120.690 E0.02237
G1 X120.783 Y121.067 E0.01633
G1 X120.350 Y121.357 E0.01633
G1 X119.865 Y121.546 E0.01633
G1 X119.350 Y121.625 E0.01633
G1 X111.624 Y121.624 E0.24223
G1 X110.929 Y121.481 E0.02225
G1 X110.310 Y121.142 E0.02213
G1 X109.933 Y120.783 E0.01633
G1 X109.643 Y120.350 E0.01633
G1 X109.454 Y119.865 E0.01633
G1 X109.375 Y119.350 E0.01633
G1 X109.376 Y111.624 E0.24223
G1 X109.519 Y110.929 E0.02225
G1 X109.858 Y110.310 E0.02213
G1 X110.544 Y109.715 E0.02848
G1 E-4.55000 F3300.000
;WIPE_START
G1 F7200.000
G1 X111.513 Y109.385 E-0.44569
G1 X114.744 Y109.380 E-1.40681
;WIPE_END
G1 E-0.09750 F3300.000
G1 X113.495 Y113.495 F9000.000
G1 E6.50000 F2400.000
;TYPE:External perimeter
G1 F969
G1 X115.500 Y112.664 E0.06805
G1 X117.505 Y113.495 E0.06805
G1 X118.336 Y115.500 E0.06805
G1 X117.505 Y117.505 E0.06805
G1 X115.500 Y118.336 E0.06805
G1 X113.495 Y117.505 E0.06805
G1 X112.664 Y115.500 E0.06805
G1 X113.472 Y113.550 E0.06616
G1 X113.391 Y113.109 F9000.000
G1 X113.206 Y113.206
;TYPE:Perimeter
G1 F969
G1 X112.437 Y115.064 E0.06303
G1 X112.437 Y112.437 E0.08235
G1 X115.064 Y112.437 E0.08235
G1 X113.262 Y113.183 E0.06115
G1 E-4.55000 F3300.000
;WIPE_START
G1 F7200.000
G1 X112.437 Y115.064 E-0.89396
G1 X112.437 Y112.862 E-0.95854
;WIPE_END
G1 E-0.09750 F3300.000
G1 X112.437 Y115.936 F9000.000
G1 E6.50000 F2400.000
G1 F969
G1 X113.206 Y117.794 E0.06303
G1 X115.064 Y118.563 E0.06303
G1 X112.437 Y118.563 E0.08235
G1 X112.437 Y115.996 E0.08047
G1 E-4.55000 F3300.000
;WIPE_START
G1 F7200.000
G1 X113.206 Y117.794 E-0.85123
G1 X115.064 Y118.563 E-0.87529
G1 X114.774 Y118.563 E-0.12598
;WIPE_END
G1 E-0.09750 F3300.000
G1 X115.936 Y118.563 F9000.000
G1 E6.50000 F2400.000
G1 F969
G1 X117.794 Y117.794 E0.06303
G1 X118.563 Y115.936 E0.06303
G1 X118.563 Y118.563 E0.08235
G1 X115.996 Y118.563 E0.08047
G1 E-4.55000 F3300.000
;WIPE_START
G1 F7200.000
G1 X117.794 Y117.794 E-0.85121
G1 X118.563 Y115.936 E-0.87531
G1 X118.563 Y116.226 E-0.12598
;WIPE_END
G1 E-0.09750 F3300.000
G1 X118.563 Y115.064 F9000.000
G1 E6.50000 F2400.000
G1 F969
G1 X117.794 Y113.206 E0.06303
G1 X115.936 Y112.437 E0.06303
G1 X118.563 Y112.437 E0.08235
G1 X118.563 Y115.004 E0.08047
G1 E-4.55000 F3300.000
;WIPE_START
G1 F7200.000
G1 X117.794 Y113.206 E-0.85122
G1 X115.936 Y112.437 E-0.87530
G1 X116.226 Y112.437 E-0.12599
;WIPE_END
G1 E-0.09750 F3300.000
G1 X118.940 Y112.060 F9000.000
G1 E6.50000 F2400.000
;TYPE:External perimeter
G1 F969
G1 X118.940 Y118.940 E0.21572
G1 X112.060 Y118.940 E0.21572
G1 X112.060 Y112.060 E0.21572
G1 X118.880 Y112.060 E0.21384
G1 X118.836 Y112.446 F9000.000
G1 X117.761 Y112.784
;TYPE:Solid infill
;WIDTH:0.495415
G1 F969
G1 X118.216 Y113.239 E0.02421
G1 X118.223 Y113.353 F9000.000
;TYPE:Gap fill
;WIDTH:0.256171
G1 F969
G1 X118.275 Y113.617 E0.00478
;WIDTH:0.134032
G1
G1 X118.354 Y114.014 E0.00306
G1 X118.600 Y115.249 F9000.000
;WIDTH:0.263149
G1 F969
G1 X118.641 Y115.542 E0.00543
;WIDTH:0.296887
G1
G1 X118.600 Y115.751 E0.00451
G1 X118.354 Y116.986 F9000.000
;WIDTH:0.134034
G1 F969
G1 X118.328 Y117.118 E0.00102
;WIDTH:0.174747
G1
G1 X118.302 Y117.251 E0.00148
;WIDTH:0.215461
G1
G1 X118.275 Y117.383 E0.00193
;WIDTH:0.256174
G1
G1 X118.249 Y117.515 E0.00239
;WIDTH:0.296888
G1
G1 X118.223 Y117.647 E0.00285
G1 X117.719 Y118.002 F9000.000
;TYPE:Solid infill
;WIDTH:0.495415
G1 F969
G1 X118.166 Y118.450 E0.02381
G1 X117.647 Y118.223 F9000.000
;TYPE:Gap fill
;WIDTH:0.296888
G1 F969
G1 X117.515 Y118.249 E0.00285
;WIDTH:0.256175
G1
G1 X117.383 Y118.275 E0.00239
;WIDTH:0.215461
G1
G1 X117.251 Y118.302 E0.00193
;WIDTH:0.174748
G1
G1 X117.118 Y118.328 E0.00148
;WIDTH:0.134034
G1
G1 X116.986 Y118.354 E0.00102
G1 X115.751 Y118.600 F9000.000
;WIDTH:0.296888
G1 F969
G1 X115.542 Y118.641 E0.00451
;WIDTH:0.263152
G1
G1 X115.249 Y118.600 E0.00543
G1 X114.014 Y118.354 F9000.000
;WIDTH:0.134034
G1 F969
G1 X113.617 Y118.275 E0.00306
;WIDTH:0.256176
G1
G1 X113.353 Y118.223 E0.00478
G1 X112.777 Y117.647 F9000.000
;WIDTH:0.296888
G1 F969
G1 X112.751 Y117.515 E0.00285
;WIDTH:0.256175
G1
G1 X112.725 Y117.383 E0.00239
;WIDTH:0.215461
G1
G1 X112.698 Y117.251 E0.00193
;WIDTH:0.174748
G1
G1 X112.672 Y117.118 E0.00148
;WIDTH:0.134034
G1
G1 X112.646 Y116.986 E0.00102
G1 X112.400 Y115.751 F9000.000
;WIDTH:0.263151
G1 F969
G1 X112.359 Y115.542 E0.00391
G1 X112.359 Y115.240 E0.00553
G1 X112.646 Y114.014 F9000.000
;WIDTH:0.134033
G1 F969
G1 X112.672 Y113.882 E0.00102
;WIDTH:0.174746
G1
G1 X112.698 Y113.749 E0.00148
;WIDTH:0.215459
G1
G1 X112.725 Y113.617 E0.00193
;WIDTH:0.256172
G1
G1 X112.751 Y113.485 E0.00239
;WIDTH:0.296884
G1
G1 X112.777 Y113.353 E0.00285
G1 X112.550 Y112.834 F9000.000
;TYPE:Solid infill
;WIDTH:0.495415
G1 F969
G1 X112.998 Y113.281 E0.02382
G1 X113.353 Y112.777 F9000.000
;TYPE:Gap fill
;WIDTH:0.256173
G1 F969
G1 X113.617 Y112.725 E0.00478
;WIDTH:0.134033
G1
G1 X114.014 Y112.646 E0.00306
G1 X115.240 Y112.359 F9000.000
;WIDTH:0.26315
G1 F969
G1 X115.542 Y112.359 E0.00553
;WIDTH:0.296885
G1
G1 X115.751 Y112.400 E0.00451
G1 X116.986 Y112.646 F9000.000
;WIDTH:0.134033
G1 F969
G1 X117.118 Y112.672 E0.00102
;WIDTH:0.174746
G1
G1 X117.251 Y112.698 E0.00148
;WIDTH:0.215459
G1
G1 X117.383 Y112.725 E0.00193
;WIDTH:0.256172
G1
G1 X117.515 Y112.751 E0.00239
;WIDTH:0.296884
G1
G1 X117.647 Y112.777 E0.00285
M106 S255
;LAYER_CHANGE
;Z:0.4
;HEIGHT:0.2
;BEFORE_LAYER_CHANGE
G92 E0
;0.4


G1 E-4.55000 F3300.000
;WIPE_START
G1 F7200.000
G1 X117.515 Y112.751 E-0.05869
;WIPE_END
G1 E-1.89131 F3300.000
G1 Z0.400 F9000.000
;AFTER_LAYER_CHANGE
;0.4
M104 S185 ; set temperature
G1 X120.304 Y108.802
G1 E6.50000 F2400.000
;TYPE:Skirt
;WIDTH:0.42
G1 F1054
G1 X121.232 Y109.326 E0.03342
G1 X121.928 Y110.128 E0.03328
G1 X122.317 Y111.120 E0.03342
G1 X122.381 Y111.728 E0.01916
G1 X122.377 Y119.412 E0.24092
G1 X122.209 Y120.276 E0.02760
G1 X121.809 Y121.055 E0.02746
G1 X121.345 Y121.577 E0.02189
G1 X120.778 Y121.983 E0.02189
G1 X120.134 Y122.254 E0.02189
G1 X119.447 Y122.375 E0.02189
G1 X111.562 Y122.376 E0.24722
G1 X110.712 Y122.204 E0.02719
G1 X109.945 Y121.809 E0.02705
G1 X109.423 Y121.345 E0.02189
G1 X109.017 Y120.778 E0.02189
G1 X108.746 Y120.134 E0.02189
G1 X108.625 Y119.447 E0.02189
G1 X108.624 Y111.562 E0.24722
G1 X108.796 Y110.712 E0.02719
G1 X109.191 Y109.945 E0.02705
G1 X109.613 Y109.462 E0.02011
G1 X110.128 Y109.072 E0.02025
G1 X110.712 Y108.796 E0.02025
G1 X111.340 Y108.646 E0.02025
G1 X119.254 Y108.619 E0.24816
G1 X120.245 Y108.791 E0.03154
G1 X120.180 Y109.160 F9000.000
G1 F1054
G1 X121.011 Y109.632 E0.02997
G1 X121.626 Y110.357 E0.02980
G1 X121.957 Y111.244 E0.02968
G1 X122.001 Y119.389 E0.25540
G1 X121.846 Y120.171 E0.02498
G1 X121.474 Y120.875 E0.02498
G1 X121.061 Y121.325 E0.01912
G1 X120.561 Y121.672 E0.01912
G1 X119.996 Y121.901 E0.01912
G1 X119.394 Y122.000 E0.01912
G1 X111.594 Y122.000 E0.24456
G1 X110.821 Y121.843 E0.02473
G1 X110.125 Y121.474 E0.02473
G1 X109.675 Y121.061 E0.01912
G1 X109.328 Y120.561 E0.01912
G1 X109.099 Y119.996 E0.01912
G1 X109.000 Y119.394 E0.01912
G1 X109.000 Y111.594 E0.24456
G1 X109.157 Y110.821 E0.02473
G1 X109.526 Y110.125 E0.02473
G1 X109.908 Y109.703 E0.01784
G1 X110.364 Y109.370 E0.01771
G1 X110.883 Y109.136 E0.01784
G1 X111.434 Y109.014 E0.01771
G1 X119.254 Y108.996 E0.24519
G1 X120.121 Y109.149 E0.02761
G1 X120.055 Y109.516 F9000.000
G1 F1054
G1 X120.788 Y109.937 E0.02648
G1 X121.317 Y110.576 E0.02602
G1 X121.595 Y111.358 E0.02602
G1 X121.624 Y119.364 E0.25102
G1 X121.484 Y120.064 E0.02237
G1 X121.142 Y120.690 E0.02237
G1 X120.783 Y121.067 E0.01633
G1 X120.350 Y121.357 E0.01633
G1 X119.865 Y121.546 E0.01633
G1 X119.350 Y121.625 E0.01633
G1 X111.624 Y121.624 E0.24223
G1 X110.929 Y121.481 E0.02225
G1 X110.310 Y121.142 E0.02213
G1 X109.933 Y120.783 E0.01633
G1 X109.643 Y120.350 E0.01633
G1 X109.454 Y119.865 E0.01633
G1 X109.375 Y119.350 E0.01633
G1 X109.376 Y111.624 E0.24223
G1 X109.519 Y110.929 E0.02225
G1 X109.858 Y110.310 E0.02213
G1 X110.590 Y109.675 E0.03036
G1 X111.513 Y109.385 E0.03036
G1 X119.254 Y109.373 E0.24270
G1 X119.996 Y109.506 E0.02365
G1 E-4.55000 F3300.000
;WIPE_START
G1 F7200.000
G1 X120.788 Y109.937 E-0.39240
G1 X121.317 Y110.576 E-0.36135
G1 X121.595 Y111.358 E-0.36135
G1 X121.601 Y113.052 E-0.73739
;WIPE_END
G1 E-0.09750 F3300.000
G1 X117.440 Y113.560 F9000.000
G1 E6.50000 F2400.000
;TYPE:External perimeter
;WIDTH:0.45
G1 F1054
G1 X118.244 Y115.500 E0.07108
G1 X117.440 Y117.440 E0.07108
G1 X115.500 Y118.244 E0.07108
G1 X113.560 Y117.440 E0.07108
G1 X112.756 Y115.500 E0.07108
G1 X113.560 Y113.560 E0.07108
G1 X115.500 Y112.756 E0.07108
G1 X117.385 Y113.537 E0.06905
G1 X117.826 Y113.456 F9000.000
G1 E-4.55000 F3300.000
;WIPE_START
G1 F7200.000
G1 X118.244 Y115.500 E-0.93295
G1 X117.440 Y117.440 E-0.91431
G1 X117.429 Y117.445 E-0.00524
;WIPE_END
G1 E-0.09750 F3300.000
G1 X115.340 Y112.382 F9000.000
G1 E6.50000 F2400.000
;TYPE:Perimeter
G1 F1054
G1 X113.248 Y113.248 E0.07663
G1 X112.382 Y115.340 E0.07663
G1 X112.382 Y112.382 E0.10013
G1 X115.280 Y112.382 E0.09809
G1 X115.660 Y112.382 F9000.000
G1 F1054
G1 X118.618 Y112.382 E0.10013
G1 X118.618 Y115.340 E0.10013
G1 X117.752 Y113.248 E0.07663
G1 X115.715 Y112.405 E0.07460
G1 E-4.55000 F3300.000
;WIPE_START
G1 F7200.000
G1 X118.618 Y112.382 E-1.26387
G1 X118.618 Y113.734 E-0.58863
;WIPE_END
G1 E-0.09750 F3300.000
G1 X118.618 Y115.660 F9000.000
G1 E6.50000 F2400.000
G1 F1054
G1 X118.618 Y118.618 E0.10013
G1 X115.660 Y118.618 E0.10013
G1 X117.752 Y117.752 E0.07663
G1 X118.595 Y115.715 E0.07460
G1 E-4.55000 F3300.000
;WIPE_START
G1 F7200.000
G1 X118.618 Y118.618 E-1.26387
G1 X117.266 Y118.618 E-0.58863
;WIPE_END
G1 E-0.09750 F3300.000
G1 X115.340 Y118.618 F9000.000
G1 E6.50000 F2400.000
G1 F1054
G1 X112.382 Y118.618 E0.10013
G1 X112.382 Y115.660 E0.10013
G1 X113.248 Y117.752 E0.07663
G1 X115.285 Y118.595 E0.07460
G1 E-4.55000 F3300.000
;WIPE_START
G1 F7200.000
G1 X112.382 Y118.618 E-1.26387
G1 X112.382 Y117.266 E-0.58863
;WIPE_END
G1 E-0.09750 F3300.000
G1 X111.975 Y119.025 F9000.000
G1 E6.50000 F2400.000
;TYPE:External perimeter
G1 F1054
G1 X111.975 Y111.975 E0.23863
G1 X119.025 Y111.975 E0.23863
G1 X119.025 Y119.025 E0.23863
G1 X112.035 Y119.025 E0.23660
G1 X112.079 Y118.639 F9000.000
G1 X112.504 Y118.312
;TYPE:Solid infill
;WIDTH:0.531415
G1 F1054
G1 X113.101 Y117.715 E0.03429
G1 X112.749 Y117.507 F9000.000
;TYPE:Gap fill
;WIDTH:0.317092
G1 F1054
G1 X112.721 Y117.364 E0.00332
;WIDTH:0.273058
G1
G1 X112.693 Y117.221 E0.00279
;WIDTH:0.229023
G1
G1 X112.664 Y117.078 E0.00225
;WIDTH:0.184989
G1
G1 X112.636 Y116.935 E0.00172
;WIDTH:0.140954
G1
G1 X112.607 Y116.792 E0.00119
G1 X113.493 Y118.251 F9000.000
;WIDTH:0.27306
G1 F1054
G1 X113.779 Y118.307 E0.00558
;WIDTH:0.140955
G1
G1 X114.208 Y118.393 E0.00356
G1 E-4.55000 F3300.000
;WIPE_START
G1 F7200.000
G1 X113.779 Y118.307 E-0.19029
;WIPE_END
G1 E-1.75971 F3300.000
G1 X116.792 Y118.393 F9000.000
G1 E6.50000 F2400.000
;WIDTH:0.140956
G1 F1054
G1 X116.935 Y118.364 E0.00119
;WIDTH:0.184991
G1
G1 X117.078 Y118.336 E0.00172
;WIDTH:0.229025
G1
G1 X117.221 Y118.307 E0.00225
;WIDTH:0.27306
G1
G1 X117.364 Y118.279 E0.00279
;WIDTH:0.317094
G1
G1 X117.507 Y118.251 E0.00332
G1 X117.650 Y118.346 F9000.000
;TYPE:Solid infill
;WIDTH:0.531415
G1 F1054
G1 X118.346 Y117.650 E0.03995
G1 X118.251 Y117.507 F9000.000
;TYPE:Gap fill
;WIDTH:0.317091
G1 F1054
G1 X118.279 Y117.364 E0.00332
;WIDTH:0.273057
G1
G1 X118.307 Y117.221 E0.00279
;WIDTH:0.229023
G1
G1 X118.336 Y117.078 E0.00225
;WIDTH:0.184989
G1
G1 X118.364 Y116.935 E0.00172
;WIDTH:0.140955
G1
G1 X118.393 Y116.792 E0.00119
G1 E-4.55000 F3300.000
;WIPE_START
G1 F7200.000
G1 X118.364 Y116.935 E-0.06343
;WIPE_END
G1 E-1.88657 F3300.000
G1 X118.393 Y114.208 F9000.000
G1 E6.50000 F2400.000
;WIDTH:0.140954
G1 F1054
G1 X118.307 Y113.779 E0.00356
;WIDTH:0.273056
G1
G1 X118.251 Y113.493 E0.00558
G1 X118.312 Y112.504 F9000.000
;TYPE:Solid infill
;WIDTH:0.531415
G1 F1054
G1 X117.715 Y113.101 E0.03430
G1 X117.507 Y112.749 F9000.000
;TYPE:Gap fill
;WIDTH:0.317091
G1 F1054
G1 X117.364 Y112.721 E0.00332
;WIDTH:0.273057
G1
G1 X117.221 Y112.693 E0.00279
;WIDTH:0.229022
G1
G1 X117.078 Y112.664 E0.00225
;WIDTH:0.184988
G1
G1 X116.935 Y112.636 E0.00172
;WIDTH:0.140954
G1
G1 X116.792 Y112.607 E0.00119
G1 E-4.55000 F3300.000
;WIPE_START
G1 F7200.000
G1 X116.935 Y112.636 E-0.06343
;WIPE_END
G1 E-1.88657 F3300.000
G1 X113.428 Y112.504 F9000.000
G1 E6.50000 F2400.000
;TYPE:Solid infill
;WIDTH:0.49756
G1 F1054
G1 X112.594 Y113.338 E0.04457
G1 X112.749 Y113.493 F9000.000
;TYPE:Gap fill
;WIDTH:0.317091
G1 F1054
G1 X112.721 Y113.636 E0.00332
;WIDTH:0.273057
G1
G1 X112.693 Y113.779 E0.00279
;WIDTH:0.229022
G1
G1 X112.664 Y113.922 E0.00225
;WIDTH:0.184988
G1
G1 X112.636 Y114.065 E0.00172
;WIDTH:0.140954
G1
G1 X112.607 Y114.208 E0.00119
;LAYER_CHANGE
;Z:0.6
;HEIGHT:0.2
;BEFORE_LAYER_CHANGE
G92 E0
;0.6


G1 E-4.55000 F3300.000
