; generated by PrusaSlicer 2.3.0+ on 2021-02-27 at 16:23:29 UTC

; 

; external perimeters extrusion width = 0.45mm
; perimeters extrusion width = 0.45mm
; infill extrusion width = 0.45mm
; solid infill extrusion width = 0.45mm
; top infill extrusion width = 0.40mm
; first layer extrusion width = 0.42mm

M201 X500 Y500 Z100 E5000 ; sets maximum accelerations, mm/sec^2
M203 X500 Y500 Z10 E60 ; sets maximum feedrates, mm/sec
M204 P500 R1000 T500 ; sets acceleration (P, T) and retract acceleration (R), mm/sec^2
M205 X8.00 Y8.00 Z0.40 E5.00 ; sets the jerk limits, mm/sec
M205 S0 T0 ; sets the minimum extruding and travel feed rate, mm/sec
M107
;TYPE:Custom
G90 ; use absolute coordinates
M83 ; extruder relative mode
M104 S200 ; set extruder temp
M140 S60 ; set bed temp
M190 S60 ; wait for bed temp
M109 S200 ; wait for extruder temp
G28 ; home all
G1 Z2 F240
G1 X2 Y10 F3000
G1 Z0.28 F240
G92 E0
G1 Y190 E15 F1500 ; intro line
G1 X2.3 F5000
G92 E0
G1 Y10 E15 F1200 ; intro line
G92 E0
G21 ; set units to millimeters
G90 ; use absolute coordinates
M83 ; use relative distances for extrusion
; Filament gcode
;LAYER_CHANGE
;Z:0.2
;HEIGHT:0.2
;BEFORE_LAYER_CHANGE
G92 E0
;0.2


G1 E-6.50000 F3300.000
G1 Z0.200 F9000.000
;AFTER_LAYER_CHANGE
;0.2
G1 X32.521 Y115.894
G1 E6.50000 F2400.000
;TYPE:Skirt
;WIDTH:0.42
G1 F1200.000
G1 X33.026 Y115.412 E0.02190
G1 X143.618 Y37.975 E4.23310
G1 X144.268 Y37.654 E0.02272
G1 X144.985 Y37.545 E0.02272
G1 X145.543 Y37.612 E0.01763
G1 X146.067 Y37.807 E0.01752
G1 X146.533 Y38.121 E0.01763
G1 X146.913 Y38.536 E0.01763
G1 X198.551 Y112.282 E2.82276
G1 X198.824 Y112.795 E0.01823
G1 X198.963 Y113.356 E0.01811
G1 X198.963 Y113.937 E0.01823
G1 X198.823 Y114.497 E0.01811
G1 X198.479 Y115.106 E0.02190
G1 X197.974 Y115.588 E0.02190
G1 X87.372 Y193.032 E4.23346
G1 X86.861 Y193.301 E0.01811
G1 X86.300 Y193.439 E0.01811
G1 X85.726 Y193.437 E0.01799
G1 X85.166 Y193.297 E0.01811
G1 X84.558 Y192.954 E0.02190
G1 X84.078 Y192.452 E0.02178
G1 X32.440 Y118.705 E2.82276
G1 X32.172 Y118.194 E0.01811
G1 X32.036 Y117.637 E0.01799
G1 X32.037 Y117.063 E0.01799
G1 X32.177 Y116.503 E0.01811
G1 X32.491 Y115.947 E0.02001
G1 E-4.55000 F3300.000
;WIPE_START
G1 F7200.000
G1 X33.026 Y115.412 E-0.32915
G1 X35.892 Y113.406 E-1.52335
;WIPE_END
G1 E-0.09750 F3300.000
G1 X82.091 Y173.266 F9000.000
G1 E6.50000 F2400.000
;TYPE:Perimeter
G1 F1200.000
G1 X83.469 Y172.960 E0.04424
G1 X84.659 Y173.718 E0.04424
G1 X84.964 Y175.096 E0.04424
G1 X84.206 Y176.286 E0.04424
G1 X82.828 Y176.592 E0.04424
G1 X81.638 Y175.833 E0.04424
G1 X81.333 Y174.456 E0.04424
G1 X82.059 Y173.316 E0.04236
G1 X82.325 Y173.600 F9000.000
;TYPE:External perimeter
G1 F1200.000
G1 X83.398 Y173.362 E0.03445
G1 X84.325 Y173.953 E0.03445
G1 X84.562 Y175.025 E0.03445
G1 X83.972 Y175.952 E0.03445
G1 X82.899 Y176.190 E0.03445
G1 X81.973 Y175.599 E0.03445
G1 X81.735 Y174.527 E0.03445
G1 X82.293 Y173.651 E0.03257
G1 X82.290 Y173.202 F9000.000
G1 E-4.55000 F3300.000
;WIPE_START
G1 F7200.000
G1 X83.398 Y173.362 E-0.49722
G1 X84.325 Y173.953 E-0.47839
G1 X84.562 Y175.025 E-0.47839
G1 X84.071 Y175.797 E-0.39850
;WIPE_END
G1 E-0.09750 F3300.000
G1 X46.924 Y123.041 F9000.000
G1 E6.50000 F2400.000
;TYPE:Perimeter
G1 F1200.000
G1 X45.546 Y123.347 E0.04424
G1 X44.356 Y122.589 E0.04424
G1 X44.050 Y121.211 E0.04424
G1 X44.809 Y120.021 E0.04424
G1 X46.186 Y119.715 E0.04424
G1 X47.376 Y120.474 E0.04424
G1 X47.682 Y121.851 E0.04424
G1 X46.956 Y122.991 E0.04236
G1 X46.690 Y122.707 F9000.000
;TYPE:External perimeter
G1 F1200.000
G1 X45.617 Y122.945 E0.03445
G1 X44.690 Y122.354 E0.03445
G1 X44.452 Y121.282 E0.03445
G1 X45.043 Y120.355 E0.03445
G1 X46.115 Y120.117 E0.03445
G1 X47.042 Y120.708 E0.03445
G1 X47.280 Y121.780 E0.03445
G1 X46.722 Y122.656 E0.03257
G1 X46.724 Y123.105 F9000.000
G1 E-4.55000 F3300.000
;WIPE_START
G1 F7200.000
G1 X45.617 Y122.945 E-0.49722
G1 X44.690 Y122.354 E-0.47839
G1 X44.452 Y121.282 E-0.47840
G1 X44.944 Y120.510 E-0.39849
;WIPE_END
G1 E-0.09750 F3300.000
G1 X142.654 Y53.759 F9000.000
G1 E6.50000 F2400.000
;TYPE:Perimeter
G1 F1200.000
G1 X142.348 Y52.382 E0.04424
G1 X143.107 Y51.192 E0.04425
G1 X144.485 Y50.886 E0.04425
G1 X145.675 Y51.644 E0.04424
G1 X145.980 Y53.022 E0.04424
G1 X145.222 Y54.212 E0.04425
G1 X143.844 Y54.518 E0.04425
G1 X142.705 Y53.792 E0.04236
G1 X142.988 Y53.525 F9000.000
;TYPE:External perimeter
G1 F1200.000
G1 X142.750 Y52.453 E0.03445
G1 X143.341 Y51.526 E0.03446
G1 X144.414 Y51.288 E0.03446
G1 X145.340 Y51.878 E0.03445
G1 X145.578 Y52.951 E0.03445
G1 X144.988 Y53.878 E0.03446
G1 X143.915 Y54.116 E0.03446
G1 X143.039 Y53.558 E0.03256
G1 X142.590 Y53.560 F9000.000
G1 E-4.55000 F3300.000
;WIPE_START
G1 F7200.000
G1 X142.750 Y52.453 E-0.49718
G1 X143.341 Y51.526 E-0.47848
G1 X144.414 Y51.288 E-0.47848
G1 X145.185 Y51.780 E-0.39835
;WIPE_END
G1 E-0.09750 F3300.000
G1 X180.389 Y104.437 F9000.000
G1 E6.50000 F2400.000
;TYPE:Perimeter
G1 F1200.000
G1 X181.767 Y104.131 E0.04425
G1 X182.957 Y104.889 E0.04424
G1 X183.263 Y106.267 E0.04424
G1 X182.504 Y107.457 E0.04425
G1 X181.126 Y107.763 E0.04425
G1 X179.937 Y107.004 E0.04424
G1 X179.631 Y105.627 E0.04424
G1 X180.357 Y104.487 E0.04237
G1 X180.623 Y104.771 F9000.000
;TYPE:External perimeter
G1 F1200.000
G1 X181.696 Y104.533 E0.03446
G1 X182.623 Y105.123 E0.03445
G1 X182.861 Y106.196 E0.03445
G1 X182.270 Y107.123 E0.03446
G1 X181.197 Y107.361 E0.03446
G1 X180.271 Y106.770 E0.03445
G1 X180.033 Y105.698 E0.03445
G1 X180.591 Y104.821 E0.03257
G1 X180.589 Y104.372 F9000.000
G1 E-4.55000 F3300.000
;WIPE_START
G1 F7200.000
G1 X181.696 Y104.533 E-0.49730
G1 X182.623 Y105.123 E-0.47836
G1 X182.861 Y106.196 E-0.47835
G1 X182.369 Y106.968 E-0.39849
;WIPE_END
G1 E-0.09750 F3300.000
G1 X195.647 Y113.477 F9000.000
G1 E6.50000 F2400.000
;TYPE:Perimeter
G1 F1200.000
G1 X86.187 Y190.121 E4.18974
G1 X35.353 Y117.523 E2.77880
G1 X144.813 Y40.879 E4.18974
G1 X195.612 Y113.428 E2.77692
G1 X196.172 Y113.569 F9000.000
;TYPE:External perimeter
G1 F1200.000
G1 X86.094 Y190.647 E4.21339
G1 X34.828 Y117.431 E2.80245
G1 X144.906 Y40.353 E4.21339
G1 X196.138 Y113.520 E2.80057
G1 X195.806 Y113.731 F9000.000
G1 E-4.55000 F3300.000
;WIPE_START
G1 F7200.000
G1 X192.654 Y115.962 E-1.85250
;WIPE_END
G1 E-0.09750 F3300.000
G1 X146.583 Y43.603 F9000.000
G1 E6.50000 F2400.000
;TYPE:Solid infill
;WIDTH:0.420213
G1 F1200.000
G1 X144.455 Y41.475 E0.09442
G1 X144.141 Y41.695 E0.01202
G1 X147.138 Y44.692 E0.13298
G1 X148.384 Y46.472 E0.06816
G1 X143.827 Y41.914 E0.20219
G1 X143.513 Y42.134 E0.01202
G1 X149.630 Y48.252 E0.27141
G1 X150.877 Y50.031 E0.06816
G1 X143.199 Y42.354 E0.34062
G1 X142.885 Y42.574 E0.01202
G1 X152.123 Y51.811 E0.40984
G1 X153.369 Y53.591 E0.06816
G1 X142.572 Y42.793 E0.47905
G1 X142.258 Y43.013 E0.01202
G1 X154.615 Y55.371 E0.54827
G1 X155.862 Y57.151 E0.06816
G1 X141.944 Y43.233 E0.61748
G1 X141.630 Y43.453 E0.01202
G1 X157.108 Y58.930 E0.68670
G1 X158.354 Y60.710 E0.06816
G1 X141.316 Y43.672 E0.75591
G1 X141.002 Y43.892 E0.01202
G1 X159.600 Y62.490 E0.82513
G1 X160.847 Y64.270 E0.06816
G1 X140.689 Y44.112 E0.89434
G1 X140.375 Y44.332 E0.01202
G1 X162.093 Y66.050 E0.96356
G1 X163.339 Y67.829 E0.06816
G1 X140.061 Y44.551 E1.03277
G1 X139.747 Y44.771 E0.01202
G1 X164.585 Y69.609 E1.10199
G1 X165.831 Y71.389 E0.06816
G1 X139.433 Y44.991 E1.17120
G1 X139.119 Y45.211 E0.01202
G1 X144.502 Y50.593 E0.23878
G1 X144.065 Y50.690 E0.01403
G1 X138.806 Y45.430 E0.23333
G1 X138.492 Y45.650 E0.01202
G1 X143.628 Y50.786 E0.22788
G1 X143.191 Y50.883 E0.01403
G1 X138.178 Y45.870 E0.22243
G1 X137.864 Y46.090 E0.01202
G1 X142.847 Y51.073 E0.22109
G1 X142.640 Y51.399 E0.01212
G1 X137.550 Y46.309 E0.22580
G1 X137.236 Y46.529 E0.01202
G1 X142.432 Y51.725 E0.23051
G1 X142.224 Y52.050 E0.01212
G1 X136.923 Y46.749 E0.23522
G1 X136.609 Y46.969 E0.01202
G1 X142.069 Y52.429 E0.24226
G1 X142.221 Y53.115 E0.02204
G1 X136.173 Y47.066 E0.26834
G1 E-4.55000 F3300.000
;WIPE_START
G1 F7200.000
G1 X139.182 Y50.075 E-1.85250
;WIPE_END
G1 E-0.09750 F3300.000
G1 X145.858 Y51.949 F9000.000
G1 E6.50000 F2400.000
G1 F1200.000
G1 X167.078 Y73.169 E0.94145
G1 X168.324 Y74.949 E0.06816
G1 X146.234 Y52.858 E0.98008
G1 X146.282 Y53.075 E0.00696
G1 X146.140 Y53.298 E0.00829
G1 X169.570 Y76.728 E1.03954
G1 X170.816 Y78.508 E0.06816
G1 X145.932 Y53.624 E1.10404
G1 X145.724 Y53.950 E0.01212
G1 X172.063 Y80.288 E1.16855
G1 X173.309 Y82.068 E0.06816
G1 X145.517 Y54.276 E1.23305
G1 X145.397 Y54.463 E0.00696
G1 X145.211 Y54.504 E0.00597
G1 X174.555 Y83.848 E1.30188
G1 X175.801 Y85.628 E0.06816
G1 X144.775 Y54.601 E1.37655
G1 X144.338 Y54.698 E0.01403
G1 X177.048 Y87.407 E1.45122
G1 X178.294 Y89.187 E0.06816
G1 X143.608 Y54.502 E1.53889
G1 E-4.55000 F3300.000
;WIPE_START
G1 F7200.000
G1 X146.617 Y57.510 E-1.85250
;WIPE_END
G1 E-0.09750 F3300.000
G1 X135.859 Y47.286 F9000.000
G1 E6.50000 F2400.000
G1 F1200.000
G1 X179.540 Y90.967 E1.93797
G1 X180.786 Y92.747 E0.06816
G1 X135.667 Y47.628 E2.00178
G1 X135.354 Y47.848 E0.01202
G1 X182.033 Y94.527 E2.07100
G1 X183.279 Y96.306 E0.06816
G1 X135.040 Y48.067 E2.14021
G1 X134.726 Y48.287 E0.01202
G1 X184.525 Y98.086 E2.20943
G1 X185.771 Y99.866 E0.06816
G1 X134.412 Y48.507 E2.27864
G1 X134.098 Y48.727 E0.01202
G1 X187.017 Y101.646 E2.34786
G1 X188.264 Y103.426 E0.06816
G1 X133.784 Y48.946 E2.41707
G1 X133.471 Y49.166 E0.01202
G1 X189.510 Y105.205 E2.48629
G1 X190.756 Y106.985 E0.06816
G1 X133.157 Y49.386 E2.55550
G1 X132.843 Y49.606 E0.01202
G1 X192.002 Y108.765 E2.62472
G1 X193.249 Y110.545 E0.06816
G1 X132.529 Y49.825 E2.69393
G1 X132.215 Y50.045 E0.01202
G1 X194.495 Y112.325 E2.76315
G1 X195.253 Y113.407 E0.04146
G1 X195.130 Y113.493 E0.00471
G1 X131.901 Y50.265 E2.80525
G1 X131.588 Y50.484 E0.01202
G1 X194.816 Y113.713 E2.80525
G1 X194.502 Y113.933 E0.01202
G1 X131.274 Y50.704 E2.80525
G1 X130.960 Y50.924 E0.01202
G1 X194.189 Y114.153 E2.80525
G1 X193.875 Y114.372 E0.01202
G1 X130.646 Y51.144 E2.80525
G1 X130.332 Y51.363 E0.01202
G1 X193.561 Y114.592 E2.80525
G1 X193.247 Y114.812 E0.01202
G1 X130.018 Y51.583 E2.80525
G1 X129.705 Y51.803 E0.01202
G1 X181.747 Y103.846 E2.30897
G1 X181.311 Y103.943 E0.01403
G1 X129.391 Y52.023 E2.30352
G1 X129.077 Y52.242 E0.01202
G1 X180.874 Y104.039 E2.29806
G1 X180.437 Y104.136 E0.01403
G1 X128.763 Y52.462 E2.29261
G1 X128.449 Y52.682 E0.01202
G1 X180.112 Y104.345 E2.29212
G1 X179.905 Y104.671 E0.01212
G1 X128.135 Y52.902 E2.29683
G1 X127.822 Y53.121 E0.01202
G1 X179.697 Y104.997 E2.30154
G1 X179.489 Y105.323 E0.01212
G1 X127.508 Y53.341 E2.30625
G1 X127.194 Y53.561 E0.01202
G1 X179.365 Y105.731 E2.31464
G1 X179.517 Y106.417 E0.02204
G1 X126.758 Y53.659 E2.34072
G1 E-4.55000 F3300.000
;WIPE_START
G1 F7200.000
G1 X129.767 Y56.667 E-1.85250
;WIPE_END
G1 E-0.09750 F3300.000
G1 X183.153 Y105.252 F9000.000
G1 E6.50000 F2400.000
G1 F1200.000
G1 X192.933 Y115.032 E0.43390
G1 X192.619 Y115.251 E0.01202
G1 X183.529 Y106.161 E0.40332
G1 X183.564 Y106.320 E0.00511
G1 X183.405 Y106.570 E0.00931
G1 X192.306 Y115.471 E0.39490
G1 X191.992 Y115.691 E0.01202
G1 X183.197 Y106.896 E0.39019
G1 X182.989 Y107.222 E0.01212
G1 X191.678 Y115.911 E0.38548
G1 X191.364 Y116.130 E0.01202
G1 X182.782 Y107.548 E0.38077
G1 X182.680 Y107.708 E0.00594
G1 X182.457 Y107.757 E0.00715
G1 X191.050 Y116.350 E0.38124
G1 X190.736 Y116.570 E0.01202
G1 X182.021 Y107.854 E0.38669
G1 X181.584 Y107.951 E0.01403
G1 X190.423 Y116.790 E0.39214
G1 X190.109 Y117.009 E0.01202
G1 X180.767 Y107.668 E0.41445
G1 E-4.55000 F3300.000
;WIPE_START
G1 F7200.000
G1 X183.776 Y110.676 E-1.85250
;WIPE_END
G1 E-0.09750 F3300.000
G1 X189.917 Y117.351 F9000.000
G1 E6.50000 F2400.000
G1 F1200.000
G1 X126.566 Y54.000 E2.81065
G1 X126.253 Y54.220 E0.01202
G1 X189.481 Y117.449 E2.80525
G1 X189.167 Y117.668 E0.01202
G1 X125.939 Y54.440 E2.80525
G1 X125.625 Y54.660 E0.01202
G1 X188.853 Y117.888 E2.80525
G1 X188.540 Y118.108 E0.01202
G1 X125.311 Y54.879 E2.80525
G1 X124.997 Y55.099 E0.01202
G1 X188.226 Y118.328 E2.80525
G1 X187.912 Y118.547 E0.01202
G1 X124.683 Y55.319 E2.80525
G1 X124.370 Y55.539 E0.01202
G1 X187.598 Y118.767 E2.80525
G1 X187.284 Y118.987 E0.01202
G1 X124.056 Y55.758 E2.80525
G1 X123.742 Y55.978 E0.01202
G1 X186.970 Y119.207 E2.80525
G1 X186.657 Y119.426 E0.01202
G1 X123.428 Y56.198 E2.80525
G1 X123.114 Y56.418 E0.01202
G1 X186.343 Y119.646 E2.80525
G1 X186.029 Y119.866 E0.01202
G1 X122.800 Y56.637 E2.80525
G1 X122.487 Y56.857 E0.01202
G1 X185.715 Y120.086 E2.80525
G1 X185.401 Y120.305 E0.01202
G1 X122.173 Y57.077 E2.80525
G1 X121.859 Y57.297 E0.01202
G1 X185.087 Y120.525 E2.80525
G1 X184.774 Y120.745 E0.01202
G1 X121.545 Y57.516 E2.80525
G1 X121.231 Y57.736 E0.01202
G1 X184.460 Y120.965 E2.80525
G1 X184.146 Y121.184 E0.01202
G1 X120.917 Y57.956 E2.80525
G1 X120.604 Y58.176 E0.01202
G1 X183.832 Y121.404 E2.80525
G1 X183.518 Y121.624 E0.01202
G1 X120.290 Y58.395 E2.80525
G1 X119.976 Y58.615 E0.01202
G1 X183.205 Y121.844 E2.80525
G1 X182.891 Y122.063 E0.01202
G1 X119.662 Y58.835 E2.80525
G1 X119.348 Y59.055 E0.01202
G1 X182.577 Y122.283 E2.80525
G1 X182.263 Y122.503 E0.01202
G1 X119.034 Y59.274 E2.80525
G1 X118.721 Y59.494 E0.01202
G1 X181.949 Y122.723 E2.80525
G1 X181.635 Y122.942 E0.01202
G1 X118.407 Y59.714 E2.80525
G1 X118.093 Y59.934 E0.01202
G1 X181.322 Y123.162 E2.80525
G1 X181.008 Y123.382 E0.01202
G1 X117.779 Y60.153 E2.80525
G1 X117.465 Y60.373 E0.01202
G1 X180.694 Y123.602 E2.80525
G1 X180.380 Y123.821 E0.01202
G1 X117.151 Y60.593 E2.80525
G1 X116.838 Y60.812 E0.01202
G1 X180.066 Y124.041 E2.80525
G1 X179.752 Y124.261 E0.01202
G1 X116.524 Y61.032 E2.80525
G1 X116.210 Y61.252 E0.01202
G1 X179.439 Y124.481 E2.80525
G1 X179.125 Y124.700 E0.01202
G1 X115.896 Y61.472 E2.80525
G1 X115.582 Y61.691 E0.01202
G1 X178.811 Y124.920 E2.80525
G1 X178.497 Y125.140 E0.01202
G1 X115.269 Y61.911 E2.80525
G1 X114.955 Y62.131 E0.01202
G1 X178.183 Y125.360 E2.80525
G1 X177.869 Y125.579 E0.01202
G1 X114.641 Y62.351 E2.80525
G1 X114.327 Y62.570 E0.01202
G1 X177.556 Y125.799 E2.80525
G1 X177.242 Y126.019 E0.01202
G1 X114.013 Y62.790 E2.80525
G1 X113.699 Y63.010 E0.01202
G1 X176.928 Y126.239 E2.80525
G1 X176.614 Y126.458 E0.01202
G1 X113.386 Y63.230 E2.80525
G1 X113.072 Y63.449 E0.01202
G1 X176.300 Y126.678 E2.80525
G1 X175.986 Y126.898 E0.01202
G1 X112.758 Y63.669 E2.80525
G1 X112.444 Y63.889 E0.01202
G1 X175.673 Y127.118 E2.80525
G1 X175.359 Y127.337 E0.01202
G1 X112.130 Y64.109 E2.80525
G1 X111.816 Y64.328 E0.01202
G1 X175.045 Y127.557 E2.80525
G1 X174.731 Y127.777 E0.01202
G1 X111.503 Y64.548 E2.80525
G1 X111.189 Y64.768 E0.01202
G1 X174.417 Y127.996 E2.80525
G1 X174.104 Y128.216 E0.01202
G1 X110.875 Y64.988 E2.80525
G1 X110.561 Y65.207 E0.01202
G1 X173.790 Y128.436 E2.80525
G1 X173.476 Y128.656 E0.01202
G1 X110.247 Y65.427 E2.80525
G1 X109.933 Y65.647 E0.01202
G1 X173.162 Y128.875 E2.80525
G1 X172.848 Y129.095 E0.01202
G1 X109.620 Y65.867 E2.80525
G1 X109.306 Y66.086 E0.01202
G1 X172.534 Y129.315 E2.80525
G1 X172.221 Y129.535 E0.01202
G1 X108.992 Y66.306 E2.80525
G1 X108.678 Y66.526 E0.01202
G1 X171.907 Y129.754 E2.80525
G1 X171.593 Y129.974 E0.01202
G1 X108.364 Y66.746 E2.80525
G1 X108.050 Y66.965 E0.01202
G1 X171.279 Y130.194 E2.80525
G1 X170.965 Y130.414 E0.01202
G1 X107.737 Y67.185 E2.80525
G1 X107.423 Y67.405 E0.01202
G1 X170.651 Y130.633 E2.80525
G1 X170.338 Y130.853 E0.01202
G1 X107.109 Y67.625 E2.80525
G1 X106.795 Y67.844 E0.01202
G1 X170.024 Y131.073 E2.80525
G1 X169.710 Y131.293 E0.01202
G1 X106.481 Y68.064 E2.80525
G1 X106.168 Y68.284 E0.01202
G1 X169.396 Y131.512 E2.80525
G1 X169.082 Y131.732 E0.01202
G1 X105.854 Y68.504 E2.80525
G1 X105.540 Y68.723 E0.01202
G1 X168.768 Y131.952 E2.80525
G1 X168.455 Y132.172 E0.01202
G1 X105.226 Y68.943 E2.80525
G1 X104.912 Y69.163 E0.01202
G1 X168.141 Y132.391 E2.80525
G1 X167.827 Y132.611 E0.01202
G1 X104.598 Y69.383 E2.80525
G1 X104.285 Y69.602 E0.01202
G1 X167.513 Y132.831 E2.80525
G1 X167.199 Y133.051 E0.01202
G1 X103.971 Y69.822 E2.80525
G1 X103.657 Y70.042 E0.01202
G1 X166.885 Y133.270 E2.80525
G1 X166.572 Y133.490 E0.01202
G1 X103.343 Y70.262 E2.80525
G1 X103.029 Y70.481 E0.01202
