; generated by PrusaSlicer 2.3.0+ on 2021-02-17 at 12:16:44 UTC

; 

; external perimeters extrusion width = 0.45mm
; perimeters extrusion width = 0.45mm
; infill extrusion width = 0.45mm
; solid infill extrusion width = 0.45mm
; top infill extrusion width = 0.40mm
; first layer extrusion width = 0.42mm

M201 X500 Y500 Z100 E5000 ; sets maximum accelerations, mm/sec^2
M203 X500 Y500 Z10 E60 ; sets maximum feedrates, mm/sec
M204 P500 R1000 T500 ; sets acceleration (P, T) and retract acceleration (R), mm/sec^2
M205 X8.00 Y8.00 Z0.40 E5.00 ; sets the jerk limits, mm/sec
M205 S0 T0 ; sets the minimum extruding and travel feed rate, mm/sec
M107
;TYPE:Custom
G90 ; use absolute coordinates
M83 ; extruder relative mode
M104 S200 ; set extruder temp
M140 S60 ; set bed temp
M190 S60 ; wait for bed temp
M109 S200 ; wait for extruder temp
G28 ; home all
G1 Z2 F240
G1 X2 Y10 F3000
G1 Z0.28 F240
G92 E0
G1 Y190 E15 F1500 ; intro line
G1 X2.3 F5000
G92 E0
G1 Y10 E15 F1200 ; intro line
G92 E0
G21 ; set units to millimeters
G90 ; use absolute coordinates
M83 ; use relative distances for extrusion
; Filament gcode
;LAYER_CHANGE
;Z:0.2
;HEIGHT:0.2
;BEFORE_LAYER_CHANGE
G92 E0
;0.2


G1 E-6.50000 F3300.000
G1 Z0.200 F9000.000
;AFTER_LAYER_CHANGE
;0.2
G1 X46.761 Y73.472
G1 E6.50000 F2400.000
;TYPE:Skirt
;WIDTH:0.42
G1 F1200.000
G1 X47.352 Y73.213 E0.02024
G1 X47.995 Y73.123 E0.02036
G1 X183.004 Y73.123 E4.23310
G1 X183.906 Y73.302 E0.02884
G1 X184.670 Y73.808 E0.02872
G1 X185.185 Y74.565 E0.02872
G1 X185.377 Y75.465 E0.02884
G1 X185.377 Y155.534 E2.51053
G1 X185.293 Y156.125 E0.01870
G1 X185.066 Y156.676 E0.01870
G1 X184.708 Y157.153 E0.01870
G1 X184.239 Y157.528 E0.01882
G1 X183.648 Y157.787 E0.02024
G1 X183.005 Y157.877 E0.02036
G1 X47.989 Y157.877 E4.23334
G1 X47.390 Y157.797 E0.01894
G1 X46.834 Y157.571 E0.01882
G1 X46.349 Y157.211 E0.01894
G1 X45.972 Y156.739 E0.01894
G1 X45.713 Y156.148 E0.02024
G1 X45.623 Y155.509 E0.02024
G1 X45.623 Y75.477 E2.50933
G1 X45.705 Y74.882 E0.01882
G1 X45.932 Y74.327 E0.01882
G1 X46.292 Y73.847 E0.01882
G1 X46.714 Y73.509 E0.01694
G1 E-4.55000 F3300.000
;WIPE_START
G1 F7200.000
G1 X47.352 Y73.213 E-0.30638
G1 X47.995 Y73.123 E-0.28272
G1 X50.897 Y73.123 E-1.26340
;WIPE_END
G1 E-0.09750 F3300.000
G1 X60.313 Y81.813 F9000.000
G1 E6.50000 F2400.000
;TYPE:Perimeter
G1 F1200.000
G1 X171.687 Y81.813 E3.49206
G1 X171.687 Y148.187 E2.08112
G1 X60.313 Y148.187 E3.49206
G1 X60.313 Y81.873 E2.07923
G1 X60.690 Y82.190 F9000.000
;TYPE:External perimeter
G1 F1200.000
G1 X171.310 Y82.190 E3.46841
G1 X171.310 Y147.810 E2.05747
G1 X60.690 Y147.810 E3.46841
G1 X60.690 Y82.250 E2.05559
G1 X60.555 Y81.814 F9000.000
G1 E-4.55000 F3300.000
;WIPE_START
G1 F7200.000
G1 X64.945 Y82.248 E-1.85250
;WIPE_END
G1 E-0.09750 F3300.000
G1 X57.410 Y84.090 F9000.000
G1 E6.50000 F2400.000
;TYPE:Perimeter
G1 F1200.000
G1 X57.994 Y85.500 E0.04784
G1 X57.410 Y86.910 E0.04784
G1 X56.000 Y87.494 E0.04784
G1 X54.590 Y86.910 E0.04784
G1 X54.006 Y85.500 E0.04784
G1 X54.590 Y84.090 E0.04784
G1 X56.000 Y83.506 E0.04784
G1 X57.354 Y84.067 E0.04596
G1 X57.121 Y84.379 F9000.000
;TYPE:External perimeter
G1 F1200.000
G1 X57.586 Y85.500 E0.03805
G1 X57.121 Y86.621 E0.03805
G1 X56.000 Y87.086 E0.03805
G1 X54.879 Y86.621 E0.03805
G1 X54.414 Y85.500 E0.03805
G1 X54.879 Y84.379 E0.03805
G1 X56.000 Y83.914 E0.03805
G1 X57.066 Y84.356 E0.03617
G1 X57.508 Y84.275 F9000.000
G1 E-4.55000 F3300.000
;WIPE_START
G1 F7200.000
G1 X57.586 Y85.500 E-0.54717
G1 X57.121 Y86.621 E-0.52840
G1 X56.000 Y87.086 E-0.52838
G1 X55.473 Y86.867 E-0.24855
;WIPE_END
G1 E-0.09750 F3300.000
G1 X56.000 Y148.506 F9000.000
G1 E6.50000 F2400.000
;TYPE:Perimeter
G1 F1200.000
G1 X57.410 Y149.090 E0.04784
G1 X57.994 Y150.500 E0.04784
G1 X57.410 Y151.910 E0.04784
G1 X56.000 Y152.494 E0.04784
G1 X54.590 Y151.910 E0.04784
G1 X54.006 Y150.500 E0.04784
G1 X54.590 Y149.090 E0.04784
G1 X55.945 Y148.529 E0.04596
G1 X56.000 Y148.914 F9000.000
;TYPE:External perimeter
G1 F1200.000
G1 X57.121 Y149.379 E0.03805
G1 X57.586 Y150.500 E0.03805
G1 X57.121 Y151.621 E0.03805
G1 X56.000 Y152.086 E0.03805
G1 X54.879 Y151.621 E0.03805
G1 X54.414 Y150.500 E0.03805
G1 X54.879 Y149.379 E0.03805
G1 X55.945 Y148.937 E0.03617
G1 X56.200 Y148.568 F9000.000
G1 E-4.55000 F3300.000
;WIPE_START
G1 F7200.000
G1 X57.121 Y149.379 E-0.54717
G1 X57.586 Y150.500 E-0.52840
G1 X57.121 Y151.621 E-0.52840
G1 X56.594 Y151.840 E-0.24854
;WIPE_END
G1 E-0.09750 F3300.000
G1 X174.006 Y150.500 F9000.000
G1 E6.50000 F2400.000
;TYPE:Perimeter
G1 F1200.000
G1 X174.590 Y149.090 E0.04784
G1 X176.000 Y148.506 E0.04785
G1 X177.410 Y149.090 E0.04785
G1 X177.994 Y150.500 E0.04784
G1 X177.410 Y151.910 E0.04784
G1 X176.000 Y152.494 E0.04785
G1 X174.590 Y151.910 E0.04785
G1 X174.029 Y150.555 E0.04596
G1 X174.414 Y150.500 F9000.000
;TYPE:External perimeter
G1 F1200.000
G1 X174.879 Y149.379 E0.03805
G1 X176.000 Y148.914 E0.03805
G1 X177.121 Y149.379 E0.03805
G1 X177.586 Y150.500 E0.03805
G1 X177.121 Y151.621 E0.03805
G1 X176.000 Y152.086 E0.03805
G1 X174.879 Y151.621 E0.03805
G1 X174.437 Y150.555 E0.03617
G1 X174.068 Y150.300 F9000.000
G1 E-4.55000 F3300.000
;WIPE_START
G1 F7200.000
G1 X174.879 Y149.379 E-0.54716
G1 X176.000 Y148.914 E-0.52844
G1 X177.121 Y149.379 E-0.52844
G1 X177.340 Y149.906 E-0.24847
;WIPE_END
G1 E-0.09750 F3300.000
G1 X176.000 Y87.494 F9000.000
G1 E6.50000 F2400.000
;TYPE:Perimeter
G1 F1200.000
G1 X174.590 Y86.910 E0.04785
G1 X174.006 Y85.500 E0.04784
G1 X174.590 Y84.090 E0.04784
G1 X176.000 Y83.506 E0.04785
G1 X177.410 Y84.090 E0.04785
G1 X177.994 Y85.500 E0.04784
G1 X177.410 Y86.910 E0.04784
G1 X176.055 Y87.471 E0.04597
G1 X176.000 Y87.086 F9000.000
;TYPE:External perimeter
G1 F1200.000
G1 X174.879 Y86.621 E0.03805
G1 X174.414 Y85.500 E0.03805
G1 X174.879 Y84.379 E0.03805
G1 X176.000 Y83.914 E0.03805
G1 X177.121 Y84.379 E0.03805
G1 X177.586 Y85.500 E0.03805
G1 X177.121 Y86.621 E0.03805
G1 X176.055 Y87.063 E0.03617
G1 X175.800 Y87.432 F9000.000
G1 E-4.55000 F3300.000
;WIPE_START
G1 F7200.000
G1 X174.879 Y86.621 E-0.54723
G1 X174.414 Y85.500 E-0.52837
G1 X174.879 Y84.379 E-0.52836
G1 X175.406 Y84.160 E-0.24855
;WIPE_END
G1 E-0.09750 F3300.000
G1 X182.313 Y76.187 F9000.000
G1 E6.50000 F2400.000
;TYPE:Perimeter
G1 F1200.000
G1 X182.313 Y154.813 E2.46526
G1 X48.687 Y154.813 E4.18974
G1 X48.687 Y76.187 E2.46526
G1 X182.253 Y76.187 E4.18786
G1 X182.690 Y75.810 F9000.000
;TYPE:External perimeter
G1 F1200.000
G1 X182.690 Y155.190 E2.48890
G1 X48.310 Y155.190 E4.21339
G1 X48.310 Y75.810 E2.48890
G1 X182.630 Y75.810 E4.21151
G1 X182.554 Y76.186 F9000.000
G1 X181.437 Y76.300
;TYPE:Solid infill
;WIDTH:0.420295
G1 F1200.000
G1 X182.030 Y76.893 E0.02632
G1 X182.030 Y77.427 E0.01675
G1 X181.073 Y76.470 E0.04248
G1 X180.539 Y76.470 E0.01675
G1 X182.030 Y77.961 E0.06616
G1 X182.030 Y78.494 E0.01675
G1 X180.006 Y76.470 E0.08984
G1 X179.472 Y76.470 E0.01675
G1 X182.030 Y79.028 E0.11353
G1 X182.030 Y79.562 E0.01675
G1 X178.938 Y76.470 E0.13721
G1 X178.404 Y76.470 E0.01675
G1 X182.030 Y80.096 E0.16089
G1 X182.030 Y80.629 E0.01675
G1 X177.871 Y76.470 E0.18458
G1 X177.337 Y76.470 E0.01675
G1 X182.030 Y81.163 E0.20826
G1 X182.030 Y81.697 E0.01675
G1 X176.803 Y76.470 E0.23194
G1 X176.270 Y76.470 E0.01675
G1 X182.030 Y82.230 E0.25563
G1 X182.030 Y82.764 E0.01675
G1 X175.736 Y76.470 E0.27931
G1 X175.202 Y76.470 E0.01675
G1 X182.030 Y83.298 E0.30299
G1 X182.030 Y83.831 E0.01675
G1 X174.669 Y76.470 E0.32668
G1 X174.135 Y76.470 E0.01675
G1 X182.030 Y84.365 E0.35036
G1 X182.030 Y84.899 E0.01675
G1 X173.601 Y76.470 E0.37404
G1 X173.068 Y76.470 E0.01675
G1 X182.030 Y85.432 E0.39773
G1 X182.030 Y85.966 E0.01675
G1 X172.534 Y76.470 E0.42141
G1 X172.000 Y76.470 E0.01675
G1 X182.030 Y86.500 E0.44509
G1 X182.030 Y87.033 E0.01675
G1 X171.467 Y76.470 E0.46878
G1 X170.933 Y76.470 E0.01675
G1 X182.030 Y87.567 E0.49246
G1 X182.030 Y88.101 E0.01675
G1 X170.399 Y76.470 E0.51614
G1 X169.865 Y76.470 E0.01675
G1 X177.017 Y83.621 E0.31736
G1 X177.626 Y83.874 E0.02070
G1 X177.879 Y84.483 E0.02069
G1 X182.030 Y88.635 E0.18423
G1 X182.030 Y89.168 E0.01675
G1 X178.256 Y85.394 E0.16749
G1 X178.300 Y85.500 E0.00360
G1 X178.162 Y85.833 E0.01133
G1 X182.030 Y89.702 E0.17167
G1 X182.030 Y90.236 E0.01675
G1 X178.005 Y86.211 E0.17860
G1 X177.849 Y86.588 E0.01282
G1 X182.030 Y90.769 E0.18554
G1 X182.030 Y91.303 E0.01675
G1 X177.693 Y86.966 E0.19247
G1 X177.626 Y87.126 E0.00545
G1 X177.409 Y87.216 E0.00737
G1 X182.030 Y91.837 E0.20505
G1 X182.030 Y92.370 E0.01675
G1 X177.032 Y87.372 E0.22180
G1 X176.655 Y87.529 E0.01282
G1 X182.030 Y92.904 E0.23854
G1 X182.030 Y93.438 E0.01675
G1 X176.277 Y87.685 E0.25529
G1 X176.000 Y87.800 E0.00942
G1 X175.758 Y87.700 E0.00821
G1 X182.200 Y94.141 E0.28585
G1 E-4.55000 F3300.000
;WIPE_START
G1 F7200.000
G1 X179.191 Y91.133 E-1.85250
;WIPE_END
G1 E-0.09750 F3300.000
G1 X176.420 Y83.558 F9000.000
G1 E6.50000 F2400.000
G1 F1200.000
G1 X169.332 Y76.470 E0.31453
G1 X168.798 Y76.470 E0.01675
G1 X175.667 Y83.338 E0.30480
G1 X175.289 Y83.495 E0.01282
G1 X168.264 Y76.470 E0.31173
G1 X167.731 Y76.470 E0.01675
G1 X174.912 Y83.651 E0.31867
G1 X174.534 Y83.807 E0.01282
G1 X167.197 Y76.470 E0.32561
G1 X166.663 Y76.470 E0.01675
G1 X174.284 Y84.090 E0.33818
G1 X174.128 Y84.468 E0.01282
G1 X171.970 Y82.310 E0.09575
G1 X171.970 Y82.844 E0.01675
G1 X173.971 Y84.845 E0.08882
G1 X173.815 Y85.223 E0.01282
G1 X171.970 Y83.378 E0.08188
G1 X171.970 Y83.911 E0.01675
G1 X174.114 Y86.055 E0.09514
G1 E-4.55000 F3300.000
;WIPE_START
G1 F7200.000
G1 X171.970 Y83.911 E-1.32015
G1 X171.970 Y83.378 E-0.23238
G1 X172.457 Y83.865 E-0.29997
;WIPE_END
G1 E-0.09750 F3300.000
G1 X171.800 Y84.275 F9000.000
G1 E6.50000 F2400.000
G1 F1200.000
G1 X174.177 Y86.652 E0.10550
G1 X174.374 Y87.126 E0.01609
G1 X174.847 Y87.322 E0.01609
G1 X182.030 Y94.505 E0.31874
G1 X182.030 Y95.039 E0.01675
G1 X171.970 Y84.979 E0.44644
G1 X171.970 Y85.512 E0.01675
G1 X182.030 Y95.573 E0.44644
G1 X182.030 Y96.106 E0.01675
G1 X171.970 Y86.046 E0.44644
G1 X171.970 Y86.580 E0.01675
G1 X182.030 Y96.640 E0.44644
G1 X182.030 Y97.174 E0.01675
G1 X171.970 Y87.113 E0.44644
G1 X171.970 Y87.647 E0.01675
G1 X182.030 Y97.707 E0.44644
G1 X182.030 Y98.241 E0.01675
G1 X171.970 Y88.181 E0.44644
G1 X171.970 Y88.714 E0.01675
G1 X182.030 Y98.775 E0.44644
G1 X182.030 Y99.308 E0.01675
G1 X171.970 Y89.248 E0.44644
G1 X171.970 Y89.782 E0.01675
G1 X182.030 Y99.842 E0.44644
G1 X182.030 Y100.376 E0.01675
G1 X171.970 Y90.315 E0.44644
G1 X171.970 Y90.849 E0.01675
G1 X182.030 Y100.909 E0.44644
G1 X182.030 Y101.443 E0.01675
G1 X171.970 Y91.383 E0.44644
G1 X171.970 Y91.917 E0.01675
G1 X182.030 Y101.977 E0.44644
G1 X182.030 Y102.510 E0.01675
G1 X171.970 Y92.450 E0.44644
G1 X171.970 Y92.984 E0.01675
G1 X182.030 Y103.044 E0.44644
G1 X182.030 Y103.578 E0.01675
G1 X171.970 Y93.518 E0.44644
G1 X171.970 Y94.051 E0.01675
G1 X182.030 Y104.112 E0.44644
G1 X182.030 Y104.645 E0.01675
G1 X171.970 Y94.585 E0.44644
G1 X171.970 Y95.119 E0.01675
G1 X182.030 Y105.179 E0.44644
G1 X182.030 Y105.713 E0.01675
G1 X171.970 Y95.652 E0.44644
G1 X171.970 Y96.186 E0.01675
G1 X182.030 Y106.246 E0.44644
G1 X182.030 Y106.780 E0.01675
G1 X171.970 Y96.720 E0.44644
G1 X171.970 Y97.253 E0.01675
G1 X182.030 Y107.314 E0.44644
G1 X182.030 Y107.847 E0.01675
G1 X171.970 Y97.787 E0.44644
G1 X171.970 Y98.321 E0.01675
G1 X182.030 Y108.381 E0.44644
G1 X182.030 Y108.915 E0.01675
G1 X171.970 Y98.854 E0.44644
G1 X171.970 Y99.388 E0.01675
G1 X182.030 Y109.448 E0.44644
G1 X182.030 Y109.982 E0.01675
G1 X171.970 Y99.922 E0.44644
G1 X171.970 Y100.456 E0.01675
G1 X182.030 Y110.516 E0.44644
G1 X182.030 Y111.049 E0.01675
G1 X171.970 Y100.989 E0.44644
G1 X171.970 Y101.523 E0.01675
G1 X182.030 Y111.583 E0.44644
G1 X182.030 Y112.117 E0.01675
G1 X171.970 Y102.057 E0.44644
G1 X171.970 Y102.590 E0.01675
G1 X182.030 Y112.651 E0.44644
G1 X182.030 Y113.184 E0.01675
G1 X171.970 Y103.124 E0.44644
G1 X171.970 Y103.658 E0.01675
G1 X182.030 Y113.718 E0.44644
G1 X182.030 Y114.252 E0.01675
G1 X171.970 Y104.191 E0.44644
G1 X171.970 Y104.725 E0.01675
G1 X182.030 Y114.785 E0.44644
G1 X182.030 Y115.319 E0.01675
G1 X171.970 Y105.259 E0.44644
G1 X171.970 Y105.792 E0.01675
G1 X182.030 Y115.853 E0.44644
G1 X182.030 Y116.386 E0.01675
G1 X171.970 Y106.326 E0.44644
G1 X171.970 Y106.860 E0.01675
G1 X182.030 Y116.920 E0.44644
G1 X182.030 Y117.454 E0.01675
G1 X171.970 Y107.394 E0.44644
G1 X171.970 Y107.927 E0.01675
G1 X182.030 Y117.987 E0.44644
G1 X182.030 Y118.521 E0.01675
G1 X171.970 Y108.461 E0.44644
G1 X171.970 Y108.995 E0.01675
G1 X182.030 Y119.055 E0.44644
G1 X182.030 Y119.589 E0.01675
G1 X171.970 Y109.528 E0.44644
G1 X171.970 Y110.062 E0.01675
G1 X182.030 Y120.122 E0.44644
G1 X182.030 Y120.656 E0.01675
G1 X171.970 Y110.596 E0.44644
G1 X171.970 Y111.129 E0.01675
G1 X182.030 Y121.190 E0.44644
G1 X182.030 Y121.723 E0.01675
G1 X171.970 Y111.663 E0.44644
G1 X171.970 Y112.197 E0.01675
G1 X182.030 Y122.257 E0.44644
G1 X182.030 Y122.791 E0.01675
G1 X171.970 Y112.730 E0.44644
G1 X171.970 Y113.264 E0.01675
G1 X182.030 Y123.324 E0.44644
G1 X182.030 Y123.858 E0.01675
G1 X171.970 Y113.798 E0.44644
G1 X171.970 Y114.331 E0.01675
G1 X182.030 Y124.392 E0.44644
G1 X182.030 Y124.925 E0.01675
G1 X171.970 Y114.865 E0.44644
G1 X171.970 Y115.399 E0.01675
G1 X182.030 Y125.459 E0.44644
G1 X182.030 Y125.993 E0.01675
G1 X171.970 Y115.933 E0.44644
G1 X171.970 Y116.466 E0.01675
G1 X182.030 Y126.526 E0.44644
G1 X182.030 Y127.060 E0.01675
G1 X171.970 Y117.000 E0.44644
G1 X171.970 Y117.534 E0.01675
G1 X182.030 Y127.594 E0.44644
G1 X182.030 Y128.128 E0.01675
G1 X171.970 Y118.067 E0.44644
G1 X171.970 Y118.601 E0.01675
G1 X182.030 Y128.661 E0.44644
G1 X182.030 Y129.195 E0.01675
G1 X171.970 Y119.135 E0.44644
G1 X171.970 Y119.668 E0.01675
G1 X182.030 Y129.729 E0.44644
G1 X182.030 Y130.262 E0.01675
G1 X171.970 Y120.202 E0.44644
G1 X171.970 Y120.736 E0.01675
G1 X182.030 Y130.796 E0.44644
G1 X182.030 Y131.330 E0.01675
G1 X171.970 Y121.269 E0.44644
G1 X171.970 Y121.803 E0.01675
G1 X182.030 Y131.863 E0.44644
G1 X182.030 Y132.397 E0.01675
G1 X171.970 Y122.337 E0.44644
G1 X171.970 Y122.870 E0.01675
G1 X182.030 Y132.931 E0.44644
G1 X182.030 Y133.464 E0.01675
G1 X171.970 Y123.404 E0.44644
G1 X171.970 Y123.938 E0.01675
G1 X182.030 Y133.998 E0.44644
G1 X182.030 Y134.532 E0.01675
G1 X171.970 Y124.472 E0.44644
G1 X171.970 Y125.005 E0.01675
G1 X182.030 Y135.065 E0.44644
G1 X182.030 Y135.599 E0.01675
G1 X171.970 Y125.539 E0.44644
G1 X171.970 Y126.073 E0.01675
G1 X182.030 Y136.133 E0.44644
G1 X182.030 Y136.667 E0.01675
G1 X171.970 Y126.606 E0.44644
G1 X171.970 Y127.140 E0.01675
G1 X182.030 Y137.200 E0.44644
G1 X182.030 Y137.734 E0.01675
G1 X171.970 Y127.674 E0.44644
G1 X171.970 Y128.207 E0.01675
G1 X182.030 Y138.268 E0.44644
G1 X182.030 Y138.801 E0.01675
G1 X171.970 Y128.741 E0.44644
G1 X171.970 Y129.275 E0.01675
G1 X182.030 Y139.335 E0.44644
G1 X182.030 Y139.869 E0.01675
G1 X171.970 Y129.808 E0.44644
G1 X171.970 Y130.342 E0.01675
G1 X182.030 Y140.402 E0.44644
G1 X182.030 Y140.936 E0.01675
G1 X171.970 Y130.876 E0.44644
G1 X171.970 Y131.410 E0.01675
G1 X182.030 Y141.470 E0.44644
G1 X182.030 Y142.003 E0.01675
G1 X171.970 Y131.943 E0.44644
G1 X171.970 Y132.477 E0.01675
G1 X182.030 Y142.537 E0.44644
G1 X182.030 Y143.071 E0.01675
G1 X171.970 Y133.011 E0.44644
G1 X171.970 Y133.544 E0.01675
G1 X182.030 Y143.605 E0.44644
G1 X182.030 Y144.138 E0.01675
G1 X171.970 Y134.078 E0.44644
G1 X171.970 Y134.612 E0.01675
G1 X182.030 Y144.672 E0.44644
G1 X182.030 Y145.206 E0.01675
G1 X171.970 Y135.145 E0.44644
G1 X171.970 Y135.679 E0.01675
G1 X182.030 Y145.739 E0.44644
G1 X182.030 Y146.273 E0.01675
G1 X171.970 Y136.213 E0.44644
G1 X171.970 Y136.746 E0.01675
G1 X182.030 Y146.807 E0.44644
G1 X182.030 Y147.340 E0.01675
G1 X171.970 Y137.280 E0.44644
G1 X171.970 Y137.814 E0.01675
G1 X182.030 Y147.874 E0.44644
G1 X182.030 Y148.408 E0.01675
G1 X171.970 Y138.347 E0.44644
G1 X171.970 Y138.881 E0.01675
G1 X182.030 Y148.941 E0.44644
G1 X182.030 Y149.475 E0.01675
G1 X171.970 Y139.415 E0.44644
G1 X171.970 Y139.949 E0.01675
G1 X182.030 Y150.009 E0.44644
G1 X182.030 Y150.542 E0.01675
