; generated by PrusaSlicer 2.3.3+x64 on 2021-12-11 at 18:59:36 UTC

; 

; external perimeters extrusion width = 0.45mm
; perimeters extrusion width = 0.45mm
; infill extrusion width = 0.45mm
; solid infill extrusion width = 0.45mm
; top infill extrusion width = 0.40mm
; support material extrusion width = 0.38mm
; first layer extrusion width = 0.42mm

M201 X500 Y500 Z100 E5000 ; sets maximum accelerations, mm/sec^2
M203 X500 Y500 Z10 E60 ; sets maximum feedrates, mm/sec
M204 P500 R1000 T500 ; sets acceleration (P, T) and retract acceleration (R), mm/sec^2
M205 X8.00 Y8.00 Z0.40 E5.00 ; sets the jerk limits, mm/sec
M205 S0 T0 ; sets the minimum extruding and travel feed rate, mm/sec
M107
;TYPE:Custom
G90 ; use absolute coordinates
M83 ; extruder relative mode
M104 S200 ; set extruder temp
M140 S60 ; set bed temp
M190 S60 ; wait for bed temp
M109 S200 ; wait for extruder temp
G28 ; home all
G29 ; Bed-Level
G1 Z2 F240
G1 X2 Y10 F3000
G1 Z0.28 F240
G92 E0
G1 Y190 E15 F1500 ; intro line
G1 X2.3 F5000
G92 E0
G1 Y10 E15 F1200 ; intro line
G92 E0
G21 ; set units to millimeters
G90 ; use absolute coordinates
M83 ; use relative distances for extrusion
; Filament gcode
;LAYER_CHANGE
;Z:0.2
;HEIGHT:0.2
;BEFORE_LAYER_CHANGE
G92 E0
;0.2


G1 E-6.50000 F3000.000
G1 Z0.200 F9000.000
;AFTER_LAYER_CHANGE
;0.2
G1 X10.575 Y66.817
G1 E6.50000 F2400.000
;TYPE:Skirt
;WIDTH:0.42
G1 F1200.000
G1 X10.295 Y65.937 E0.02896
G1 X10.281 Y54.788 E0.34958
G1 X10.375 Y54.184 E0.01917
G1 X10.618 Y53.627 E0.01906
G1 X11.154 Y53.007 E0.02567
G1 X22.651 Y43.802 E0.46182
G1 X23.213 Y43.476 E0.02036
G1 X23.846 Y43.314 E0.02048
G1 X211.755 Y43.299 E5.89176
G1 X212.489 Y43.415 E0.02331
G1 X213.152 Y43.753 E0.02331
G1 X225.315 Y53.164 E0.48220
G1 X225.677 Y53.528 E0.01609
G1 X225.953 Y53.961 E0.01609
G1 X226.129 Y54.442 E0.01609
G1 X226.198 Y54.951 E0.01609
G1 X226.197 Y65.897 E0.34319
G1 X226.101 Y66.501 E0.01917
G1 X225.854 Y67.060 E0.01917
G1 X225.325 Y67.670 E0.02532
G1 X213.827 Y76.881 E0.46191
G1 X213.262 Y77.208 E0.02048
G1 X212.629 Y77.369 E0.02048
G1 X24.590 Y77.380 E5.89584
G1 X23.921 Y77.244 E0.02142
G1 X23.317 Y76.923 E0.02142
G1 X11.172 Y67.526 E0.48148
G1 X10.614 Y66.863 E0.02719
G1 E-4.55000 F3000.000
;WIPE_START
G1 F7200.000
G1 X10.295 Y65.937 E-0.38760
G1 X10.290 Y62.236 E-1.46490
;WIPE_END
G1 E-0.09750 F3000.000
G1 X18.690 Y64.167 F9000.000
G1 E6.50000 F2400.000
;TYPE:Support material
G1 F1200.000
G1 X18.690 Y65.657 E0.04672
G1 X19.444 Y67.478 E0.06179
G1 X19.444 Y65.996 E0.04646
G1 X19.835 Y66.567 E0.02170
G1 X20.198 Y67.027 E0.01838
G1 X20.198 Y68.762 E0.05438
G1 X20.953 Y69.074 E0.02559
G1 X20.953 Y67.841 E0.03868
G1 X21.220 Y68.095 E0.01156
G1 X21.707 Y68.506 E0.01999
G1 X21.707 Y69.386 E0.02760
G1 X22.461 Y69.699 E0.02559
G1 X22.461 Y69.058 E0.02009
G1 X23.215 Y69.512 E0.02760
G1 X23.215 Y70.011 E0.01565
G1 X23.969 Y70.324 E0.02559
G1 X23.969 Y69.885 E0.01374
G1 X24.723 Y70.191 E0.02552
G1 X24.723 Y75.007 E0.15099
G1 X25.478 Y75.007 E0.02365
G1 X25.478 Y70.426 E0.14363
G1 X26.232 Y70.605 E0.02430
G1 X26.232 Y75.007 E0.13802
G1 X26.986 Y75.007 E0.02365
G1 X26.986 Y70.722 E0.13436
G1 X27.740 Y70.788 E0.02374
G1 X27.740 Y75.007 E0.13228
G1 X28.494 Y75.007 E0.02365
G1 X28.494 Y70.794 E0.13209
G1 X29.248 Y70.751 E0.02368
G1 X29.248 Y75.007 E0.13344
G1 X30.003 Y75.007 E0.02365
G1 X30.003 Y70.647 E0.13669
G1 X30.757 Y70.492 E0.02414
G1 X30.757 Y75.007 E0.14156
G1 X31.511 Y75.007 E0.02365
G1 X31.511 Y70.272 E0.14846
G1 X32.265 Y69.994 E0.02520
G1 X32.265 Y75.007 E0.15718
G1 X32.410 Y75.007 E0.00455
G1 X32.410 Y70.365 E0.14555
G1 X33.019 Y70.112 E0.02067
G1 X33.019 Y69.641 E0.01478
G1 X33.773 Y69.213 E0.02719
G1 X33.773 Y69.800 E0.01842
G1 X34.527 Y69.488 E0.02559
G1 X34.527 Y68.697 E0.02480
G1 X35.282 Y68.073 E0.03069
G1 X35.282 Y69.175 E0.03456
G1 X36.036 Y68.863 E0.02559
G1 X36.036 Y67.310 E0.04868
G1 X36.327 Y66.972 E0.01400
G1 X36.790 Y66.358 E0.02410
G1 X36.790 Y68.067 E0.05357
G1 X37.544 Y66.246 E0.06179
G1 X37.544 Y65.110 E0.03561
G1 X37.904 Y64.339 E0.02669
G1 X38.088 Y63.860 E0.01610
G1 X38.298 Y63.194 E0.02189
G1 X38.298 Y65.658 E0.07728
G1 X39.052 Y65.658 E0.02365
G1 X39.052 Y55.034 E0.33312
G1 X39.807 Y55.031 E0.02365
G1 X39.807 Y65.658 E0.33322
G1 X40.561 Y65.658 E0.02365
G1 X40.561 Y55.028 E0.33332
G1 X41.315 Y55.024 E0.02365
G1 X41.315 Y65.658 E0.33343
G1 X42.069 Y65.658 E0.02365
G1 X42.069 Y55.021 E0.33353
G1 X42.823 Y55.018 E0.02365
G1 X42.823 Y65.658 E0.33363
G1 X43.577 Y65.658 E0.02365
G1 X43.577 Y55.014 E0.33374
G1 X44.332 Y55.024 E0.02365
G1 X44.332 Y65.658 E0.33342
G1 X45.086 Y65.658 E0.02365
G1 X45.086 Y55.024 E0.33342
G1 X45.147 Y55.024 E0.00192
G1 X45.147 Y52.677 E0.07360
G1 X45.840 Y52.680 E0.02173
G1 X45.840 Y68.003 E0.48046
G1 X46.594 Y68.000 E0.02365
G1 X46.594 Y52.682 E0.48029
G1 X47.348 Y52.685 E0.02365
G1 X47.348 Y67.998 E0.48012
G1 X48.102 Y67.995 E0.02365
G1 X48.102 Y62.913 E0.15934
G1 X48.394 Y63.870 E0.03136
G1 X48.579 Y64.349 E0.01610
G1 X48.856 Y64.956 E0.02093
G1 X48.856 Y67.992 E0.09520
G1 X49.611 Y67.990 E0.02365
G1 X49.611 Y66.248 E0.05461
G1 X49.842 Y66.576 E0.01259
G1 X50.365 Y67.220 E0.02601
G1 X50.365 Y72.670 E0.17086
G1 X51.119 Y72.670 E0.02365
G1 X51.119 Y67.999 E0.14645
G1 X51.600 Y68.423 E0.02009
G1 X51.873 Y68.636 E0.01087
G1 X51.873 Y72.670 E0.12647
G1 X52.158 Y72.670 E0.00893
G1 X52.158 Y75.007 E0.07328
G1 X52.627 Y75.007 E0.01471
G1 X52.627 Y69.163 E0.18322
G1 X53.381 Y69.602 E0.02735
G1 X53.381 Y75.007 E0.16947
G1 X54.136 Y75.007 E0.02365
G1 X54.136 Y69.959 E0.15826
G1 X54.890 Y70.246 E0.02530
G1 X54.890 Y75.007 E0.14926
G1 X55.644 Y75.007 E0.02365
G1 X55.644 Y70.472 E0.14219
G1 X56.398 Y70.634 E0.02419
G1 X56.398 Y75.007 E0.13711
G1 X57.152 Y75.007 E0.02365
G1 X57.152 Y70.742 E0.13371
G1 X57.906 Y70.792 E0.02370
G1 X57.906 Y75.007 E0.13215
G1 X58.661 Y75.007 E0.02365
G1 X58.661 Y70.790 E0.13222
G1 X59.415 Y70.731 E0.02372
G1 X59.415 Y75.007 E0.13406
G1 X60.169 Y75.007 E0.02365
G1 X60.169 Y70.618 E0.13760
G1 X60.923 Y70.447 E0.02425
G1 X60.923 Y75.007 E0.14296
G1 X61.677 Y75.007 E0.02365
G1 X61.677 Y70.217 E0.15018
G1 X62.431 Y69.920 E0.02541
G1 X62.431 Y75.007 E0.15950
G1 X62.792 Y75.007 E0.01131
G1 X62.792 Y70.206 E0.15051
G1 X63.186 Y70.043 E0.01335
G1 X63.186 Y69.556 E0.01528
G1 X63.940 Y69.107 E0.02752
G1 X63.940 Y69.731 E0.01956
G1 X64.694 Y69.419 E0.02559
G1 X64.694 Y68.567 E0.02671
G1 X65.448 Y67.915 E0.03126
G1 X65.448 Y69.106 E0.03737
G1 X66.202 Y68.794 E0.02559
G1 X66.202 Y67.117 E0.05256
G1 X66.636 Y66.576 E0.02175
G1 X66.956 Y66.119 E0.01751
G1 X66.956 Y67.665 E0.04849
G1 X67.710 Y65.845 E0.06179
G1 X67.710 Y64.775 E0.03353
G1 X68.088 Y63.860 E0.03106
G1 X68.249 Y63.372 E0.01610
G1 X68.465 Y62.525 E0.02739
G1 X68.465 Y65.658 E0.09823
G1 X69.219 Y65.658 E0.02365
G1 X69.219 Y55.034 E0.33312
G1 X69.973 Y55.031 E0.02365
G1 X69.973 Y65.658 E0.33322
G1 X70.727 Y65.658 E0.02365
G1 X70.727 Y55.028 E0.33331
G1 X71.481 Y55.025 E0.02365
G1 X71.481 Y65.658 E0.33340
G1 X72.235 Y65.658 E0.02365
G1 X72.235 Y55.022 E0.33349
G1 X72.990 Y55.019 E0.02365
G1 X72.990 Y65.658 E0.33358
G1 X73.192 Y65.658 E0.00634
G1 X73.192 Y65.675 E0.00052
G1 X73.744 Y65.672 E0.01731
G1 X73.744 Y55.016 E0.33410
G1 X74.498 Y55.024 E0.02365
G1 X74.498 Y65.667 E0.33370
G1 X75.252 Y65.663 E0.02365
G1 X75.252 Y55.024 E0.33356
G1 X75.529 Y55.024 E0.00868
G1 X75.529 Y52.673 E0.07374
G1 X76.006 Y52.675 E0.01497
G1 X76.006 Y68.008 E0.48074
G1 X76.760 Y68.004 E0.02365
G1 X76.760 Y52.679 E0.48050
G1 X77.515 Y52.683 E0.02365
G1 X77.515 Y68.170 E0.48557
G1 E-4.55000 F3000.000
;WIPE_START
G1 F7200.000
G1 X77.515 Y63.490 E-1.85250
;WIPE_END
G1 E-0.09750 F3000.000
G1 X79.777 Y59.798 F9000.000
G1 E6.50000 F2400.000
G1 F1200.000
G1 X79.777 Y60.442 E0.02020
G1 X80.531 Y62.263 E0.06179
G1 X80.531 Y58.420 E0.12047
G1 X81.285 Y56.600 E0.06179
G1 X81.285 Y64.083 E0.23464
G1 X82.039 Y65.904 E0.06179
G1 X82.039 Y54.779 E0.34882
G1 X82.226 Y54.328 E0.01529
G1 X82.794 Y54.093 E0.01926
G1 X82.794 Y66.590 E0.39181
G1 X83.548 Y66.902 E0.02559
G1 X83.548 Y53.781 E0.41140
G1 X84.302 Y53.469 E0.02559
G1 X84.302 Y67.214 E0.43099
G1 X85.056 Y67.527 E0.02559
G1 X85.056 Y53.156 E0.45058
G1 X85.810 Y52.844 E0.02559
G1 X85.810 Y67.839 E0.47017
G1 X86.564 Y68.152 E0.02559
G1 X86.564 Y52.531 E0.48975
G1 X87.319 Y52.219 E0.02559
G1 X87.319 Y68.464 E0.50934
G1 X88.073 Y68.776 E0.02559
G1 X88.073 Y51.907 E0.52893
G1 X88.239 Y51.838 E0.00565
G1 X88.827 Y52.081 E0.01995
G1 X88.827 Y68.602 E0.51799
G1 X89.581 Y68.289 E0.02559
G1 X89.581 Y52.394 E0.49840
G1 X90.335 Y52.706 E0.02559
G1 X90.335 Y67.977 E0.47881
G1 X91.089 Y67.665 E0.02559
G1 X91.089 Y53.018 E0.45922
G1 X91.844 Y53.331 E0.02559
G1 X91.844 Y67.352 E0.43963
G1 X92.598 Y67.040 E0.02559
G1 X92.598 Y53.643 E0.42004
G1 X93.352 Y53.956 E0.02559
G1 X93.352 Y66.727 E0.40045
G1 X94.106 Y66.415 E0.02559
G1 X94.106 Y54.268 E0.38086
G1 X94.252 Y54.328 E0.00496
G1 X94.860 Y55.796 E0.04982
G1 X94.860 Y64.887 E0.28502
G1 X95.614 Y63.066 E0.06179
G1 X95.614 Y57.617 E0.17084
G1 X96.369 Y59.438 E0.06179
G1 X96.369 Y61.689 E0.07057
G1 E-4.55000 F3000.000
;WIPE_START
G1 F7200.000
G1 X96.369 Y59.438 E-0.89090
G1 X95.614 Y57.617 E-0.78008
G1 X95.614 Y58.076 E-0.18152
;WIPE_END
G1 E-0.09750 F3000.000
G1 X102.402 Y65.828 F9000.000
G1 E6.50000 F2400.000
G1 F1200.000
G1 X102.402 Y55.000 E0.33950
G1 X101.648 Y55.007 E0.02365
G1 X101.648 Y65.658 E0.33397
G1 X100.893 Y65.658 E0.02365
G1 X100.893 Y55.014 E0.33376
G1 X100.139 Y55.021 E0.02365
G1 X100.139 Y65.658 E0.33355
G1 X99.385 Y65.658 E0.02365
G1 X99.385 Y55.027 E0.33333
G1 X98.631 Y55.034 E0.02365
G1 X98.631 Y65.658 E0.33312
G1 X97.877 Y65.658 E0.02365
G1 X97.877 Y64.400 E0.03946
G1 X97.465 Y65.267 E0.03008
G1 X97.123 Y65.856 E0.02137
G1 X97.123 Y67.264 E0.04414
G1 X96.548 Y68.651 E0.04707
G1 X96.369 Y68.725 E0.00610
G1 X96.369 Y66.919 E0.05662
G1 X95.992 Y67.361 E0.01820
G1 X95.614 Y67.756 E0.01714
G1 X95.614 Y69.037 E0.04017
G1 X94.860 Y69.350 E0.02559
G1 X94.860 Y68.437 E0.02862
G1 X94.106 Y68.998 E0.02947
G1 X94.106 Y69.662 E0.02083
G1 X93.352 Y69.974 E0.02559
G1 X93.352 Y69.462 E0.01607
G1 X92.598 Y69.846 E0.02654
G1 X92.598 Y75.007 E0.16181
G1 X91.844 Y75.007 E0.02365
G1 X91.844 Y70.158 E0.15204
G1 X91.089 Y70.401 E0.02485
G1 X91.089 Y75.007 E0.14441
G1 X90.335 Y75.007 E0.02365
G1 X90.335 Y70.587 E0.13859
G1 X89.581 Y70.711 E0.02396
G1 X89.581 Y75.007 E0.13470
G1 X88.827 Y75.007 E0.02365
G1 X88.827 Y70.782 E0.13246
G1 X88.073 Y70.796 E0.02365
G1 X88.073 Y75.007 E0.13202
G1 X87.319 Y75.007 E0.02365
G1 X87.319 Y70.758 E0.13323
G1 X86.564 Y70.663 E0.02383
G1 X86.564 Y75.007 E0.13621
G1 X85.810 Y75.007 E0.02365
G1 X85.810 Y70.512 E0.14093
G1 X85.056 Y70.301 E0.02455
G1 X85.056 Y75.007 E0.14754
G1 X84.302 Y75.007 E0.02365
G1 X84.302 Y70.029 E0.15607
G1 X83.548 Y69.685 E0.02599
G1 X83.548 Y75.007 E0.16685
G1 X82.794 Y75.007 E0.02365
G1 X82.794 Y69.269 E0.17991
G1 X82.039 Y68.764 E0.02846
G1 X82.039 Y69.524 E0.02385
G1 X81.285 Y69.212 E0.02559
G1 X81.285 Y68.151 E0.03326
G1 X80.848 Y67.741 E0.01881
G1 X80.531 Y67.409 E0.01439
G1 X80.531 Y68.900 E0.04675
G1 X79.930 Y68.651 E0.02040
G1 X79.777 Y68.281 E0.01254
G1 X79.777 Y66.484 E0.05634
G1 X79.271 Y65.723 E0.02865
G1 X79.023 Y65.285 E0.01580
G1 X79.023 Y67.992 E0.08488
G1 X78.269 Y67.996 E0.02365
G1 X78.269 Y63.492 E0.14121
G1 X78.093 Y62.877 E0.02005
G1 X77.895 Y61.882 E0.03183
G1 X77.831 Y61.362 E0.01641
G1 X77.793 Y60.861 E0.01577
G1 X77.781 Y60.336 E0.01646
G1 X77.830 Y59.329 E0.03161
G1 X77.894 Y58.802 E0.01664
G1 X78.093 Y57.806 E0.03185
G1 X78.269 Y57.191 E0.02005
G1 X78.269 Y52.687 E0.14121
G1 X79.023 Y52.691 E0.02365
G1 X79.023 Y55.398 E0.08488
G1 X79.271 Y54.960 E0.01580
G1 X79.777 Y54.199 E0.02865
G1 X79.777 Y52.402 E0.05634
G1 X79.930 Y52.032 E0.01254
G1 X80.531 Y51.783 E0.02040
G1 X80.531 Y53.274 E0.04675
G1 X80.848 Y52.942 E0.01439
G1 X81.285 Y52.532 E0.01881
G1 X81.285 Y51.471 E0.03326
G1 X82.039 Y51.159 E0.02559
G1 X82.039 Y51.919 E0.02385
G1 X82.794 Y51.414 E0.02846
G1 X82.794 Y45.676 E0.17991
G1 X83.548 Y45.676 E0.02365
G1 X83.548 Y50.998 E0.16685
G1 X84.302 Y50.654 E0.02599
G1 X84.302 Y45.676 E0.15607
G1 X85.056 Y45.676 E0.02365
G1 X85.056 Y50.382 E0.14754
G1 X85.810 Y50.171 E0.02455
G1 X85.810 Y45.676 E0.14093
G1 X86.564 Y45.676 E0.02365
G1 X86.564 Y50.020 E0.13621
G1 X87.319 Y49.925 E0.02383
G1 X87.319 Y45.676 E0.13323
G1 X88.073 Y45.676 E0.02365
G1 X88.073 Y49.887 E0.13202
G1 X88.827 Y49.901 E0.02365
G1 X88.827 Y45.676 E0.13246
G1 X89.581 Y45.676 E0.02365
G1 X89.581 Y49.972 E0.13470
G1 X90.335 Y50.096 E0.02396
G1 X90.335 Y45.676 E0.13859
G1 X91.089 Y45.676 E0.02365
G1 X91.089 Y50.282 E0.14441
G1 X91.844 Y50.525 E0.02485
G1 X91.844 Y45.676 E0.15205
G1 X92.598 Y45.676 E0.02365
G1 X92.598 Y50.837 E0.16181
G1 X93.352 Y51.221 E0.02654
G1 X93.352 Y50.709 E0.01607
G1 X94.106 Y51.021 E0.02559
G1 X94.106 Y51.685 E0.02083
G1 X94.860 Y52.246 E0.02947
G1 X94.860 Y51.333 E0.02862
G1 X95.614 Y51.646 E0.02559
G1 X95.614 Y52.927 E0.04017
G1 X95.992 Y53.322 E0.01714
G1 X96.369 Y53.764 E0.01820
G1 X96.369 Y51.958 E0.05662
G1 X96.548 Y52.032 E0.00610
G1 X97.123 Y53.419 E0.04707
G1 X97.123 Y54.827 E0.04414
G1 X97.465 Y55.416 E0.02137
G1 X97.877 Y56.283 E0.03008
G1 X97.877 Y54.797 E0.04660
G1 E-4.55000 F3000.000
;WIPE_START
G1 F7200.000
G1 X97.877 Y56.283 E-0.58836
G1 X97.465 Y55.416 E-0.37978
G1 X97.123 Y54.827 E-0.26984
G1 X97.123 Y53.419 E-0.55719
G1 X97.067 Y53.286 E-0.05733
;WIPE_END
G1 E-0.09750 F3000.000
G1 X103.910 Y54.855 F9000.000
G1 E6.50000 F2400.000
G1 F1200.000
G1 X103.910 Y65.676 E0.33930
G1 X104.664 Y65.671 E0.02365
G1 X104.664 Y55.024 E0.33381
G1 X105.418 Y55.024 E0.02365
G1 X105.418 Y65.665 E0.33364
G1 X106.173 Y65.660 E0.02365
G1 X106.173 Y55.024 E0.33347
G1 X106.927 Y55.024 E0.02365
G1 X106.927 Y65.655 E0.33330
G1 X107.681 Y65.649 E0.02365
G1 X107.681 Y55.024 E0.33314
G1 X108.435 Y55.024 E0.02365
G1 X108.435 Y56.706 E0.05273
G1 X108.229 Y57.311 E0.02003
G1 X108.093 Y57.806 E0.01609
G1 X107.980 Y58.307 E0.01610
G1 X107.894 Y58.802 E0.01577
G1 X107.831 Y59.321 E0.01639
G1 X107.781 Y60.336 E0.03186
G1 X107.793 Y60.849 E0.01609
G1 X107.831 Y61.362 E0.01613
G1 X107.895 Y61.882 E0.01641
G1 X107.980 Y62.376 E0.01575
G1 X108.093 Y62.877 E0.01610
G1 X108.229 Y63.372 E0.01609
G1 X108.435 Y63.977 E0.02003
G1 X108.435 Y65.644 E0.05227
G1 X108.684 Y65.642 E0.00781
G1 X109.189 Y66.862 E0.04139
G1 X109.189 Y65.579 E0.04024
G1 X109.546 Y66.157 E0.02130
G1 X109.943 Y66.706 E0.02125
G1 X109.943 Y68.656 E0.06114
G1 X110.698 Y68.968 E0.02559
G1 X110.698 Y67.583 E0.04343
G1 X111.211 Y68.087 E0.02256
G1 X111.452 Y68.295 E0.00996
G1 X111.452 Y69.281 E0.03092
G1 X112.206 Y69.593 E0.02559
G1 X112.206 Y68.881 E0.02234
G1 X112.960 Y69.368 E0.02815
G1 X112.960 Y75.007 E0.17681
G1 X113.714 Y75.007 E0.02365
G1 X113.714 Y69.769 E0.16422
G1 X114.468 Y70.093 E0.02574
G1 X114.468 Y75.007 E0.15406
G1 X115.222 Y75.007 E0.02365
G1 X115.222 Y70.355 E0.14585
G1 X115.977 Y70.549 E0.02442
G1 X115.977 Y75.007 E0.13976
G1 X116.731 Y75.007 E0.02365
G1 X116.731 Y70.690 E0.13534
G1 X117.485 Y70.770 E0.02378
G1 X117.485 Y75.007 E0.13285
G1 X118.239 Y75.007 E0.02365
G1 X118.239 Y70.800 E0.13190
G1 X118.993 Y70.770 E0.02367
G1 X118.993 Y75.007 E0.13285
G1 X119.747 Y75.007 E0.02365
G1 X119.747 Y70.690 E0.13534
G1 X120.502 Y70.549 E0.02406
G1 X120.502 Y75.007 E0.13976
G1 X121.256 Y75.007 E0.02365
G1 X121.256 Y70.355 E0.14585
G1 X122.010 Y70.093 E0.02503
G1 X122.010 Y75.007 E0.15406
G1 X122.764 Y75.007 E0.02365
G1 X122.764 Y69.769 E0.16422
G1 X123.518 Y69.368 E0.02679
G1 X123.518 Y75.007 E0.17681
G1 X123.573 Y75.007 E0.00172
G1 X123.542 Y69.896 E0.16026
G1 X124.272 Y69.593 E0.02477
G1 X124.272 Y68.881 E0.02234
G1 X125.027 Y68.295 E0.02995
G1 X125.027 Y69.281 E0.03092
G1 X125.781 Y68.968 E0.02559
G1 X125.781 Y67.583 E0.04343
G1 X126.320 Y66.981 E0.02536
G1 X126.535 Y66.706 E0.01093
G1 X126.535 Y68.656 E0.06114
G1 X126.548 Y68.651 E0.00045
G1 X127.289 Y66.862 E0.06070
G1 X127.289 Y65.579 E0.04024
G1 X127.696 Y64.808 E0.02732
G1 X128.043 Y63.977 E0.02824
G1 X128.043 Y65.658 E0.05272
G1 X128.797 Y65.658 E0.02365
