; generated by PrusaSlicer 2.3.3+x64 on 2021-09-26 at 15:11:29 UTC

; 

; external perimeters extrusion width = 0.45mm
; perimeters extrusion width = 0.45mm
; infill extrusion width = 0.45mm
; solid infill extrusion width = 0.45mm
; top infill extrusion width = 0.40mm
; support material extrusion width = 0.38mm
; first layer extrusion width = 0.42mm

M201 X500 Y500 Z100 E5000 ; sets maximum accelerations, mm/sec^2
M203 X500 Y500 Z10 E60 ; sets maximum feedrates, mm/sec
M204 P500 R1000 T500 ; sets acceleration (P, T) and retract acceleration (R), mm/sec^2
M205 X8.00 Y8.00 Z0.40 E5.00 ; sets the jerk limits, mm/sec
M205 S0 T0 ; sets the minimum extruding and travel feed rate, mm/sec
M107
;TYPE:Custom
G90 ; use absolute coordinates
M83 ; extruder relative mode
M104 S200 ; set extruder temp
M140 S60 ; set bed temp
M190 S60 ; wait for bed temp
M109 S200 ; wait for extruder temp
G28 ; home all
G29 ; Level Bed
G1 Z2 F240
G1 X2 Y10 F3000
G1 Z0.28 F240
G92 E0
G1 Y190 E15 F1500 ; intro line
G1 X2.3 F5000
G92 E0
G1 Y10 E15 F1200 ; intro line
G92 E0
G21 ; set units to millimeters
G90 ; use absolute coordinates
M83 ; use relative distances for extrusion
; Filament gcode
;LAYER_CHANGE
;Z:0.2
;HEIGHT:0.2
;BEFORE_LAYER_CHANGE
G92 E0
;0.2


G1 E-6.50000 F3000.000
G1 Z0.200 F9000.000
;AFTER_LAYER_CHANGE
;0.2
G1 X74.988 Y32.654
G1 E6.50000 F2400.000
;TYPE:Skirt
;WIDTH:0.42
G1 F1200.000
G1 X75.461 Y31.694 E0.03354
G1 X76.227 Y30.694 E0.03950
G1 X76.976 Y29.990 E0.03225
G1 X78.098 Y29.199 E0.04303
G1 X83.873 Y26.238 E0.20347
G1 X85.653 Y25.677 E0.05852
G1 X87.044 Y25.517 E0.04391
G1 X148.363 Y27.031 E1.92321
G1 X149.253 Y27.172 E0.02826
G1 X150.498 Y27.597 E0.04124
G1 X156.021 Y30.249 E0.19208
G1 X157.271 Y30.976 E0.04535
G1 X158.352 Y31.837 E0.04333
G1 X159.265 Y32.884 E0.04357
G1 X159.907 Y34.061 E0.04202
G1 X160.230 Y35.323 E0.04086
G1 X164.630 Y72.323 E1.16827
G1 X164.635 Y77.517 E0.16287
G1 X164.507 Y78.146 E0.02012
G1 X164.219 Y78.715 E0.02000
G1 X163.852 Y79.132 E0.01740
G1 X163.396 Y79.454 E0.01752
G1 X162.881 Y79.660 E0.01740
G1 X162.332 Y79.741 E0.01740
G1 X134.314 Y79.590 E0.87851
G1 X70.005 Y78.286 E2.01678
G1 X69.331 Y78.170 E0.02142
G1 X68.719 Y77.867 E0.02142
G1 X68.346 Y77.549 E0.01538
G1 X68.046 Y77.160 E0.01538
G1 X67.833 Y76.719 E0.01538
G1 X67.714 Y76.243 E0.01538
G1 X67.713 Y70.758 E0.17198
G1 X74.752 Y33.481 E1.18943
G1 X74.972 Y32.712 E0.02508
G1 E-4.55000 F3000.000
;WIPE_START
G1 F7200.000
G1 X75.461 Y31.694 E-0.44685
G1 X76.227 Y30.694 E-0.49867
G1 X76.976 Y29.990 E-0.40718
G1 X78.008 Y29.262 E-0.49980
;WIPE_END
G1 E-0.09750 F3000.000
G1 X70.068 Y71.084 F9000.000
G1 E6.50000 F2400.000
;TYPE:Support material interface
;WIDTH:0.38
G1 F1200.000
G1 X70.068 Y75.910 E0.13526
G1 X70.605 Y75.910 E0.01505
G1 X70.605 Y71.236 E0.13101
G1 X71.142 Y71.236 E0.01505
G1 X71.142 Y75.910 E0.13101
G1 X71.679 Y75.910 E0.01505
G1 X71.679 Y71.236 E0.13101
G1 X72.216 Y71.236 E0.01505
G1 X72.216 Y71.779 E0.01523
G1 X72.753 Y71.779 E0.01505
G1 X72.753 Y71.236 E0.01523
G1 X73.290 Y71.236 E0.01505
G1 X73.290 Y71.779 E0.01523
G1 X73.828 Y71.779 E0.01505
G1 X73.828 Y71.236 E0.01523
G1 X74.365 Y71.236 E0.01505
G1 X74.365 Y71.779 E0.01523
G1 X74.902 Y71.779 E0.01505
G1 X74.902 Y71.236 E0.01523
G1 X75.439 Y71.236 E0.01505
G1 X75.439 Y71.779 E0.01523
G1 X75.976 Y71.779 E0.01505
G1 X75.976 Y71.236 E0.01523
G1 X76.513 Y71.236 E0.01505
G1 X76.513 Y71.779 E0.01523
G1 X77.050 Y71.779 E0.01505
G1 X77.050 Y71.236 E0.01523
G1 X77.587 Y71.236 E0.01505
G1 X77.587 Y71.779 E0.01523
G1 X78.124 Y71.779 E0.01505
G1 X78.124 Y71.236 E0.01523
G1 X78.661 Y71.236 E0.01505
G1 X78.661 Y71.779 E0.01523
G1 X79.198 Y71.779 E0.01505
G1 X79.198 Y71.236 E0.01523
G1 X79.735 Y71.236 E0.01505
G1 X79.735 Y71.779 E0.01523
G1 X80.273 Y71.779 E0.01505
G1 X80.273 Y71.236 E0.01523
G1 X80.810 Y71.236 E0.01505
G1 X80.810 Y71.779 E0.01523
G1 X81.347 Y71.779 E0.01505
G1 X81.347 Y71.236 E0.01523
G1 X81.884 Y71.236 E0.01505
G1 X81.884 Y71.779 E0.01523
G1 X82.421 Y71.779 E0.01505
G1 X82.421 Y71.236 E0.01523
G1 X82.958 Y71.236 E0.01505
G1 X82.958 Y71.779 E0.01523
G1 X83.495 Y71.779 E0.01505
G1 X83.495 Y71.236 E0.01523
G1 X84.032 Y71.236 E0.01505
G1 X84.032 Y71.779 E0.01523
G1 X84.569 Y71.779 E0.01505
G1 X84.569 Y71.236 E0.01523
G1 X85.106 Y71.236 E0.01505
G1 X85.106 Y71.779 E0.01523
G1 X85.643 Y71.779 E0.01505
G1 X85.643 Y71.236 E0.01523
G1 X86.180 Y71.236 E0.01505
G1 X86.180 Y71.779 E0.01523
G1 X86.717 Y71.779 E0.01505
G1 X86.717 Y71.236 E0.01523
G1 X87.255 Y71.236 E0.01505
G1 X87.255 Y71.779 E0.01523
G1 X87.792 Y71.779 E0.01505
G1 X87.792 Y71.236 E0.01523
G1 X88.329 Y71.236 E0.01505
G1 X88.329 Y71.779 E0.01523
G1 X88.866 Y71.779 E0.01505
G1 X88.866 Y71.236 E0.01523
G1 X89.403 Y71.236 E0.01505
G1 X89.403 Y71.779 E0.01523
G1 X89.940 Y71.779 E0.01505
G1 X89.940 Y71.236 E0.01523
G1 X90.477 Y71.236 E0.01505
G1 X90.477 Y71.779 E0.01523
G1 X91.014 Y71.779 E0.01505
G1 X91.014 Y71.236 E0.01523
G1 X91.551 Y71.236 E0.01505
G1 X91.551 Y71.779 E0.01523
G1 X92.088 Y71.779 E0.01505
G1 X92.088 Y71.236 E0.01523
G1 X92.625 Y71.236 E0.01505
G1 X92.625 Y71.779 E0.01523
G1 X93.162 Y71.779 E0.01505
G1 X93.162 Y71.236 E0.01523
G1 X93.699 Y71.236 E0.01505
G1 X93.699 Y71.779 E0.01523
G1 X94.237 Y71.779 E0.01505
G1 X94.237 Y71.236 E0.01523
G1 X94.774 Y71.236 E0.01505
G1 X94.774 Y71.779 E0.01523
G1 X95.311 Y71.779 E0.01505
G1 X95.311 Y71.236 E0.01523
G1 X95.848 Y71.236 E0.01505
G1 X95.848 Y71.931 E0.01948
G1 E-4.55000 F3000.000
;WIPE_START
G1 F7200.000
G1 X95.848 Y71.236 E-0.27511
G1 X95.311 Y71.236 E-0.21259
G1 X95.311 Y71.779 E-0.21507
G1 X94.774 Y71.779 E-0.21259
G1 X94.774 Y71.236 E-0.21507
G1 X94.237 Y71.236 E-0.21259
G1 X94.237 Y71.779 E-0.21507
G1 X93.699 Y71.779 E-0.21259
G1 X93.699 Y71.572 E-0.08182
;WIPE_END
G1 E-0.09750 F3000.000
G1 X97.996 Y76.062 F9000.000
G1 E6.50000 F2400.000
G1 F1200.000
G1 X97.996 Y71.236 E0.13526
G1 X97.459 Y71.236 E0.01505
G1 X97.459 Y75.910 E0.13101
G1 X96.922 Y75.910 E0.01505
G1 X96.922 Y71.236 E0.13101
G1 X96.385 Y71.236 E0.01505
G1 X96.385 Y75.910 E0.13101
G1 X95.848 Y75.910 E0.01505
G1 X95.848 Y75.367 E0.01523
G1 X95.311 Y75.367 E0.01505
G1 X95.311 Y75.910 E0.01523
G1 X94.774 Y75.910 E0.01505
G1 X94.774 Y75.367 E0.01523
G1 X94.237 Y75.367 E0.01505
G1 X94.237 Y75.910 E0.01523
G1 X93.699 Y75.910 E0.01505
G1 X93.699 Y75.367 E0.01523
G1 X93.162 Y75.367 E0.01505
G1 X93.162 Y75.910 E0.01523
G1 X92.625 Y75.910 E0.01505
G1 X92.625 Y75.367 E0.01523
G1 X92.088 Y75.367 E0.01505
G1 X92.088 Y75.910 E0.01523
G1 X91.551 Y75.910 E0.01505
G1 X91.551 Y75.367 E0.01523
G1 X91.014 Y75.367 E0.01505
G1 X91.014 Y75.910 E0.01523
G1 X90.477 Y75.910 E0.01505
G1 X90.477 Y75.367 E0.01523
G1 X89.940 Y75.367 E0.01505
G1 X89.940 Y75.910 E0.01523
G1 X89.403 Y75.910 E0.01505
G1 X89.403 Y75.367 E0.01523
G1 X88.866 Y75.367 E0.01505
G1 X88.866 Y75.910 E0.01523
G1 X88.329 Y75.910 E0.01505
G1 X88.329 Y75.367 E0.01523
G1 X87.792 Y75.367 E0.01505
G1 X87.792 Y75.910 E0.01523
G1 X87.255 Y75.910 E0.01505
G1 X87.255 Y75.367 E0.01523
G1 X86.717 Y75.367 E0.01505
G1 X86.717 Y75.910 E0.01523
G1 X86.180 Y75.910 E0.01505
G1 X86.180 Y75.367 E0.01523
G1 X85.643 Y75.367 E0.01505
G1 X85.643 Y75.910 E0.01523
G1 X85.106 Y75.910 E0.01505
G1 X85.106 Y75.367 E0.01523
G1 X84.569 Y75.367 E0.01505
G1 X84.569 Y75.910 E0.01523
G1 X84.032 Y75.910 E0.01505
G1 X84.032 Y75.367 E0.01523
G1 X83.495 Y75.367 E0.01505
G1 X83.495 Y75.910 E0.01523
G1 X82.958 Y75.910 E0.01505
G1 X82.958 Y75.367 E0.01523
G1 X82.421 Y75.367 E0.01505
G1 X82.421 Y75.910 E0.01523
G1 X81.884 Y75.910 E0.01505
G1 X81.884 Y75.367 E0.01523
G1 X81.347 Y75.367 E0.01505
G1 X81.347 Y75.910 E0.01523
G1 X80.810 Y75.910 E0.01505
G1 X80.810 Y75.367 E0.01523
G1 X80.273 Y75.367 E0.01505
G1 X80.273 Y75.910 E0.01523
G1 X79.735 Y75.910 E0.01505
G1 X79.735 Y75.367 E0.01523
G1 X79.198 Y75.367 E0.01505
G1 X79.198 Y75.910 E0.01523
G1 X78.661 Y75.910 E0.01505
G1 X78.661 Y75.367 E0.01523
G1 X78.124 Y75.367 E0.01505
G1 X78.124 Y75.910 E0.01523
G1 X77.587 Y75.910 E0.01505
G1 X77.587 Y75.367 E0.01523
G1 X77.050 Y75.367 E0.01505
G1 X77.050 Y75.910 E0.01523
G1 X76.513 Y75.910 E0.01505
G1 X76.513 Y75.367 E0.01523
G1 X75.976 Y75.367 E0.01505
G1 X75.976 Y75.910 E0.01523
G1 X75.439 Y75.910 E0.01505
G1 X75.439 Y75.367 E0.01523
G1 X74.902 Y75.367 E0.01505
G1 X74.902 Y75.910 E0.01523
G1 X74.365 Y75.910 E0.01505
G1 X74.365 Y75.367 E0.01523
G1 X73.828 Y75.367 E0.01505
G1 X73.828 Y75.910 E0.01523
G1 X73.290 Y75.910 E0.01505
G1 X73.290 Y75.367 E0.01523
G1 X72.753 Y75.367 E0.01505
G1 X72.753 Y75.910 E0.01523
G1 X72.216 Y75.910 E0.01505
G1 X72.216 Y75.215 E0.01948
G1 E-4.55000 F3000.000
;WIPE_START
G1 F7200.000
G1 X72.216 Y75.910 E-0.27510
G1 X72.753 Y75.910 E-0.21259
G1 X72.753 Y75.367 E-0.21505
G1 X73.290 Y75.367 E-0.21259
G1 X73.290 Y75.910 E-0.21505
G1 X73.828 Y75.910 E-0.21259
G1 X73.828 Y75.367 E-0.21505
G1 X74.365 Y75.367 E-0.21259
G1 X74.365 Y75.574 E-0.08187
;WIPE_END
G1 E-0.09750 F3000.000
G1 X72.719 Y73.689 F9000.000
G1 E6.50000 F2400.000
;TYPE:Perimeter
;WIDTH:0.42
G1 F1200.000
G1 X72.719 Y73.457 E0.00730
G1 X95.345 Y73.457 E0.70942
G1 X95.345 Y73.689 E0.00730
G1 X72.779 Y73.689 E0.70754
G1 X72.342 Y74.066 F9000.000
;TYPE:External perimeter
G1 F1200.000
G1 X72.342 Y73.079 E0.03094
G1 X95.722 Y73.079 E0.73306
G1 X95.722 Y74.066 E0.03094
G1 X72.402 Y74.066 E0.73118
G1 X72.537 Y73.717 F9000.000
G1 E-4.55000 F3000.000
;WIPE_START
G1 F7200.000
G1 X72.342 Y73.079 E-0.39138
G1 X76.033 Y73.079 E-1.46112
;WIPE_END
G1 E-0.09750 F3000.000
G1 X88.113 Y35.257 F9000.000
G1 E6.50000 F2400.000
;TYPE:Support material interface
;WIDTH:0.38
G1 F1200.000
G1 X88.113 Y34.416 E0.02357
G1 X87.576 Y34.416 E0.01505
G1 X87.576 Y35.352 E0.02622
G1 X87.039 Y35.352 E0.01505
G1 X87.039 Y34.416 E0.02622
G1 X86.502 Y34.416 E0.01505
G1 X86.502 Y35.352 E0.02622
G1 X86.218 Y35.352 E0.00795
G1 X86.085 Y35.163 E0.00649
G1 X85.965 Y34.949 E0.00687
G1 X85.965 Y34.264 E0.01919
G1 E-4.55000 F3000.000
;WIPE_START
G1 F7200.000
G1 X85.965 Y34.949 E-0.27098
G1 X86.085 Y35.163 E-0.09698
G1 X86.218 Y35.352 E-0.09163
G1 X86.502 Y35.352 E-0.11228
G1 X86.502 Y34.416 E-0.37035
G1 X87.039 Y34.416 E-0.21259
G1 X87.039 Y35.352 E-0.37036
G1 X87.576 Y35.352 E-0.21259
G1 X87.576 Y35.062 E-0.11474
;WIPE_END
G1 E-0.09750 F3000.000
G1 X87.793 Y34.229 F9000.000
G1 E6.50000 F2400.000
;TYPE:Support material
;WIDTH:0.42
G1 F1200.000
G1 X87.793 Y31.177 E0.09569
G1 X87.626 Y31.009 E0.00741
G1 X87.444 Y30.881 E0.00699
G1 X87.267 Y30.803 E0.00608
G1 X87.095 Y30.769 E0.00547
G1 X87.039 Y30.767 E0.00177
G1 X87.039 Y34.059 E0.10323
G1 X86.285 Y34.059 E0.02365
G1 X86.285 Y30.932 E0.09805
G1 E-4.55000 F3000.000
;WIPE_START
G1 F7200.000
G1 X86.285 Y34.059 E-1.23787
G1 X87.039 Y34.059 E-0.29852
G1 X87.039 Y33.260 E-0.31611
;WIPE_END
G1 E-0.09750 F3000.000
G1 X84.777 Y28.437 F9000.000
G1 E6.50000 F2400.000
G1 F1200.000
G1 X84.777 Y29.086 E0.02035
G1 X85.531 Y29.014 E0.02375
G1 X85.531 Y28.214 E0.02508
G1 X85.904 Y28.071 E0.01254
G1 X86.285 Y27.974 E0.01232
G1 X86.285 Y28.973 E0.03132
G1 X87.039 Y28.958 E0.02365
G1 X87.039 Y27.894 E0.03334
G1 X87.616 Y27.939 E0.01814
G1 X87.793 Y27.974 E0.00566
G1 X87.793 Y28.973 E0.03132
G1 X88.547 Y29.014 E0.02368
G1 X88.547 Y28.214 E0.02508
G1 X88.927 Y28.401 E0.01328
G1 X89.302 Y28.644 E0.01399
G1 X89.302 Y29.257 E0.01919
G1 E-4.55000 F3000.000
;WIPE_START
G1 F7200.000
G1 X89.302 Y28.644 E-0.24232
G1 X88.927 Y28.401 E-0.17664
G1 X88.547 Y28.214 E-0.16771
G1 X88.547 Y29.014 E-0.31660
G1 X87.793 Y28.973 E-0.29895
G1 X87.793 Y27.974 E-0.39540
G1 X87.616 Y27.939 E-0.07150
G1 X87.154 Y27.903 E-0.18338
;WIPE_END
G1 E-0.09750 F3000.000
G1 X86.318 Y36.408 F9000.000
G1 E6.50000 F2400.000
;TYPE:External perimeter
G1 F1200.000
G1 X85.953 Y36.154 E0.01396
G1 X85.605 Y35.785 E0.01589
G1 X85.382 Y35.447 E0.01271
G1 X85.250 Y35.192 E0.00897
G1 X85.047 Y34.654 E0.01804
G1 X84.941 Y34.214 E0.01419
G1 X84.892 Y33.906 E0.00979
G1 X84.854 Y33.290 E0.01933
G1 X84.875 Y32.824 E0.01463
G1 X84.914 Y32.514 E0.00979
G1 X85.006 Y32.071 E0.01419
G1 X85.093 Y31.781 E0.00951
G1 X85.313 Y31.257 E0.01783
G1 X85.524 Y30.905 E0.01286
G1 X85.687 Y30.693 E0.00836
G1 X85.864 Y30.507 E0.00807
G1 X86.059 Y30.347 E0.00790
G1 X86.268 Y30.220 E0.00767
G1 X86.489 Y30.124 E0.00756
G1 X86.719 Y30.072 E0.00741
G1 X87.036 Y30.050 E0.00996
G1 X87.475 Y30.090 E0.01380
G1 X87.810 Y30.219 E0.01127
G1 X88.122 Y30.423 E0.01168
G1 X88.473 Y30.792 E0.01598
G1 X88.699 Y31.134 E0.01286
G1 X88.937 Y31.644 E0.01765
G1 X89.072 Y32.071 E0.01403
G1 X89.186 Y32.669 E0.01906
G1 X89.225 Y33.289 E0.01948
G1 X89.186 Y33.909 E0.01949
G1 X89.072 Y34.506 E0.01906
G1 X88.937 Y34.933 E0.01403
G1 X88.699 Y35.443 E0.01765
G1 X88.473 Y35.785 E0.01284
G1 X88.126 Y36.154 E0.01589
G1 X87.760 Y36.408 E0.01396
G1 X86.378 Y36.408 E0.04334
G1 X86.009 Y36.662 F9000.000
G1 X86.200 Y36.785
;TYPE:Perimeter
G1 F1200.000
G1 X87.879 Y36.785 E0.05265
G1 X88.373 Y36.441 E0.01890
G1 X88.770 Y36.020 E0.01814
G1 X89.029 Y35.628 E0.01473
G1 X89.289 Y35.070 E0.01929
G1 X89.438 Y34.599 E0.01550
G1 X89.561 Y33.956 E0.02051
G1 X89.602 Y33.289 E0.02097
G1 X89.561 Y32.621 E0.02097
G1 X89.438 Y31.979 E0.02051
G1 X89.289 Y31.507 E0.01550
G1 X89.029 Y30.950 E0.01929
G1 X88.769 Y30.557 E0.01478
G1 X88.381 Y30.149 E0.01766
G1 X89.383 Y30.248 E0.03158
G1 X90.291 Y30.386 E0.02879
G1 X91.575 Y30.670 E0.04126
G1 X92.377 Y30.911 E0.02623
G1 X93.122 Y31.187 E0.02491
G1 X93.802 Y31.495 E0.02343
G1 X94.417 Y31.834 E0.02201
G1 X94.681 Y32.003 E0.00983
G1 X95.182 Y32.378 E0.01962
G1 X95.382 Y32.555 E0.00837
G1 X95.747 Y32.941 E0.01666
G1 X96.026 Y33.331 E0.01503
G1 X96.118 Y33.498 E0.00599
G1 X96.269 Y33.878 E0.01282
G1 X96.343 Y34.252 E0.01197
G1 X96.350 Y34.402 E0.00470
G1 X96.314 Y34.774 E0.01172
G1 X96.202 Y35.150 E0.01231
G1 X96.129 Y35.313 E0.00559
G1 X95.894 Y35.701 E0.01424
G1 X95.578 Y36.082 E0.01551
G1 X95.175 Y36.459 E0.01731
G1 X94.681 Y36.829 E0.01935
G1 X94.121 Y37.169 E0.02053
G1 X93.470 Y37.495 E0.02282
G1 X92.752 Y37.790 E0.02434
G1 X92.381 Y37.920 E0.01233
G1 X91.571 Y38.163 E0.02651
G1 X90.730 Y38.362 E0.02709
G1 X89.842 Y38.521 E0.02828
G1 X88.455 Y38.676 E0.04376
G1 X87.039 Y38.729 E0.04444
G1 X85.623 Y38.676 E0.04444
G1 X84.236 Y38.521 E0.04376
G1 X83.348 Y38.362 E0.02828
G1 X82.507 Y38.163 E0.02709
G1 X81.697 Y37.920 E0.02651
G1 X81.326 Y37.790 E0.01233
G1 X80.608 Y37.495 E0.02434
G1 X79.957 Y37.169 E0.02282
G1 X79.398 Y36.829 E0.02053
G1 X78.903 Y36.459 E0.01935
G1 X78.500 Y36.082 E0.01731
G1 X78.185 Y35.701 E0.01551
G1 X77.949 Y35.313 E0.01424
G1 X77.876 Y35.150 E0.00559
G1 X77.764 Y34.774 E0.01231
G1 X77.728 Y34.402 E0.01172
G1 X77.735 Y34.252 E0.00470
G1 X77.809 Y33.878 E0.01197
G1 X77.960 Y33.498 E0.01282
G1 X78.053 Y33.331 E0.00599
G1 X78.331 Y32.941 E0.01503
G1 X78.697 Y32.555 E0.01666
G1 X78.897 Y32.378 E0.00837
G1 X79.398 Y32.003 E0.01962
G1 X79.662 Y31.834 E0.00983
G1 X80.276 Y31.495 E0.02201
G1 X80.957 Y31.187 E0.02343
G1 X81.702 Y30.911 E0.02491
G1 X82.503 Y30.670 E0.02623
G1 X83.787 Y30.386 E0.04126
G1 X84.695 Y30.248 E0.02879
G1 X85.707 Y30.148 E0.03187
G1 X85.400 Y30.447 E0.01344
G1 X85.212 Y30.692 E0.00968
G1 X84.976 Y31.086 E0.01439
G1 X84.737 Y31.654 E0.01932
G1 X84.640 Y31.979 E0.01065
G1 X84.542 Y32.453 E0.01516
G1 X84.499 Y32.792 E0.01072
G1 X84.476 Y33.293 E0.01574
G1 X84.517 Y33.947 E0.02053
G1 X84.570 Y34.288 E0.01083
G1 X84.686 Y34.765 E0.01540
G1 X84.905 Y35.346 E0.01945
G1 X85.056 Y35.637 E0.01030
G1 X85.308 Y36.020 E0.01436
G1 X85.705 Y36.441 E0.01814
G1 X86.150 Y36.751 E0.01702
G1 E-4.55000 F3000.000
;WIPE_START
G1 F7200.000
G1 X87.879 Y36.785 E-0.68430
G1 X88.373 Y36.441 E-0.23862
G1 X88.770 Y36.020 E-0.22897
G1 X89.029 Y35.628 E-0.18597
G1 X89.289 Y35.070 E-0.24354
G1 X89.438 Y34.599 E-0.19570
G1 X89.474 Y34.412 E-0.07540
;WIPE_END
G1 E-0.09750 F3000.000
G1 X86.065 Y39.070 F9000.000
G1 E6.50000 F2400.000
;TYPE:External perimeter
G1 F1200.000
G1 X85.595 Y39.053 E0.01475
G1 X84.181 Y38.894 E0.04459
G1 X82.835 Y38.634 E0.04300
G1 X82.407 Y38.527 E0.01384
G1 X81.580 Y38.279 E0.02706
G1 X81.192 Y38.142 E0.01291
G1 X80.452 Y37.838 E0.02508
G1 X79.778 Y37.501 E0.02363
