; generated by PrusaSlicer 2.3.3+x64 on 2021-09-19 at 20:30:26 UTC

; 

; external perimeters extrusion width = 0.45mm
; perimeters extrusion width = 0.45mm
; infill extrusion width = 0.45mm
; solid infill extrusion width = 0.45mm
; top infill extrusion width = 0.40mm
; support material extrusion width = 0.38mm
; first layer extrusion width = 0.42mm

M201 X500 Y500 Z100 E5000 ; sets maximum accelerations, mm/sec^2
M203 X500 Y500 Z10 E60 ; sets maximum feedrates, mm/sec
M204 P500 R1000 T500 ; sets acceleration (P, T) and retract acceleration (R), mm/sec^2
M205 X8.00 Y8.00 Z0.40 E5.00 ; sets the jerk limits, mm/sec
M205 S0 T0 ; sets the minimum extruding and travel feed rate, mm/sec
M107
;TYPE:Custom
G90 ; use absolute coordinates
M83 ; extruder relative mode
M104 S120 ; set temporary nozzle temp to prevent oozing during homing and auto bed leveling
M140 S60 ; set final bed temp
G4 S10 ; allow partial nozzle warmup
G28 ; home all axis
G1 Z50 F240
G1 X2 Y10 F3000
M104 S200 ; set final nozzle temp
M190 S60 ; wait for bed temp to stabilize
M109 S200 ; wait for nozzle temp to stabilize
G1 Z0.28 F240
G92 E0
G1 Y140 E10 F1500 ; prime the nozzle
G1 X2.3 F5000
G92 E0
G1 Y10 E10 F1200 ; prime the nozzle
G92 E0
G21 ; set units to millimeters
G90 ; use absolute coordinates
M83 ; use relative distances for extrusion
; Filament gcode
;LAYER_CHANGE
;Z:0.2
;HEIGHT:0.2
;BEFORE_LAYER_CHANGE
G92 E0
;0.2


G1 E-6.50000 F3000.000
G1 Z0.200 F9000.000
;AFTER_LAYER_CHANGE
;0.2
G1 X94.051 Y40.148
G1 E6.50000 F2400.000
;TYPE:Skirt
;WIDTH:0.42
G1 F1200.000
G1 X94.575 Y39.429 E0.02790
G1 X95.327 Y38.953 E0.02790
G1 X96.205 Y38.787 E0.02802
G1 X129.540 Y38.962 E1.04522
G1 X130.357 Y39.165 E0.02637
G1 X131.048 Y39.637 E0.02626
G1 X131.535 Y40.323 E0.02637
G1 X131.752 Y41.135 E0.02637
G1 X136.144 Y165.876 E3.91358
G1 X136.117 Y177.500 E0.36446
G1 X135.948 Y178.084 E0.01906
G1 X135.637 Y178.605 E0.01906
G1 X135.203 Y179.031 E0.01906
G1 X134.675 Y179.333 E0.01906
G1 X109.420 Y188.618 E0.84369
G1 X108.804 Y188.753 E0.01977
G1 X108.111 Y188.709 E0.02178
G1 X107.456 Y188.464 E0.02190
G1 X88.531 Y177.537 E0.68521
G1 X88.091 Y177.192 E0.01752
G1 X87.746 Y176.758 E0.01740
G1 X87.512 Y176.255 E0.01740
G1 X87.400 Y175.708 E0.01752
G1 X87.394 Y168.465 E0.22708
G1 X93.829 Y41.010 E4.00137
G1 X94.036 Y40.206 E0.02602
G1 E-4.55000 F3000.000
;WIPE_START
G1 F7200.000
G1 X94.575 Y39.429 E-0.37441
G1 X95.327 Y38.953 E-0.35223
G1 X96.205 Y38.787 E-0.35371
G1 X98.156 Y38.797 E-0.77215
;WIPE_END
G1 E-0.09750 F3000.000
G1 X103.768 Y165.250 F9000.000
G1 E6.50000 F2400.000
;TYPE:Perimeter
G1 F1200.000
G1 X104.455 Y165.647 E0.02488
G1 X104.455 Y178.440 E0.40113
G1 X103.768 Y178.837 E0.02488
G1 X92.689 Y172.440 E0.40113
G1 X92.689 Y171.647 E0.02488
G1 X103.716 Y165.280 E0.39925
G1 X103.768 Y165.686 F9000.000
;TYPE:External perimeter
G1 F1200.000
G1 X104.078 Y165.865 E0.01122
G1 X104.078 Y178.223 E0.38748
G1 X103.768 Y178.402 E0.01122
G1 X93.066 Y172.223 E0.38747
G1 X93.066 Y171.865 E0.01122
G1 X103.716 Y165.716 E0.38559
G1 X103.996 Y165.410 F9000.000
G1 E-4.55000 F3000.000
;WIPE_START
G1 F7200.000
G1 X104.078 Y165.865 E-0.15494
G1 X104.078 Y170.153 E-1.69756
;WIPE_END
G1 E-0.09750 F3000.000
G1 X109.103 Y163.384 F9000.000
G1 E6.50000 F2400.000
;TYPE:Perimeter
G1 F1200.000
G1 X109.103 Y180.704 E0.54306
G1 X133.081 Y174.279 E0.77833
G1 X133.081 Y176.655 E0.07449
G1 X108.577 Y185.573 E0.81763
G1 X90.455 Y175.111 E0.65608
G1 X90.455 Y174.072 E0.03259
G1 X91.455 Y174.072 E0.03135
G1 X91.455 Y170.016 E0.12718
G1 X90.455 Y170.016 E0.03135
G1 X90.455 Y168.976 E0.03259
G1 X109.639 Y157.901 E0.69454
G1 X133.081 Y166.433 E0.78219
G1 X133.081 Y169.809 E0.10584
G1 X109.161 Y163.399 E0.77645
G1 X109.481 Y163.875 F9000.000
;TYPE:External perimeter
G1 F1200.000
G1 X109.481 Y180.212 E0.51224
G1 X133.458 Y173.787 E0.77833
G1 X133.458 Y176.919 E0.09817
G1 X108.540 Y185.988 E0.83142
G1 X90.078 Y175.329 E0.66842
G1 X90.078 Y173.695 E0.05124
G1 X91.078 Y173.695 E0.03135
G1 X91.078 Y170.393 E0.10353
G1 X90.078 Y170.393 E0.03135
G1 X90.078 Y168.759 E0.05124
G1 X109.603 Y157.486 E0.70688
G1 X133.458 Y166.169 E0.79598
G1 X133.458 Y170.300 E0.12953
G1 X109.538 Y163.891 E0.77645
G1 X109.081 Y163.862 F9000.000
G1 E-4.55000 F3000.000
;WIPE_START
G1 F7200.000
G1 X109.522 Y168.571 E-1.85250
;WIPE_END
G1 E-0.09750 F3000.000
G1 X132.968 Y167.285 F9000.000
G1 E6.50000 F2400.000
;TYPE:Solid infill
;WIDTH:0.422488
G1 F1200.000
G1 X132.036 Y166.354 E0.04159
G1 X131.192 Y166.046 E0.02835
G1 X132.798 Y167.652 E0.07168
G1 X132.798 Y168.189 E0.01694
G1 X130.348 Y165.739 E0.10935
G1 X129.504 Y165.432 E0.02835
G1 X132.798 Y168.726 E0.14702
G1 X132.798 Y169.263 E0.01694
G1 X128.660 Y165.125 E0.18469
G1 X127.817 Y164.818 E0.02835
G1 X132.307 Y169.308 E0.20044
G1 X131.574 Y169.112 E0.02396
G1 X126.973 Y164.510 E0.20538
G1 X126.129 Y164.203 E0.02835
G1 X130.841 Y168.916 E0.21033
G1 X130.107 Y168.719 E0.02396
G1 X125.285 Y163.896 E0.21527
G1 X124.441 Y163.589 E0.02835
G1 X129.374 Y168.523 E0.22021
G1 X128.641 Y168.326 E0.02396
G1 X123.597 Y163.282 E0.22515
G1 X122.753 Y162.975 E0.02835
G1 X127.908 Y168.130 E0.23009
G1 X127.174 Y167.933 E0.02396
G1 X121.909 Y162.667 E0.23503
G1 X121.065 Y162.360 E0.02835
G1 X126.441 Y167.737 E0.23997
G1 X125.708 Y167.540 E0.02396
G1 X120.221 Y162.053 E0.24491
G1 X119.377 Y161.746 E0.02835
G1 X124.975 Y167.344 E0.24985
G1 X124.241 Y167.147 E0.02396
G1 X118.533 Y161.439 E0.25479
G1 X117.689 Y161.132 E0.02835
G1 X123.508 Y166.951 E0.25974
G1 X122.775 Y166.754 E0.02396
G1 X116.845 Y160.824 E0.26468
G1 X116.001 Y160.517 E0.02835
G1 X122.042 Y166.558 E0.26962
G1 X121.308 Y166.361 E0.02396
G1 X115.157 Y160.210 E0.27456
G1 X114.313 Y159.903 E0.02835
G1 X120.575 Y166.165 E0.27950
G1 X119.842 Y165.968 E0.02396
G1 X113.469 Y159.596 E0.28444
G1 X112.625 Y159.288 E0.02835
G1 X119.108 Y165.772 E0.28938
G1 X118.375 Y165.575 E0.02396
G1 X111.781 Y158.981 E0.29432
G1 X110.937 Y158.674 E0.02835
G1 X117.642 Y165.379 E0.29926
G1 X116.909 Y165.182 E0.02396
G1 X110.093 Y158.367 E0.30420
G1 X109.666 Y158.212 E0.01434
G1 X109.498 Y158.309 E0.00613
G1 X116.175 Y164.986 E0.29804
G1 X115.442 Y164.789 E0.02396
G1 X109.158 Y158.505 E0.28050
G1 X108.817 Y158.702 E0.01240
G1 X114.709 Y164.593 E0.26296
G1 X113.976 Y164.396 E0.02396
G1 X108.477 Y158.898 E0.24542
G1 X108.137 Y159.094 E0.01240
G1 X113.242 Y164.200 E0.22788
G1 X112.509 Y164.004 E0.02396
G1 X107.796 Y159.291 E0.21034
G1 X107.456 Y159.487 E0.01240
G1 X111.776 Y163.807 E0.19280
G1 X111.042 Y163.611 E0.02396
G1 X107.116 Y159.684 E0.17526
G1 X106.776 Y159.880 E0.01240
G1 X110.309 Y163.414 E0.15772
G1 X109.576 Y163.218 E0.02396
G1 X106.435 Y160.077 E0.14018
G1 X106.095 Y160.273 E0.01240
G1 X108.843 Y163.021 E0.12264
G1 X108.821 Y163.015 E0.00072
G1 X108.821 Y163.536 E0.01643
G1 X105.755 Y160.470 E0.13685
G1 X105.414 Y160.666 E0.01240
G1 X108.821 Y164.073 E0.15204
G1 X108.821 Y164.609 E0.01694
G1 X105.074 Y160.863 E0.16723
G1 X104.734 Y161.059 E0.01240
G1 X108.821 Y165.146 E0.18242
G1 X108.821 Y165.683 E0.01694
G1 X104.393 Y161.256 E0.19761
G1 X104.053 Y161.452 E0.01240
G1 X108.821 Y166.220 E0.21280
G1 X108.821 Y166.757 E0.01694
G1 X103.713 Y161.649 E0.22799
G1 X103.372 Y161.845 E0.01240
G1 X108.821 Y167.293 E0.24318
G1 X108.821 Y167.830 E0.01694
G1 X103.032 Y162.042 E0.25837
G1 X102.692 Y162.238 E0.01240
G1 X108.821 Y168.367 E0.27356
G1 X108.821 Y168.904 E0.01694
G1 X102.351 Y162.435 E0.28875
G1 X102.011 Y162.631 E0.01240
G1 X108.821 Y169.441 E0.30393
G1 X108.821 Y169.977 E0.01694
G1 X104.738 Y165.895 E0.18222
G1 X104.738 Y165.484 E0.01298
G1 X103.768 Y164.924 E0.03536
G1 X101.671 Y162.828 E0.09358
G1 X101.331 Y163.024 E0.01240
G1 X103.427 Y165.121 E0.09358
G1 X103.087 Y165.317 E0.01240
G1 X100.990 Y163.221 E0.09358
G1 X100.650 Y163.417 E0.01240
G1 X102.747 Y165.514 E0.09358
G1 X102.406 Y165.710 E0.01240
G1 X100.310 Y163.614 E0.09358
G1 X99.969 Y163.810 E0.01240
G1 X102.066 Y165.907 E0.09358
G1 X101.726 Y166.103 E0.01240
G1 X99.629 Y164.006 E0.09358
G1 X99.289 Y164.203 E0.01240
G1 X101.385 Y166.300 E0.09358
G1 X101.045 Y166.496 E0.01240
G1 X98.948 Y164.399 E0.09358
G1 X98.608 Y164.596 E0.01240
G1 X100.705 Y166.693 E0.09358
G1 X100.364 Y166.889 E0.01240
G1 X98.268 Y164.792 E0.09358
G1 X97.927 Y164.989 E0.01240
G1 X100.024 Y167.086 E0.09358
G1 X99.684 Y167.282 E0.01240
G1 X97.587 Y165.185 E0.09358
G1 X97.247 Y165.382 E0.01240
G1 X99.343 Y167.478 E0.09358
G1 X99.003 Y167.675 E0.01240
G1 X96.907 Y165.578 E0.09358
G1 X96.566 Y165.775 E0.01240
G1 X98.663 Y167.871 E0.09358
G1 X98.323 Y168.068 E0.01240
G1 X96.226 Y165.971 E0.09358
G1 X95.886 Y166.168 E0.01240
G1 X97.982 Y168.264 E0.09358
G1 X97.642 Y168.461 E0.01240
G1 X95.545 Y166.364 E0.09358
G1 X95.205 Y166.561 E0.01240
G1 X97.302 Y168.657 E0.09358
G1 X96.961 Y168.854 E0.01240
G1 X94.865 Y166.757 E0.09358
G1 X94.524 Y166.954 E0.01240
G1 X96.621 Y169.050 E0.09358
G1 X96.281 Y169.247 E0.01240
G1 X94.184 Y167.150 E0.09358
G1 X93.844 Y167.347 E0.01240
G1 X95.940 Y169.443 E0.09358
G1 X95.600 Y169.640 E0.01240
G1 X93.503 Y167.543 E0.09358
G1 X93.163 Y167.740 E0.01240
G1 X95.260 Y169.836 E0.09358
G1 X94.919 Y170.033 E0.01240
G1 X92.823 Y167.936 E0.09358
G1 X92.482 Y168.133 E0.01240
G1 X94.579 Y170.229 E0.09358
G1 X94.239 Y170.426 E0.01240
G1 X92.142 Y168.329 E0.09358
G1 X91.802 Y168.525 E0.01240
G1 X93.899 Y170.622 E0.09358
G1 X93.558 Y170.819 E0.01240
G1 X91.462 Y168.722 E0.09358
G1 X91.121 Y168.918 E0.01240
G1 X93.218 Y171.015 E0.09358
G1 X92.878 Y171.212 E0.01240
G1 X90.781 Y169.115 E0.09358
G1 X90.738 Y169.140 E0.00156
G1 X90.738 Y169.609 E0.01481
G1 X91.032 Y169.903 E0.01310
G1 X91.568 Y170.439 F9000.000
G1 F1200.000
G1 X92.537 Y171.408 E0.04324
G1 X92.406 Y171.484 E0.00478
G1 X92.406 Y171.814 E0.01041
G1 X91.568 Y170.976 E0.03739
G1 E-4.55000 F3000.000
;WIPE_START
G1 F7200.000
G1 X92.406 Y171.814 E-0.46890
G1 X92.406 Y171.484 E-0.13060
G1 X92.537 Y171.408 E-0.05994
G1 X91.568 Y170.439 E-0.54231
;WIPE_END
G1 E-0.74825 F3000.000
G1 X104.568 Y166.262 F9000.000
G1 E6.50000 F2400.000
G1 F1200.000
G1 X108.821 Y170.514 E0.18979
G1 X108.821 Y171.051 E0.01694
G1 X104.738 Y166.968 E0.18222
G1 X104.738 Y167.505 E0.01694
G1 X108.821 Y171.588 E0.18222
G1 X108.821 Y172.125 E0.01694
G1 X104.738 Y168.042 E0.18222
G1 X104.738 Y168.579 E0.01694
G1 X108.821 Y172.661 E0.18222
G1 X108.821 Y173.198 E0.01694
G1 X104.738 Y169.116 E0.18222
G1 X104.738 Y169.652 E0.01694
G1 X108.821 Y173.735 E0.18222
G1 X108.821 Y174.272 E0.01694
G1 X104.738 Y170.189 E0.18222
G1 X104.738 Y170.726 E0.01694
G1 X108.821 Y174.808 E0.18222
G1 X108.821 Y175.345 E0.01694
G1 X104.738 Y171.263 E0.18222
G1 X104.738 Y171.800 E0.01694
G1 X108.821 Y175.882 E0.18222
G1 X108.821 Y176.419 E0.01694
G1 X104.738 Y172.336 E0.18222
G1 X104.738 Y172.873 E0.01694
G1 X108.821 Y176.956 E0.18222
G1 X108.821 Y177.492 E0.01694
G1 X104.738 Y173.410 E0.18222
G1 X104.738 Y173.947 E0.01694
G1 X108.821 Y178.029 E0.18222
G1 X108.821 Y178.566 E0.01694
G1 X104.738 Y174.484 E0.18222
G1 X104.738 Y175.020 E0.01694
G1 X108.821 Y179.103 E0.18222
G1 X108.821 Y179.640 E0.01694
G1 X104.738 Y175.557 E0.18222
G1 X104.738 Y176.094 E0.01694
G1 X108.990 Y180.346 E0.18979
G1 E-4.55000 F3000.000
;WIPE_START
G1 F7200.000
G1 X105.681 Y177.037 E-1.85250
;WIPE_END
G1 E-0.09750 F3000.000
G1 X132.250 Y174.619 F9000.000
G1 E6.50000 F2400.000
G1 F1200.000
G1 X132.798 Y175.167 E0.02449
G1 X132.798 Y175.704 E0.01694
G1 X131.965 Y174.871 E0.03720
G1 X131.542 Y174.984 E0.01383
G1 X132.798 Y176.241 E0.05610
G1 X132.798 Y176.457 E0.00680
G1 X132.563 Y176.542 E0.00791
G1 X131.118 Y175.098 E0.06448
G1 X130.695 Y175.211 E0.01383
G1 X132.169 Y176.686 E0.06581
G1 X131.776 Y176.829 E0.01322
G1 X130.271 Y175.325 E0.06714
G1 X129.848 Y175.438 E0.01383
G1 X131.382 Y176.972 E0.06847
G1 X130.989 Y177.115 E0.01322
G1 X129.425 Y175.551 E0.06980
G1 X129.001 Y175.665 E0.01383
G1 X130.595 Y177.258 E0.07113
G1 X130.202 Y177.402 E0.01322
G1 X128.578 Y175.778 E0.07246
G1 X128.155 Y175.892 E0.01383
G1 X129.808 Y177.545 E0.07379
G1 X129.414 Y177.688 E0.01322
G1 X127.731 Y176.005 E0.07512
G1 X127.308 Y176.119 E0.01383
G1 X129.021 Y177.831 E0.07645
G1 X128.627 Y177.975 E0.01322
G1 X126.885 Y176.232 E0.07778
G1 X126.461 Y176.345 E0.01383
G1 X128.234 Y178.118 E0.07911
G1 X127.840 Y178.261 E0.01322
G1 X126.038 Y176.459 E0.08044
G1 X125.615 Y176.572 E0.01383
G1 X127.447 Y178.404 E0.08177
G1 X127.053 Y178.548 E0.01322
G1 X125.191 Y176.686 E0.08310
G1 X124.768 Y176.799 E0.01383
G1 X126.660 Y178.691 E0.08443
G1 X126.266 Y178.834 E0.01322
G1 X124.345 Y176.913 E0.08576
G1 X123.921 Y177.026 E0.01383
G1 X125.872 Y178.977 E0.08709
G1 X125.479 Y179.121 E0.01322
G1 X123.498 Y177.140 E0.08842
G1 X123.074 Y177.253 E0.01383
G1 X125.085 Y179.264 E0.08975
G1 X124.692 Y179.407 E0.01322
G1 X122.651 Y177.366 E0.09108
G1 X122.228 Y177.480 E0.01383
G1 X124.298 Y179.550 E0.09241
G1 X123.905 Y179.694 E0.01322
G1 X121.804 Y177.593 E0.09375
G1 X121.381 Y177.707 E0.01383
G1 X123.511 Y179.837 E0.09508
G1 X123.118 Y179.980 E0.01322
G1 X120.958 Y177.820 E0.09641
G1 X120.534 Y177.934 E0.01383
G1 X122.724 Y180.123 E0.09774
G1 X122.331 Y180.267 E0.01322
G1 X120.111 Y178.047 E0.09907
G1 X119.688 Y178.160 E0.01383
G1 X121.937 Y180.410 E0.10040
G1 X121.543 Y180.553 E0.01322
G1 X119.264 Y178.274 E0.10173
G1 X118.841 Y178.387 E0.01383
G1 X121.150 Y180.696 E0.10306
G1 X120.756 Y180.839 E0.01322
G1 X118.418 Y178.501 E0.10439
G1 X117.994 Y178.614 E0.01383
G1 X120.363 Y180.983 E0.10572
G1 X119.969 Y181.126 E0.01322
G1 X117.571 Y178.728 E0.10705
G1 X117.148 Y178.841 E0.01383
G1 X119.576 Y181.269 E0.10838
G1 X119.182 Y181.412 E0.01322
G1 X116.724 Y178.955 E0.10971
G1 X116.301 Y179.068 E0.01383
G1 X118.789 Y181.556 E0.11104
G1 X118.395 Y181.699 E0.01322
G1 X115.878 Y179.181 E0.11237
G1 X115.454 Y179.295 E0.01383
G1 X118.001 Y181.842 E0.11370
G1 X117.608 Y181.985 E0.01322
G1 X115.031 Y179.408 E0.11503
G1 X114.607 Y179.522 E0.01383
G1 X117.214 Y182.129 E0.11636
G1 X116.821 Y182.272 E0.01322
G1 X114.184 Y179.635 E0.11769
G1 X113.761 Y179.749 E0.01383
G1 X116.427 Y182.415 E0.11902
G1 X116.034 Y182.558 E0.01322
G1 X113.337 Y179.862 E0.12035
G1 X112.914 Y179.975 E0.01383
G1 X115.640 Y182.702 E0.12168
G1 X115.247 Y182.845 E0.01322
G1 X112.491 Y180.089 E0.12301
G1 X112.067 Y180.202 E0.01383
G1 X114.853 Y182.988 E0.12434
G1 X114.460 Y183.131 E0.01322
G1 X111.644 Y180.316 E0.12567
G1 X111.221 Y180.429 E0.01383
G1 X114.066 Y183.275 E0.12700
G1 X113.672 Y183.418 E0.01322
G1 X110.797 Y180.543 E0.12833
G1 X110.374 Y180.656 E0.01383
G1 X113.279 Y183.561 E0.12966
G1 X112.885 Y183.704 E0.01322
G1 X109.951 Y180.770 E0.13099
G1 X109.527 Y180.883 E0.01383
G1 X112.492 Y183.848 E0.13232
G1 X112.098 Y183.991 E0.01322
G1 X104.738 Y176.631 E0.32851
G1 X104.738 Y177.168 E0.01694
G1 X111.705 Y184.134 E0.31095
G1 X111.311 Y184.277 E0.01322
G1 X104.738 Y177.704 E0.29338
G1 X104.738 Y178.241 E0.01694
G1 X110.918 Y184.420 E0.27581
G1 X110.524 Y184.564 E0.01322
G1 X104.628 Y178.667 E0.26318
G1 X104.287 Y178.864 E0.01240
G1 X110.130 Y184.707 E0.26080
G1 X109.737 Y184.850 E0.01322
G1 X103.947 Y179.060 E0.25842
G1 X103.768 Y179.164 E0.00652
G1 X103.166 Y178.816 E0.02196
G1 X109.343 Y184.993 E0.27574
G1 X108.950 Y185.137 E0.01322
G1 X101.896 Y178.082 E0.31486
G1 X100.626 Y177.349 E0.04629
G1 X108.450 Y185.174 E0.34926
G1 X107.180 Y184.441 E0.04629
G1 X99.355 Y176.616 E0.34926
G1 X98.085 Y175.883 E0.04629
G1 X105.910 Y183.707 E0.34926
G1 X104.640 Y182.974 E0.04629
G1 X96.815 Y175.149 E0.34926
G1 X95.545 Y174.416 E0.04629
G1 X103.370 Y182.241 E0.34926
G1 X102.100 Y181.508 E0.04629
G1 X93.812 Y173.219 E0.36995
G1 E-4.55000 F3000.000
;WIPE_START
G1 F7200.000
G1 X97.121 Y176.528 E-1.85250
;WIPE_END
G1 E-0.09750 F3000.000
G1 X91.568 Y171.513 F9000.000
G1 E6.50000 F2400.000
G1 F1200.000
G1 X100.830 Y180.774 E0.41338
G1 X99.560 Y180.041 E0.04629
G1 X91.738 Y172.219 E0.34912
G1 X91.738 Y172.756 E0.01694
G1 X98.290 Y179.308 E0.29243
G1 X97.020 Y178.575 E0.04629
G1 X91.738 Y173.293 E0.23574
G1 X91.738 Y173.830 E0.01694
G1 X95.750 Y177.841 E0.17905
G1 X94.480 Y177.108 E0.04629
G1 X91.726 Y174.355 E0.12290
