; generated by PrusaSlicer 2.3.3+x64 on 2021-09-19 at 14:15:28 UTC

; 

; external perimeters extrusion width = 0.45mm
; perimeters extrusion width = 0.45mm
; infill extrusion width = 0.45mm
; solid infill extrusion width = 0.45mm
; top infill extrusion width = 0.40mm
; support material extrusion width = 0.38mm
; first layer extrusion width = 0.42mm

M201 X500 Y500 Z100 E5000 ; sets maximum accelerations, mm/sec^2
M203 X500 Y500 Z10 E60 ; sets maximum feedrates, mm/sec
M204 P500 R1000 T500 ; sets acceleration (P, T) and retract acceleration (R), mm/sec^2
M205 X8.00 Y8.00 Z0.40 E5.00 ; sets the jerk limits, mm/sec
M205 S0 T0 ; sets the minimum extruding and travel feed rate, mm/sec
M107
;TYPE:Custom
G90 ; use absolute coordinates
M83 ; extruder relative mode
M104 S200 ; set extruder temp
M140 S60 ; set bed temp
M190 S60 ; wait for bed temp
M109 S200 ; wait for extruder temp
G28 ; home all
G29 ; Level Bed
; Start pause to clear extruder ooze
G1 Z20
M0
M190 S60 ; wait for bed temp
M109 S200 ; wait for extruder temp
; Ready to print!
G1 Z2 F240
G1 X2 Y10 F3000
G1 Z0.28 F240
G92 E0
G1 Y190 E15 F1500 ; intro line
G1 X2.3 F5000
G92 E0
G1 Y10 E15 F1200 ; intro line
G92 E0
G21 ; set units to millimeters
G90 ; use absolute coordinates
M83 ; use relative distances for extrusion
; Filament gcode
;LAYER_CHANGE
;Z:0.2
;HEIGHT:0.2
;BEFORE_LAYER_CHANGE
G92 E0
;0.2


G1 E-6.50000 F3000.000
G1 Z0.200 F9000.000
;AFTER_LAYER_CHANGE
;0.2
G1 X78.465 Y34.676
G1 E6.50000 F2400.000
;TYPE:Skirt
;WIDTH:0.42
G1 F1200.000
G1 X79.048 Y34.410 E0.02012
G1 X79.682 Y34.309 E0.02012
G1 X143.089 Y34.139 E1.98810
G1 X146.322 Y34.319 E0.10151
G1 X147.063 Y34.512 E0.02402
G1 X147.610 Y34.848 E0.02012
G1 X148.048 Y35.322 E0.02024
G1 X148.342 Y35.892 E0.02012
G1 X148.472 Y36.521 E0.02012
G1 X152.729 Y164.428 E4.01265
G1 X152.727 Y168.710 E0.13427
G1 X152.652 Y169.199 E0.01550
G1 X152.476 Y169.665 E0.01562
G1 X152.111 Y170.197 E0.02024
G1 X151.615 Y170.610 E0.02024
G1 X151.027 Y170.876 E0.02024
G1 X150.385 Y170.973 E0.02036
G1 X75.345 Y170.973 E2.35280
G1 X74.798 Y170.907 E0.01728
G1 X74.284 Y170.719 E0.01716
G1 X73.839 Y170.428 E0.01668
G1 X73.469 Y170.046 E0.01668
G1 X73.194 Y169.590 E0.01668
G1 X73.026 Y169.081 E0.01680
G1 X72.977 Y164.442 E0.14547
G1 X77.360 Y36.600 E4.01075
G1 X77.433 Y36.092 E0.01609
G1 X77.612 Y35.615 E0.01597
G1 X77.973 Y35.089 E0.02000
G1 X78.419 Y34.715 E0.01824
G1 E-4.55000 F3000.000
;WIPE_START
G1 F7200.000
G1 X79.048 Y34.410 E-0.27699
G1 X79.682 Y34.309 E-0.25403
G1 X83.021 Y34.300 E-1.32149
;WIPE_END
G1 E-0.09750 F3000.000
G1 X82.842 Y39.514 F9000.000
G1 E6.50000 F2400.000
;TYPE:Support material interface
;WIDTH:0.38
G1 F1200.000
G1 X82.842 Y41.944 E0.06811
G1 X83.379 Y41.944 E0.01505
G1 X83.379 Y39.665 E0.06386
G1 X83.916 Y39.665 E0.01505
G1 X83.916 Y41.944 E0.06386
G1 X84.453 Y41.944 E0.01505
G1 X84.453 Y39.665 E0.06386
G1 X84.990 Y39.665 E0.01505
G1 X84.990 Y41.944 E0.06386
G1 X85.527 Y41.944 E0.01505
G1 X85.527 Y39.665 E0.06386
G1 X86.064 Y39.665 E0.01505
G1 X86.064 Y41.944 E0.06386
G1 X86.601 Y41.944 E0.01505
G1 X86.601 Y39.665 E0.06386
G1 X87.138 Y39.665 E0.01505
G1 X87.138 Y41.944 E0.06386
G1 X87.675 Y41.944 E0.01505
G1 X87.675 Y39.665 E0.06386
G1 X88.212 Y39.665 E0.01505
G1 X88.212 Y41.944 E0.06386
G1 X88.750 Y41.944 E0.01505
G1 X88.750 Y39.665 E0.06386
G1 X89.287 Y39.665 E0.01505
G1 X89.287 Y41.944 E0.06386
G1 X89.824 Y41.944 E0.01505
G1 X89.824 Y39.665 E0.06386
G1 X90.361 Y39.665 E0.01505
G1 X90.361 Y41.944 E0.06386
G1 X90.898 Y41.944 E0.01505
G1 X90.898 Y39.665 E0.06386
G1 X91.435 Y39.665 E0.01505
G1 X91.435 Y41.944 E0.06386
G1 X91.972 Y41.944 E0.01505
G1 X91.972 Y39.665 E0.06386
G1 X92.509 Y39.665 E0.01505
G1 X92.509 Y41.944 E0.06386
G1 X93.046 Y41.944 E0.01505
G1 X93.046 Y39.665 E0.06386
G1 X93.583 Y39.665 E0.01505
G1 X93.583 Y41.944 E0.06386
G1 X94.120 Y41.944 E0.01505
G1 X94.120 Y39.665 E0.06386
G1 X94.657 Y39.665 E0.01505
G1 X94.657 Y41.944 E0.06386
G1 X95.194 Y41.944 E0.01505
G1 X95.194 Y39.665 E0.06386
G1 X95.732 Y39.665 E0.01505
G1 X95.732 Y41.944 E0.06386
G1 X96.269 Y41.944 E0.01505
G1 X96.269 Y39.665 E0.06386
G1 X96.806 Y39.665 E0.01505
G1 X96.806 Y41.944 E0.06386
G1 X97.343 Y41.944 E0.01505
G1 X97.343 Y39.665 E0.06386
G1 X97.880 Y39.665 E0.01505
G1 X97.880 Y41.944 E0.06386
G1 X98.417 Y41.944 E0.01505
G1 X98.417 Y39.665 E0.06386
G1 X98.954 Y39.665 E0.01505
G1 X98.954 Y41.944 E0.06386
G1 X99.491 Y41.944 E0.01505
G1 X99.491 Y39.665 E0.06386
G1 X100.028 Y39.665 E0.01505
G1 X100.028 Y41.944 E0.06386
G1 X100.565 Y41.944 E0.01505
G1 X100.565 Y39.665 E0.06386
G1 X101.102 Y39.665 E0.01505
G1 X101.102 Y41.944 E0.06386
G1 X101.639 Y41.944 E0.01505
G1 X101.639 Y39.665 E0.06386
G1 X102.176 Y39.665 E0.01505
G1 X102.176 Y41.944 E0.06386
G1 X102.714 Y41.944 E0.01505
G1 X102.714 Y39.665 E0.06386
G1 X103.251 Y39.665 E0.01505
G1 X103.251 Y41.944 E0.06386
G1 X103.788 Y41.944 E0.01505
G1 X103.788 Y39.665 E0.06386
G1 X104.325 Y39.665 E0.01505
G1 X104.325 Y41.944 E0.06386
G1 X104.862 Y41.944 E0.01505
G1 X104.862 Y39.665 E0.06386
G1 X105.399 Y39.665 E0.01505
G1 X105.399 Y41.944 E0.06386
G1 X105.936 Y41.944 E0.01505
G1 X105.936 Y39.665 E0.06386
G1 X106.473 Y39.665 E0.01505
G1 X106.473 Y41.944 E0.06386
G1 X107.010 Y41.944 E0.01505
G1 X107.010 Y39.665 E0.06386
G1 X107.547 Y39.665 E0.01505
G1 X107.547 Y41.944 E0.06386
G1 X108.084 Y41.944 E0.01505
G1 X108.084 Y39.665 E0.06386
G1 X108.621 Y39.665 E0.01505
G1 X108.621 Y41.944 E0.06386
G1 X109.159 Y41.944 E0.01505
G1 X109.159 Y39.665 E0.06386
G1 X109.696 Y39.665 E0.01505
G1 X109.696 Y41.944 E0.06386
G1 X110.233 Y41.944 E0.01505
G1 X110.233 Y39.665 E0.06386
G1 X110.770 Y39.665 E0.01505
G1 X110.770 Y41.944 E0.06386
G1 X111.307 Y41.944 E0.01505
G1 X111.307 Y39.665 E0.06386
G1 X111.844 Y39.665 E0.01505
G1 X111.844 Y41.944 E0.06386
G1 X112.381 Y41.944 E0.01505
G1 X112.381 Y39.665 E0.06386
G1 X112.918 Y39.665 E0.01505
G1 X112.918 Y41.944 E0.06386
G1 X113.455 Y41.944 E0.01505
G1 X113.455 Y39.665 E0.06386
G1 X113.992 Y39.665 E0.01505
G1 X113.992 Y41.944 E0.06386
G1 X114.529 Y41.944 E0.01505
G1 X114.529 Y39.665 E0.06386
G1 X115.066 Y39.665 E0.01505
G1 X115.066 Y41.944 E0.06386
G1 X115.603 Y41.944 E0.01505
G1 X115.603 Y39.665 E0.06386
G1 X116.141 Y39.665 E0.01505
G1 X116.141 Y41.944 E0.06386
G1 X116.678 Y41.944 E0.01505
G1 X116.678 Y39.665 E0.06386
G1 X117.215 Y39.665 E0.01505
G1 X117.215 Y41.944 E0.06386
G1 X117.752 Y41.944 E0.01505
G1 X117.752 Y39.665 E0.06386
G1 X118.289 Y39.665 E0.01505
G1 X118.289 Y41.944 E0.06386
G1 X118.826 Y41.944 E0.01505
G1 X118.826 Y39.665 E0.06386
G1 X119.363 Y39.665 E0.01505
G1 X119.363 Y41.944 E0.06386
G1 X119.900 Y41.944 E0.01505
G1 X119.900 Y39.665 E0.06386
G1 X120.437 Y39.665 E0.01505
G1 X120.437 Y41.944 E0.06386
G1 X120.974 Y41.944 E0.01505
G1 X120.974 Y39.665 E0.06386
G1 X121.511 Y39.665 E0.01505
G1 X121.511 Y41.944 E0.06386
G1 X122.048 Y41.944 E0.01505
G1 X122.048 Y39.665 E0.06386
G1 X122.585 Y39.665 E0.01505
G1 X122.585 Y41.944 E0.06386
G1 X123.123 Y41.944 E0.01505
G1 X123.123 Y39.665 E0.06386
G1 X123.660 Y39.665 E0.01505
G1 X123.660 Y41.944 E0.06386
G1 X124.197 Y41.944 E0.01505
G1 X124.197 Y39.665 E0.06386
G1 X124.734 Y39.665 E0.01505
G1 X124.734 Y41.944 E0.06386
G1 X125.271 Y41.944 E0.01505
G1 X125.271 Y39.665 E0.06386
G1 X125.808 Y39.665 E0.01505
G1 X125.808 Y41.944 E0.06386
G1 X126.345 Y41.944 E0.01505
G1 X126.345 Y39.665 E0.06386
G1 X126.882 Y39.665 E0.01505
G1 X126.882 Y41.944 E0.06386
G1 X127.419 Y41.944 E0.01505
G1 X127.419 Y39.665 E0.06386
G1 X127.956 Y39.665 E0.01505
G1 X127.956 Y41.944 E0.06386
G1 X128.493 Y41.944 E0.01505
G1 X128.493 Y39.665 E0.06386
G1 X129.030 Y39.665 E0.01505
G1 X129.030 Y41.944 E0.06386
G1 X129.568 Y41.944 E0.01505
G1 X129.568 Y39.665 E0.06386
G1 X130.105 Y39.665 E0.01505
G1 X130.105 Y41.944 E0.06386
G1 X130.642 Y41.944 E0.01505
G1 X130.642 Y39.665 E0.06386
G1 X131.179 Y39.665 E0.01505
G1 X131.179 Y41.944 E0.06386
G1 X131.716 Y41.944 E0.01505
G1 X131.716 Y39.665 E0.06386
G1 X132.253 Y39.665 E0.01505
G1 X132.253 Y41.944 E0.06386
G1 X132.790 Y41.944 E0.01505
G1 X132.790 Y39.665 E0.06386
G1 X133.327 Y39.665 E0.01505
G1 X133.327 Y41.944 E0.06386
G1 X133.864 Y41.944 E0.01505
G1 X133.864 Y39.665 E0.06386
G1 X134.401 Y39.665 E0.01505
G1 X134.401 Y41.944 E0.06386
G1 X134.938 Y41.944 E0.01505
G1 X134.938 Y39.665 E0.06386
G1 X135.475 Y39.665 E0.01505
G1 X135.475 Y41.944 E0.06386
G1 X136.012 Y41.944 E0.01505
G1 X136.012 Y39.665 E0.06386
G1 X136.550 Y39.665 E0.01505
G1 X136.550 Y41.944 E0.06386
G1 X137.087 Y41.944 E0.01505
G1 X137.087 Y39.665 E0.06386
G1 X137.624 Y39.665 E0.01505
G1 X137.624 Y41.944 E0.06386
G1 X138.161 Y41.944 E0.01505
G1 X138.161 Y39.665 E0.06386
G1 X138.698 Y39.665 E0.01505
G1 X138.698 Y41.944 E0.06386
G1 X139.235 Y41.944 E0.01505
G1 X139.235 Y39.665 E0.06386
G1 X139.772 Y39.665 E0.01505
G1 X139.772 Y41.944 E0.06386
G1 X140.309 Y41.944 E0.01505
G1 X140.309 Y39.665 E0.06386
G1 X140.846 Y39.665 E0.01505
G1 X140.846 Y41.944 E0.06386
G1 X141.383 Y41.944 E0.01505
G1 X141.383 Y39.665 E0.06386
G1 X141.920 Y39.665 E0.01505
G1 X141.920 Y41.944 E0.06386
G1 X142.457 Y41.944 E0.01505
G1 X142.457 Y39.665 E0.06386
G1 X142.994 Y39.665 E0.01505
G1 X142.994 Y42.095 E0.06811
G1 X142.330 Y42.909 F9000.000
;TYPE:Support material
;WIDTH:0.42
G1 F1200.000
G1 X142.330 Y42.301 E0.01907
G1 X141.576 Y42.301 E0.02365
G1 X141.576 Y42.740 E0.01375
G1 X140.822 Y42.740 E0.02365
G1 X140.822 Y42.301 E0.01375
G1 X85.768 Y42.301 E1.72617
G1 X85.179 Y42.308 E0.01849
G1 X85.179 Y42.740 E0.01353
G1 X85.014 Y42.740 E0.00516
G1 X85.014 Y42.301 E0.01375
G1 X84.260 Y42.301 E0.02365
G1 X84.260 Y42.740 E0.01375
G1 X83.506 Y42.740 E0.02365
G1 X83.506 Y42.131 E0.01907
G1 E-4.55000 F3000.000
;WIPE_START
G1 F7200.000
G1 X83.506 Y42.740 E-0.24079
G1 X84.260 Y42.740 E-0.29852
G1 X84.260 Y42.301 E-0.17362
G1 X85.014 Y42.301 E-0.29852
G1 X85.014 Y42.740 E-0.17362
G1 X85.179 Y42.740 E-0.06517
G1 X85.179 Y42.308 E-0.17078
G1 X85.768 Y42.301 E-0.23337
G1 X86.269 Y42.301 E-0.19810
;WIPE_END
G1 E-0.09750 F3000.000
G1 X81.998 Y52.163 F9000.000
G1 E6.50000 F2400.000
G1 F1200.000
G1 X81.998 Y36.685 E0.48530
G1 X81.243 Y36.685 E0.02365
G1 X81.243 Y51.994 E0.47998
G1 X80.489 Y51.994 E0.02365
G1 X80.489 Y36.685 E0.47998
G1 X79.735 Y36.685 E0.02365
G1 X79.735 Y52.163 E0.48530
G1 E-4.55000 F3000.000
;WIPE_START
G1 F7200.000
G1 X79.735 Y47.483 E-1.85250
;WIPE_END
G1 E-0.09750 F3000.000
G1 X142.330 Y46.548 F9000.000
G1 E6.50000 F2400.000
G1 F1200.000
G1 X142.330 Y45.939 E0.01907
G1 X141.576 Y45.939 E0.02365
G1 X141.576 Y46.378 E0.01375
G1 X140.822 Y46.378 E0.02365
G1 X140.822 Y45.939 E0.01375
G1 X140.657 Y45.939 E0.00516
G1 X140.657 Y46.371 E0.01353
G1 X140.068 Y46.378 E0.01848
G1 X85.014 Y46.378 E1.72617
G1 X85.014 Y45.939 E0.01375
G1 X84.260 Y45.939 E0.02365
G1 X84.260 Y46.378 E0.01375
G1 X83.506 Y46.378 E0.02365
G1 X83.506 Y45.770 E0.01907
G1 X82.842 Y46.583 F9000.000
;TYPE:Support material interface
;WIDTH:0.38
G1 F1200.000
G1 X82.842 Y49.014 E0.06811
G1 X83.379 Y49.014 E0.01505
G1 X83.379 Y46.735 E0.06386
G1 X83.916 Y46.735 E0.01505
G1 X83.916 Y49.014 E0.06386
G1 X84.453 Y49.014 E0.01505
G1 X84.453 Y46.735 E0.06386
G1 X84.990 Y46.735 E0.01505
G1 X84.990 Y49.014 E0.06386
G1 X85.527 Y49.014 E0.01505
G1 X85.527 Y46.735 E0.06386
G1 X86.064 Y46.735 E0.01505
G1 X86.064 Y49.014 E0.06386
G1 X86.601 Y49.014 E0.01505
G1 X86.601 Y46.735 E0.06386
G1 X87.138 Y46.735 E0.01505
G1 X87.138 Y49.014 E0.06386
G1 X87.675 Y49.014 E0.01505
G1 X87.675 Y46.735 E0.06386
G1 X88.212 Y46.735 E0.01505
G1 X88.212 Y49.014 E0.06386
G1 X88.750 Y49.014 E0.01505
G1 X88.750 Y46.735 E0.06386
G1 X89.287 Y46.735 E0.01505
G1 X89.287 Y49.014 E0.06386
G1 X89.824 Y49.014 E0.01505
G1 X89.824 Y46.735 E0.06386
G1 X90.361 Y46.735 E0.01505
G1 X90.361 Y49.014 E0.06386
G1 X90.898 Y49.014 E0.01505
G1 X90.898 Y46.735 E0.06386
G1 X91.435 Y46.735 E0.01505
G1 X91.435 Y49.014 E0.06386
G1 X91.972 Y49.014 E0.01505
G1 X91.972 Y46.735 E0.06386
G1 X92.509 Y46.735 E0.01505
G1 X92.509 Y49.014 E0.06386
G1 X93.046 Y49.014 E0.01505
G1 X93.046 Y46.735 E0.06386
G1 X93.583 Y46.735 E0.01505
G1 X93.583 Y49.014 E0.06386
G1 X94.120 Y49.014 E0.01505
G1 X94.120 Y46.735 E0.06386
G1 X94.657 Y46.735 E0.01505
G1 X94.657 Y49.014 E0.06386
G1 X95.194 Y49.014 E0.01505
G1 X95.194 Y46.735 E0.06386
G1 X95.732 Y46.735 E0.01505
G1 X95.732 Y49.014 E0.06386
G1 X96.269 Y49.014 E0.01505
G1 X96.269 Y46.735 E0.06386
G1 X96.806 Y46.735 E0.01505
G1 X96.806 Y49.014 E0.06386
G1 X97.343 Y49.014 E0.01505
G1 X97.343 Y46.735 E0.06386
G1 X97.880 Y46.735 E0.01505
G1 X97.880 Y49.014 E0.06386
G1 X98.417 Y49.014 E0.01505
G1 X98.417 Y46.735 E0.06386
G1 X98.954 Y46.735 E0.01505
G1 X98.954 Y49.014 E0.06386
G1 X99.491 Y49.014 E0.01505
G1 X99.491 Y46.735 E0.06386
G1 X100.028 Y46.735 E0.01505
G1 X100.028 Y49.014 E0.06386
G1 X100.565 Y49.014 E0.01505
G1 X100.565 Y46.735 E0.06386
G1 X101.102 Y46.735 E0.01505
G1 X101.102 Y49.014 E0.06386
G1 X101.639 Y49.014 E0.01505
G1 X101.639 Y46.735 E0.06386
G1 X102.176 Y46.735 E0.01505
G1 X102.176 Y49.014 E0.06386
G1 X102.714 Y49.014 E0.01505
G1 X102.714 Y46.735 E0.06386
G1 X103.251 Y46.735 E0.01505
G1 X103.251 Y49.014 E0.06386
G1 X103.788 Y49.014 E0.01505
G1 X103.788 Y46.735 E0.06386
G1 X104.325 Y46.735 E0.01505
G1 X104.325 Y49.014 E0.06386
G1 X104.862 Y49.014 E0.01505
G1 X104.862 Y46.735 E0.06386
G1 X105.399 Y46.735 E0.01505
G1 X105.399 Y49.014 E0.06386
G1 X105.936 Y49.014 E0.01505
G1 X105.936 Y46.735 E0.06386
G1 X106.473 Y46.735 E0.01505
G1 X106.473 Y49.014 E0.06386
G1 X107.010 Y49.014 E0.01505
G1 X107.010 Y46.735 E0.06386
G1 X107.547 Y46.735 E0.01505
G1 X107.547 Y49.014 E0.06386
G1 X108.084 Y49.014 E0.01505
G1 X108.084 Y46.735 E0.06386
G1 X108.621 Y46.735 E0.01505
G1 X108.621 Y49.014 E0.06386
G1 X109.159 Y49.014 E0.01505
G1 X109.159 Y46.735 E0.06386
G1 X109.696 Y46.735 E0.01505
G1 X109.696 Y49.014 E0.06386
G1 X110.233 Y49.014 E0.01505
G1 X110.233 Y46.735 E0.06386
G1 X110.770 Y46.735 E0.01505
G1 X110.770 Y49.014 E0.06386
G1 X111.307 Y49.014 E0.01505
G1 X111.307 Y46.735 E0.06386
G1 X111.844 Y46.735 E0.01505
G1 X111.844 Y49.014 E0.06386
G1 X112.381 Y49.014 E0.01505
G1 X112.381 Y46.735 E0.06386
G1 X112.918 Y46.735 E0.01505
G1 X112.918 Y49.014 E0.06386
G1 X113.455 Y49.014 E0.01505
G1 X113.455 Y46.735 E0.06386
G1 X113.992 Y46.735 E0.01505
G1 X113.992 Y49.014 E0.06386
G1 X114.529 Y49.014 E0.01505
G1 X114.529 Y46.735 E0.06386
G1 X115.066 Y46.735 E0.01505
G1 X115.066 Y49.014 E0.06386
G1 X115.603 Y49.014 E0.01505
G1 X115.603 Y46.735 E0.06386
G1 X116.141 Y46.735 E0.01505
G1 X116.141 Y49.014 E0.06386
G1 X116.678 Y49.014 E0.01505
G1 X116.678 Y46.735 E0.06386
G1 X117.215 Y46.735 E0.01505
G1 X117.215 Y49.014 E0.06386
G1 X117.752 Y49.014 E0.01505
G1 X117.752 Y46.735 E0.06386
G1 X118.289 Y46.735 E0.01505
G1 X118.289 Y49.014 E0.06386
G1 X118.826 Y49.014 E0.01505
G1 X118.826 Y46.735 E0.06386
G1 X119.363 Y46.735 E0.01505
G1 X119.363 Y49.014 E0.06386
G1 X119.900 Y49.014 E0.01505
G1 X119.900 Y46.735 E0.06386
G1 X120.437 Y46.735 E0.01505
G1 X120.437 Y49.014 E0.06386
G1 X120.974 Y49.014 E0.01505
G1 X120.974 Y46.735 E0.06386
G1 X121.511 Y46.735 E0.01505
G1 X121.511 Y49.014 E0.06386
G1 X122.048 Y49.014 E0.01505
G1 X122.048 Y46.735 E0.06386
G1 X122.585 Y46.735 E0.01505
G1 X122.585 Y49.014 E0.06386
G1 X123.123 Y49.014 E0.01505
G1 X123.123 Y46.735 E0.06386
G1 X123.660 Y46.735 E0.01505
G1 X123.660 Y49.014 E0.06386
G1 X124.197 Y49.014 E0.01505
G1 X124.197 Y46.735 E0.06386
G1 X124.734 Y46.735 E0.01505
G1 X124.734 Y49.014 E0.06386
G1 X125.271 Y49.014 E0.01505
G1 X125.271 Y46.735 E0.06386
G1 X125.808 Y46.735 E0.01505
G1 X125.808 Y49.014 E0.06386
G1 X126.345 Y49.014 E0.01505
G1 X126.345 Y46.735 E0.06386
G1 X126.882 Y46.735 E0.01505
G1 X126.882 Y49.014 E0.06386
G1 X127.419 Y49.014 E0.01505
G1 X127.419 Y46.735 E0.06386
G1 X127.956 Y46.735 E0.01505
G1 X127.956 Y49.014 E0.06386
G1 X128.493 Y49.014 E0.01505
G1 X128.493 Y46.735 E0.06386
G1 X129.030 Y46.735 E0.01505
G1 X129.030 Y49.014 E0.06386
G1 X129.568 Y49.014 E0.01505
G1 X129.568 Y46.735 E0.06386
G1 X130.105 Y46.735 E0.01505
G1 X130.105 Y49.014 E0.06386
G1 X130.642 Y49.014 E0.01505
G1 X130.642 Y46.735 E0.06386
