; generated by PrusaSlicer 2.3.3+x64 on 2021-09-19 at 14:16:45 UTC

; 

; external perimeters extrusion width = 0.45mm
; perimeters extrusion width = 0.45mm
; infill extrusion width = 0.45mm
; solid infill extrusion width = 0.45mm
; top infill extrusion width = 0.40mm
; support material extrusion width = 0.38mm
; first layer extrusion width = 0.42mm

M201 X500 Y500 Z100 E5000 ; sets maximum accelerations, mm/sec^2
M203 X500 Y500 Z10 E60 ; sets maximum feedrates, mm/sec
M204 P500 R1000 T500 ; sets acceleration (P, T) and retract acceleration (R), mm/sec^2
M205 X8.00 Y8.00 Z0.40 E5.00 ; sets the jerk limits, mm/sec
M205 S0 T0 ; sets the minimum extruding and travel feed rate, mm/sec
M107
;TYPE:Custom
G90 ; use absolute coordinates
M83 ; extruder relative mode
M104 S120 ; set temporary nozzle temp to prevent oozing during homing and auto bed leveling
M140 S60 ; set final bed temp
G4 S10 ; allow partial nozzle warmup
G28 ; home all axis
G1 Z50 F240
G1 X2 Y10 F3000
M104 S200 ; set final nozzle temp
M190 S60 ; wait for bed temp to stabilize
M109 S200 ; wait for nozzle temp to stabilize
G1 Z0.28 F240
G92 E0
G1 Y140 E10 F1500 ; prime the nozzle
G1 X2.3 F5000
G92 E0
G1 Y10 E10 F1200 ; prime the nozzle
G92 E0
G21 ; set units to millimeters
G90 ; use absolute coordinates
M83 ; use relative distances for extrusion
; Filament gcode
;LAYER_CHANGE
;Z:0.2
;HEIGHT:0.2
;BEFORE_LAYER_CHANGE
G92 E0
;0.2


G1 E-6.50000 F3000.000
G1 Z0.200 F9000.000
;AFTER_LAYER_CHANGE
;0.2
G1 X29.418 Y183.116
G1 E6.50000 F2400.000
;TYPE:Skirt
;WIDTH:0.42
G1 F1200.000
G1 X29.172 Y182.280 E0.02731
G1 X25.043 Y96.602 E2.68949
G1 X25.138 Y94.601 E0.06281
G1 X25.436 Y92.614 E0.06301
G1 X26.187 Y89.901 E0.08825
G1 X26.971 Y88.008 E0.06425
G1 X27.900 Y86.282 E0.06146
G1 X29.519 Y83.984 E0.08814
G1 X30.862 Y82.497 E0.06281
G1 X32.321 Y81.175 E0.06174
G1 X103.163 Y26.375 E2.80822
G1 X123.239 Y14.763 E0.72716
G1 X123.803 Y14.536 E0.01906
G1 X124.406 Y14.460 E0.01906
G1 X125.201 Y14.599 E0.02532
G1 X149.413 Y23.411 E0.80787
G1 X149.854 Y23.626 E0.01538
G1 X150.238 Y23.924 E0.01526
G1 X200.385 Y86.719 E2.51963
G1 X200.692 Y87.221 E0.01846
G1 X200.902 Y88.109 E0.02860
G1 X204.381 Y181.648 E2.93489
G1 X204.310 Y183.158 E0.04741
G1 X204.084 Y184.658 E0.04756
G1 X203.529 Y186.663 E0.06523
G1 X202.933 Y188.102 E0.04883
G1 X201.876 Y189.961 E0.06704
G1 X200.529 Y191.688 E0.06867
G1 X198.946 Y193.196 E0.06855
G1 X197.203 Y194.429 E0.06697
G1 X195.812 Y195.172 E0.04943
G1 X193.773 Y195.950 E0.06842
G1 X191.685 Y196.415 E0.06708
G1 X189.525 Y196.576 E0.06791
G1 X38.212 Y189.825 E4.74904
G1 X37.723 Y189.750 E0.01550
G1 X37.264 Y189.579 E0.01538
G1 X36.849 Y189.316 E0.01538
G1 X29.945 Y183.804 E0.27700
G1 X29.454 Y183.163 E0.02531
G1 E-4.55000 F3000.000
;WIPE_START
G1 F7200.000
G1 X29.172 Y182.280 E-0.36708
G1 X28.992 Y178.531 E-1.48542
;WIPE_END
G1 E-0.09750 F3000.000
G1 X118.597 Y24.942 F9000.000
G1 E6.50000 F2400.000
;TYPE:Perimeter
G1 F1200.000
G1 X119.284 Y25.339 E0.02488
G1 X119.284 Y38.132 E0.40113
G1 X118.597 Y38.529 E0.02488
G1 X107.517 Y32.132 E0.40113
G1 X107.517 Y31.339 E0.02488
G1 X118.545 Y24.972 E0.39925
G1 X118.597 Y25.377 F9000.000
;TYPE:External perimeter
G1 F1200.000
G1 X118.907 Y25.556 E0.01122
G1 X118.907 Y37.914 E0.38748
G1 X118.597 Y38.093 E0.01122
G1 X107.894 Y31.914 E0.38747
G1 X107.894 Y31.556 E0.01122
G1 X118.545 Y25.407 E0.38559
G1 X118.824 Y25.101 F9000.000
G1 E-4.55000 F3000.000
;WIPE_START
G1 F7200.000
G1 X118.907 Y25.556 E-0.15494
G1 X118.907 Y29.845 E-1.69756
;WIPE_END
G1 E-0.09750 F3000.000
G1 X123.932 Y23.075 F9000.000
G1 E6.50000 F2400.000
;TYPE:Perimeter
G1 F1200.000
G1 X123.932 Y40.395 E0.54306
G1 X147.909 Y33.970 E0.77833
G1 X147.909 Y36.346 E0.07449
G1 X123.405 Y45.265 E0.81763
G1 X105.284 Y34.803 E0.65608
G1 X105.284 Y28.668 E0.19235
G1 X124.467 Y17.592 E0.69454
G1 X147.909 Y26.124 E0.78219
G1 X147.909 Y29.500 E0.10584
G1 X123.990 Y23.091 E0.77645
G1 X124.309 Y23.567 F9000.000
;TYPE:External perimeter
G1 F1200.000
G1 X124.309 Y39.904 E0.51224
G1 X148.287 Y33.479 E0.77833
G1 X148.287 Y36.610 E0.09817
G1 X123.369 Y45.679 E0.83142
G1 X104.907 Y35.020 E0.66842
G1 X104.907 Y28.450 E0.20601
G1 X124.431 Y17.178 E0.70688
G1 X148.287 Y25.860 E0.79598
G1 X148.287 Y29.992 E0.12953
G1 X124.367 Y23.582 E0.77645
G1 X123.909 Y23.554 F9000.000
G1 E-4.55000 F3000.000
;WIPE_START
G1 F7200.000
G1 X124.350 Y28.262 E-1.85250
;WIPE_END
G1 E-0.09750 F3000.000
G1 X147.796 Y26.977 F9000.000
G1 E6.50000 F2400.000
;TYPE:Solid infill
;WIDTH:0.422488
G1 F1200.000
G1 X146.865 Y26.045 E0.04159
G1 X146.021 Y25.738 E0.02835
G1 X147.627 Y27.344 E0.07168
G1 X147.627 Y27.881 E0.01694
G1 X145.177 Y25.431 E0.10935
G1 X144.333 Y25.124 E0.02835
G1 X147.627 Y28.418 E0.14702
G1 X147.627 Y28.954 E0.01694
G1 X143.489 Y24.816 E0.18469
G1 X142.645 Y24.509 E0.02835
G1 X147.136 Y29.000 E0.20044
G1 X146.402 Y28.803 E0.02396
G1 X141.801 Y24.202 E0.20538
G1 X140.957 Y23.895 E0.02835
G1 X145.669 Y28.607 E0.21033
G1 X144.936 Y28.411 E0.02396
G1 X140.113 Y23.588 E0.21527
G1 X139.269 Y23.280 E0.02835
G1 X144.202 Y28.214 E0.22021
G1 X143.469 Y28.018 E0.02396
G1 X138.425 Y22.973 E0.22515
G1 X137.581 Y22.666 E0.02835
G1 X142.736 Y27.821 E0.23009
G1 X142.003 Y27.625 E0.02396
G1 X136.737 Y22.359 E0.23503
G1 X135.893 Y22.052 E0.02835
G1 X141.269 Y27.428 E0.23997
G1 X140.536 Y27.232 E0.02396
G1 X135.049 Y21.745 E0.24491
G1 X134.205 Y21.437 E0.02835
G1 X139.803 Y27.035 E0.24985
G1 X139.070 Y26.839 E0.02396
G1 X133.361 Y21.130 E0.25479
G1 X132.517 Y20.823 E0.02835
G1 X138.336 Y26.642 E0.25974
G1 X137.603 Y26.446 E0.02396
G1 X131.673 Y20.516 E0.26468
G1 X130.829 Y20.209 E0.02835
G1 X136.870 Y26.249 E0.26962
G1 X136.136 Y26.053 E0.02396
G1 X129.985 Y19.901 E0.27456
G1 X129.141 Y19.594 E0.02835
G1 X135.403 Y25.856 E0.27950
G1 X134.670 Y25.660 E0.02396
G1 X128.297 Y19.287 E0.28444
G1 X127.453 Y18.980 E0.02835
G1 X133.937 Y25.463 E0.28938
G1 X133.203 Y25.267 E0.02396
G1 X126.609 Y18.673 E0.29432
G1 X125.765 Y18.366 E0.02835
G1 X132.470 Y25.070 E0.29926
G1 X131.737 Y24.874 E0.02396
G1 X124.921 Y18.058 E0.30420
G1 X124.494 Y17.903 E0.01434
G1 X124.326 Y18.000 E0.00613
G1 X131.004 Y24.677 E0.29804
G1 X130.270 Y24.481 E0.02396
G1 X123.986 Y18.197 E0.28050
G1 X123.646 Y18.393 E0.01240
G1 X129.537 Y24.284 E0.26296
G1 X128.804 Y24.088 E0.02396
G1 X123.305 Y18.590 E0.24542
G1 X122.965 Y18.786 E0.01240
G1 X128.070 Y23.891 E0.22788
G1 X127.337 Y23.695 E0.02396
G1 X122.625 Y18.982 E0.21034
G1 X122.284 Y19.179 E0.01240
G1 X126.604 Y23.499 E0.19280
G1 X125.871 Y23.302 E0.02396
G1 X121.944 Y19.375 E0.17526
G1 X121.604 Y19.572 E0.01240
G1 X125.137 Y23.106 E0.15772
G1 X124.404 Y22.909 E0.02396
G1 X121.263 Y19.768 E0.14018
G1 X120.923 Y19.965 E0.01240
G1 X123.671 Y22.713 E0.12264
G1 X123.649 Y22.707 E0.00072
G1 X123.649 Y23.227 E0.01643
G1 X120.583 Y20.161 E0.13685
G1 X120.243 Y20.358 E0.01240
G1 X123.649 Y23.764 E0.15204
G1 X123.649 Y24.301 E0.01694
G1 X119.902 Y20.554 E0.16723
G1 X119.562 Y20.751 E0.01240
G1 X123.649 Y24.838 E0.18242
G1 X123.649 Y25.375 E0.01694
G1 X119.222 Y20.947 E0.19761
G1 X118.881 Y21.144 E0.01240
G1 X123.649 Y25.911 E0.21280
G1 X123.649 Y26.448 E0.01694
G1 X118.541 Y21.340 E0.22799
G1 X118.201 Y21.537 E0.01240
G1 X123.649 Y26.985 E0.24318
G1 X123.649 Y27.522 E0.01694
G1 X117.860 Y21.733 E0.25837
G1 X117.520 Y21.930 E0.01240
G1 X123.649 Y28.058 E0.27356
G1 X123.649 Y28.595 E0.01694
G1 X117.180 Y22.126 E0.28875
G1 X116.839 Y22.323 E0.01240
G1 X123.649 Y29.132 E0.30393
G1 X123.649 Y29.669 E0.01694
G1 X119.566 Y25.586 E0.18222
G1 X119.566 Y25.175 E0.01298
G1 X118.596 Y24.616 E0.03536
G1 X116.499 Y22.519 E0.09358
G1 X116.159 Y22.716 E0.01240
G1 X118.255 Y24.812 E0.09358
G1 X117.915 Y25.009 E0.01240
G1 X115.818 Y22.912 E0.09358
G1 X115.478 Y23.109 E0.01240
G1 X117.575 Y25.205 E0.09358
G1 X117.235 Y25.402 E0.01240
G1 X115.138 Y23.305 E0.09358
G1 X114.798 Y23.501 E0.01240
G1 X116.894 Y25.598 E0.09358
G1 X116.554 Y25.795 E0.01240
G1 X114.457 Y23.698 E0.09358
G1 X114.117 Y23.894 E0.01240
G1 X116.214 Y25.991 E0.09358
G1 X115.873 Y26.188 E0.01240
G1 X113.777 Y24.091 E0.09358
G1 X113.436 Y24.287 E0.01240
G1 X115.533 Y26.384 E0.09358
G1 X115.193 Y26.581 E0.01240
G1 X113.096 Y24.484 E0.09358
G1 X112.756 Y24.680 E0.01240
G1 X114.852 Y26.777 E0.09358
G1 X114.512 Y26.974 E0.01240
G1 X112.415 Y24.877 E0.09358
G1 X112.075 Y25.073 E0.01240
G1 X114.172 Y27.170 E0.09358
G1 X113.831 Y27.366 E0.01240
G1 X111.735 Y25.270 E0.09358
G1 X111.394 Y25.466 E0.01240
G1 X113.491 Y27.563 E0.09358
G1 X113.151 Y27.759 E0.01240
G1 X111.054 Y25.663 E0.09358
G1 X110.714 Y25.859 E0.01240
G1 X112.810 Y27.956 E0.09358
G1 X112.470 Y28.152 E0.01240
G1 X110.373 Y26.056 E0.09358
G1 X110.033 Y26.252 E0.01240
G1 X112.130 Y28.349 E0.09358
G1 X111.790 Y28.545 E0.01240
G1 X109.693 Y26.449 E0.09358
G1 X109.353 Y26.645 E0.01240
G1 X111.449 Y28.742 E0.09358
G1 X111.109 Y28.938 E0.01240
G1 X109.012 Y26.842 E0.09358
G1 X108.672 Y27.038 E0.01240
G1 X110.769 Y29.135 E0.09358
G1 X110.428 Y29.331 E0.01240
G1 X108.332 Y27.235 E0.09358
G1 X107.991 Y27.431 E0.01240
G1 X110.088 Y29.528 E0.09358
G1 X109.748 Y29.724 E0.01240
G1 X107.651 Y27.628 E0.09358
G1 X107.311 Y27.824 E0.01240
G1 X109.407 Y29.921 E0.09358
G1 X109.067 Y30.117 E0.01240
G1 X106.970 Y28.021 E0.09358
G1 X106.630 Y28.217 E0.01240
G1 X108.727 Y30.314 E0.09358
G1 X108.386 Y30.510 E0.01240
G1 X106.290 Y28.413 E0.09358
G1 X105.949 Y28.610 E0.01240
G1 X108.046 Y30.707 E0.09358
G1 X107.706 Y30.903 E0.01240
G1 X105.609 Y28.806 E0.09358
G1 X105.566 Y28.831 E0.00156
G1 X105.566 Y29.300 E0.01481
G1 X107.365 Y31.100 E0.08030
G1 X107.234 Y31.175 E0.00478
G1 X107.234 Y31.505 E0.01041
G1 X105.397 Y29.668 E0.08202
G1 E-4.55000 F3000.000
;WIPE_START
G1 F7200.000
G1 X107.234 Y31.505 E-1.02869
G1 X107.234 Y31.175 E-0.13060
G1 X107.365 Y31.100 E-0.05994
G1 X106.234 Y29.968 E-0.63327
;WIPE_END
G1 E-0.09750 F3000.000
G1 X119.397 Y25.954 F9000.000
G1 E6.50000 F2400.000
G1 F1200.000
G1 X123.649 Y30.206 E0.18979
G1 X123.649 Y30.742 E0.01694
G1 X119.566 Y26.660 E0.18222
G1 X119.566 Y27.197 E0.01694
G1 X123.649 Y31.279 E0.18222
G1 X123.649 Y31.816 E0.01694
G1 X119.566 Y27.734 E0.18222
G1 X119.566 Y28.270 E0.01694
G1 X123.649 Y32.353 E0.18222
G1 X123.649 Y32.890 E0.01694
G1 X119.566 Y28.807 E0.18222
G1 X119.566 Y29.344 E0.01694
G1 X123.649 Y33.426 E0.18222
G1 X123.649 Y33.963 E0.01694
G1 X119.566 Y29.881 E0.18222
G1 X119.566 Y30.418 E0.01694
G1 X123.649 Y34.500 E0.18222
G1 X123.649 Y35.037 E0.01694
G1 X119.566 Y30.954 E0.18222
G1 X119.566 Y31.491 E0.01694
G1 X123.649 Y35.574 E0.18222
G1 X123.649 Y36.110 E0.01694
G1 X119.566 Y32.028 E0.18222
G1 X119.566 Y32.565 E0.01694
G1 X123.649 Y36.647 E0.18222
G1 X123.649 Y37.184 E0.01694
G1 X119.566 Y33.101 E0.18222
G1 X119.566 Y33.638 E0.01694
G1 X123.649 Y37.721 E0.18222
G1 X123.649 Y38.257 E0.01694
G1 X119.566 Y34.175 E0.18222
G1 X119.566 Y34.712 E0.01694
G1 X123.649 Y38.794 E0.18222
G1 X123.649 Y39.331 E0.01694
G1 X119.566 Y35.249 E0.18222
G1 X119.566 Y35.785 E0.01694
G1 X123.819 Y40.038 E0.18979
G1 E-4.55000 F3000.000
;WIPE_START
G1 F7200.000
G1 X120.509 Y36.728 E-1.85250
;WIPE_END
G1 E-0.09750 F3000.000
G1 X147.078 Y34.310 F9000.000
G1 E6.50000 F2400.000
G1 F1200.000
G1 X147.627 Y34.859 E0.02449
G1 X147.627 Y35.396 E0.01694
G1 X146.793 Y34.562 E0.03720
G1 X146.370 Y34.676 E0.01383
G1 X147.627 Y35.933 E0.05610
G1 X147.627 Y36.148 E0.00680
G1 X147.391 Y36.234 E0.00791
G1 X145.946 Y34.789 E0.06448
G1 X145.523 Y34.903 E0.01383
G1 X146.997 Y36.377 E0.06581
G1 X146.604 Y36.520 E0.01322
G1 X145.100 Y35.016 E0.06714
G1 X144.676 Y35.129 E0.01383
G1 X146.210 Y36.663 E0.06847
G1 X145.817 Y36.807 E0.01322
G1 X144.253 Y35.243 E0.06980
G1 X143.830 Y35.356 E0.01383
G1 X145.423 Y36.950 E0.07113
G1 X145.030 Y37.093 E0.01322
G1 X143.406 Y35.470 E0.07246
G1 X142.983 Y35.583 E0.01383
G1 X144.636 Y37.236 E0.07379
G1 X144.243 Y37.380 E0.01322
G1 X142.560 Y35.697 E0.07512
G1 X142.136 Y35.810 E0.01383
G1 X143.849 Y37.523 E0.07645
G1 X143.456 Y37.666 E0.01322
G1 X141.713 Y35.924 E0.07778
G1 X141.290 Y36.037 E0.01383
G1 X143.062 Y37.809 E0.07911
G1 X142.668 Y37.953 E0.01322
G1 X140.866 Y36.150 E0.08044
G1 X140.443 Y36.264 E0.01383
G1 X142.275 Y38.096 E0.08177
G1 X141.881 Y38.239 E0.01322
G1 X140.019 Y36.377 E0.08310
G1 X139.596 Y36.491 E0.01383
G1 X141.488 Y38.382 E0.08443
G1 X141.094 Y38.526 E0.01322
G1 X139.173 Y36.604 E0.08576
G1 X138.749 Y36.718 E0.01383
G1 X140.701 Y38.669 E0.08709
G1 X140.307 Y38.812 E0.01322
G1 X138.326 Y36.831 E0.08842
G1 X137.903 Y36.944 E0.01383
G1 X139.914 Y38.955 E0.08975
G1 X139.520 Y39.099 E0.01322
G1 X137.479 Y37.058 E0.09108
G1 X137.056 Y37.171 E0.01383
G1 X139.127 Y39.242 E0.09241
G1 X138.733 Y39.385 E0.01322
G1 X136.633 Y37.285 E0.09375
G1 X136.209 Y37.398 E0.01383
G1 X138.339 Y39.528 E0.09508
G1 X137.946 Y39.672 E0.01322
G1 X135.786 Y37.512 E0.09641
G1 X135.363 Y37.625 E0.01383
G1 X137.552 Y39.815 E0.09774
G1 X137.159 Y39.958 E0.01322
G1 X134.939 Y37.739 E0.09907
G1 X134.516 Y37.852 E0.01383
G1 X136.765 Y40.101 E0.10040
G1 X136.372 Y40.244 E0.01322
G1 X134.093 Y37.965 E0.10173
G1 X133.669 Y38.079 E0.01383
G1 X135.978 Y40.388 E0.10306
G1 X135.585 Y40.531 E0.01322
G1 X133.246 Y38.192 E0.10439
G1 X132.822 Y38.306 E0.01383
G1 X135.191 Y40.674 E0.10572
G1 X134.797 Y40.817 E0.01322
G1 X132.399 Y38.419 E0.10705
G1 X131.976 Y38.533 E0.01383
G1 X134.404 Y40.961 E0.10838
G1 X134.010 Y41.104 E0.01322
G1 X131.552 Y38.646 E0.10971
G1 X131.129 Y38.759 E0.01383
G1 X133.617 Y41.247 E0.11104
G1 X133.223 Y41.390 E0.01322
G1 X130.706 Y38.873 E0.11237
G1 X130.282 Y38.986 E0.01383
G1 X132.830 Y41.534 E0.11370
G1 X132.436 Y41.677 E0.01322
G1 X129.859 Y39.100 E0.11503
G1 X129.436 Y39.213 E0.01383
G1 X132.043 Y41.820 E0.11636
G1 X131.649 Y41.963 E0.01322
G1 X129.012 Y39.327 E0.11769
G1 X128.589 Y39.440 E0.01383
G1 X131.256 Y42.107 E0.11902
G1 X130.862 Y42.250 E0.01322
G1 X128.166 Y39.554 E0.12035
G1 X127.742 Y39.667 E0.01383
G1 X130.468 Y42.393 E0.12168
G1 X130.075 Y42.536 E0.01322
G1 X127.319 Y39.780 E0.12301
G1 X126.896 Y39.894 E0.01383
G1 X129.681 Y42.680 E0.12434
G1 X129.288 Y42.823 E0.01322
G1 X126.472 Y40.007 E0.12567
G1 X126.049 Y40.121 E0.01383
G1 X128.894 Y42.966 E0.12700
G1 X128.501 Y43.109 E0.01322
G1 X125.626 Y40.234 E0.12833
G1 X125.202 Y40.348 E0.01383
G1 X128.107 Y43.253 E0.12966
G1 X127.714 Y43.396 E0.01322
G1 X124.779 Y40.461 E0.13099
G1 X124.355 Y40.574 E0.01383
G1 X127.320 Y43.539 E0.13232
G1 X126.926 Y43.682 E0.01322
G1 X119.566 Y36.322 E0.32851
G1 X119.566 Y36.859 E0.01694
G1 X126.533 Y43.826 E0.31095
G1 X126.139 Y43.969 E0.01322
G1 X119.566 Y37.396 E0.29338
G1 X119.566 Y37.933 E0.01694
G1 X125.746 Y44.112 E0.27581
G1 X125.352 Y44.255 E0.01322
G1 X119.456 Y38.359 E0.26318
G1 X119.116 Y38.555 E0.01240
G1 X124.959 Y44.398 E0.26080
G1 X124.565 Y44.542 E0.01322
G1 X118.775 Y38.752 E0.25842
G1 X118.597 Y38.855 E0.00652
G1 X117.994 Y38.507 E0.02196
G1 X124.172 Y44.685 E0.27574
G1 X123.778 Y44.828 E0.01322
G1 X116.724 Y37.774 E0.31486
G1 X115.454 Y37.041 E0.04629
G1 X123.279 Y44.866 E0.34926
G1 X122.009 Y44.132 E0.04629
G1 X114.184 Y36.307 E0.34926
G1 X112.914 Y35.574 E0.04629
G1 X120.738 Y43.399 E0.34926
G1 X119.468 Y42.666 E0.04629
G1 X111.644 Y34.841 E0.34926
G1 X110.374 Y34.108 E0.04629
G1 X118.198 Y41.932 E0.34926
G1 X116.928 Y41.199 E0.04629
G1 X108.640 Y32.911 E0.36995
G1 E-4.55000 F3000.000
;WIPE_START
G1 F7200.000
G1 X111.949 Y36.220 E-1.85250
;WIPE_END
G1 E-0.09750 F3000.000
G1 X105.397 Y30.204 F9000.000
G1 E6.50000 F2400.000
G1 F1200.000
G1 X115.658 Y40.466 E0.45802
G1 X114.388 Y39.733 E0.04629
G1 X105.566 Y30.911 E0.39375
G1 X105.566 Y31.448 E0.01694
G1 X113.118 Y38.999 E0.33707
G1 X111.848 Y38.266 E0.04629
G1 X105.566 Y31.984 E0.28038
G1 X105.566 Y32.521 E0.01694
G1 X110.578 Y37.533 E0.22369
G1 X109.308 Y36.800 E0.04629
G1 X105.566 Y33.058 E0.16700
G1 X105.566 Y33.595 E0.01694
G1 X108.038 Y36.066 E0.11031
G1 X106.768 Y35.333 E0.04629
G1 X105.397 Y33.962 E0.06120
M106 S255
;LAYER_CHANGE
;Z:0.4
;HEIGHT:0.2
;BEFORE_LAYER_CHANGE
G92 E0
;0.4


G1 E-4.55000 F3000.000
;WIPE_START
G1 F7200.000
G1 X106.768 Y35.333 E-0.76754
