; generated by PrusaSlicer 2.3.3+x64 on 2021-12-12 at 22:40:57 UTC

; 

; external perimeters extrusion width = 0.45mm
; perimeters extrusion width = 0.45mm
; infill extrusion width = 0.45mm
; solid infill extrusion width = 0.45mm
; top infill extrusion width = 0.40mm
; support material extrusion width = 0.38mm
; first layer extrusion width = 0.42mm

M201 X500 Y500 Z100 E5000 ; sets maximum accelerations, mm/sec^2
M203 X500 Y500 Z10 E60 ; sets maximum feedrates, mm/sec
M204 P500 R1000 T500 ; sets acceleration (P, T) and retract acceleration (R), mm/sec^2
M205 X8.00 Y8.00 Z0.40 E5.00 ; sets the jerk limits, mm/sec
M205 S0 T0 ; sets the minimum extruding and travel feed rate, mm/sec
M107
;TYPE:Custom
G90 ; use absolute coordinates
M83 ; extruder relative mode
M104 S200 ; set extruder temp
M140 S60 ; set bed temp
M190 S60 ; wait for bed temp
M109 S200 ; wait for extruder temp
G28 ; home all
G29 ; Bed-Level
G1 Z2 F240
G1 X2 Y10 F3000
G1 Z0.28 F240
G92 E0
G1 Y190 E15 F1500 ; intro line
G1 X2.3 F5000
G92 E0
G1 Y10 E15 F1200 ; intro line
G92 E0
G21 ; set units to millimeters
G90 ; use absolute coordinates
M83 ; use relative distances for extrusion
; Filament gcode
;LAYER_CHANGE
;Z:0.2
;HEIGHT:0.2
;BEFORE_LAYER_CHANGE
G92 E0
;0.2


G1 E-6.50000 F3000.000
G1 Z0.200 F9000.000
;AFTER_LAYER_CHANGE
;0.2
G1 X43.236 Y34.933
G1 E6.50000 F2400.000
;TYPE:Skirt
;WIDTH:0.42
G1 F1200.000
G1 X43.457 Y34.259 E0.02225
G1 X43.867 Y33.680 E0.02225
G1 X53.252 Y24.281 E0.41645
G1 X53.961 Y23.802 E0.02684
G1 X54.428 Y23.653 E0.01538
G1 X54.912 Y23.602 E0.01526
G1 X187.077 Y23.602 E4.14392
G1 X187.986 Y23.783 E0.02907
G1 X188.757 Y24.298 E0.02907
G1 X198.167 Y33.725 E0.41764
G1 X198.623 Y34.455 E0.02696
G1 X198.789 Y35.299 E0.02696
G1 X198.757 Y85.896 E1.58645
G1 X198.531 Y86.572 E0.02237
G1 X198.113 Y87.151 E0.02237
G1 X188.729 Y96.379 E0.41267
G1 X188.032 Y96.844 E0.02626
G1 X187.084 Y97.042 E0.03036
G1 X54.748 Y97.036 E4.14932
G1 X53.967 Y96.844 E0.02520
G1 X53.296 Y96.402 E0.02520
G1 X43.896 Y87.160 E0.41332
G1 X43.406 Y86.440 E0.02731
G1 X43.207 Y85.496 E0.03024
G1 X43.236 Y34.993 E1.58347
G1 E-4.55000 F3000.000
;WIPE_START
G1 F7200.000
G1 X43.457 Y34.259 E-0.30356
G1 X43.867 Y33.680 E-0.28089
G1 X46.130 Y31.413 E-1.26805
;WIPE_END
G1 E-0.09750 F3000.000
G1 X53.126 Y81.963 F9000.000
G1 E6.50000 F2400.000
;TYPE:Support material
G1 F1200.000
G1 X53.126 Y78.481 E0.10918
G1 X53.880 Y76.660 E0.06179
G1 X53.880 Y83.340 E0.20946
G1 X54.634 Y85.161 E0.06179
G1 X54.634 Y74.839 E0.32363
G1 X54.987 Y73.987 E0.02892
G1 X55.388 Y73.821 E0.01362
G1 X55.388 Y86.179 E0.38749
G1 X56.142 Y86.492 E0.02559
G1 X56.142 Y73.508 E0.40708
G1 X56.896 Y73.196 E0.02559
G1 X56.896 Y86.804 E0.42667
G1 X57.651 Y87.116 E0.02559
G1 X57.651 Y72.884 E0.44626
G1 X58.405 Y72.571 E0.02559
G1 X58.405 Y87.429 E0.46584
G1 X59.159 Y87.741 E0.02559
G1 X59.159 Y72.259 E0.48543
G1 X59.913 Y71.947 E0.02559
G1 X59.913 Y88.053 E0.50502
G1 X60.667 Y88.366 E0.02559
G1 X60.667 Y71.634 E0.52461
G1 X61.000 Y71.496 E0.01129
G1 X61.421 Y71.671 E0.01430
G1 X61.421 Y88.329 E0.52231
G1 X62.176 Y88.017 E0.02559
G1 X62.176 Y71.983 E0.50272
G1 X62.930 Y72.296 E0.02559
G1 X62.930 Y87.704 E0.48313
G1 X63.684 Y87.392 E0.02559
G1 X63.684 Y72.608 E0.46354
G1 X64.438 Y72.920 E0.02559
G1 X64.438 Y87.080 E0.44395
G1 X65.192 Y86.767 E0.02559
G1 X65.192 Y73.233 E0.42436
G1 X65.946 Y73.545 E0.02559
G1 X65.946 Y86.455 E0.40477
G1 X66.701 Y86.142 E0.02559
G1 X66.701 Y73.858 E0.38518
G1 X67.013 Y73.987 E0.01060
G1 X67.455 Y75.053 E0.03619
G1 X67.455 Y84.947 E0.31020
G1 X68.209 Y83.126 E0.06179
G1 X68.209 Y76.874 E0.19602
G1 X68.963 Y78.695 E0.06179
G1 X68.963 Y81.749 E0.09575
G1 E-4.55000 F3000.000
;WIPE_START
G1 F7200.000
G1 X68.963 Y78.695 E-1.20884
G1 X68.341 Y77.192 E-0.64366
;WIPE_END
G1 E-0.09750 F3000.000
G1 X71.226 Y74.526 F9000.000
G1 E6.50000 F2400.000
G1 F1200.000
G1 X71.226 Y77.816 E0.10317
G1 X71.010 Y76.969 E0.02740
G1 X70.849 Y76.482 E0.01609
G1 X70.471 Y75.566 E0.03106
G1 X70.471 Y74.497 E0.03353
G1 X69.717 Y72.676 E0.06179
G1 X69.717 Y74.223 E0.04849
G1 X69.397 Y73.765 E0.01751
G1 X68.963 Y73.224 E0.02175
G1 X68.963 Y71.548 E0.05256
G1 X68.209 Y71.235 E0.02559
G1 X68.209 Y72.427 E0.03737
G1 X67.455 Y71.775 E0.03126
G1 X67.455 Y70.923 E0.02671
G1 X66.701 Y70.610 E0.02559
G1 X66.701 Y71.234 E0.01956
G1 X65.946 Y70.785 E0.02752
G1 X65.946 Y70.298 E0.01528
G1 X65.553 Y70.135 E0.01335
G1 X65.553 Y65.335 E0.15052
G1 X65.192 Y65.335 E0.01131
G1 X65.192 Y70.422 E0.15950
G1 X64.438 Y70.125 E0.02541
G1 X64.438 Y65.335 E0.15018
G1 X63.684 Y65.335 E0.02365
G1 X63.684 Y69.894 E0.14296
G1 X62.930 Y69.723 E0.02425
G1 X62.930 Y65.335 E0.13760
G1 X62.176 Y65.335 E0.02365
G1 X62.176 Y69.610 E0.13406
G1 X61.421 Y69.552 E0.02372
G1 X61.421 Y65.335 E0.13222
G1 X60.667 Y65.335 E0.02365
G1 X60.667 Y69.549 E0.13215
G1 X59.913 Y69.599 E0.02370
G1 X59.913 Y65.335 E0.13371
G1 X59.159 Y65.335 E0.02365
G1 X59.159 Y69.708 E0.13711
G1 X58.405 Y69.870 E0.02419
G1 X58.405 Y65.335 E0.14219
G1 X57.651 Y65.335 E0.02365
G1 X57.651 Y70.095 E0.14926
G1 X56.896 Y70.382 E0.02530
G1 X56.896 Y65.335 E0.15826
G1 X56.142 Y65.335 E0.02365
G1 X56.142 Y70.740 E0.16947
G1 X55.388 Y71.178 E0.02735
G1 X55.388 Y65.335 E0.18322
G1 X54.919 Y65.335 E0.01471
G1 X54.919 Y67.672 E0.07328
G1 X54.634 Y67.672 E0.00893
G1 X54.634 Y71.705 E0.12647
G1 X54.361 Y71.919 E0.01087
G1 X53.880 Y72.343 E0.02009
G1 X53.880 Y67.672 E0.14645
G1 X53.126 Y67.672 E0.02365
G1 X53.126 Y73.121 E0.17086
G1 X52.603 Y73.765 E0.02601
G1 X52.372 Y74.093 E0.01259
G1 X52.372 Y72.351 E0.05464
G1 X51.617 Y72.349 E0.02365
G1 X51.617 Y75.385 E0.09522
G1 X51.340 Y75.992 E0.02093
G1 X51.155 Y76.471 E0.01610
G1 X50.863 Y77.428 E0.03136
G1 X50.863 Y72.346 E0.15934
G1 X50.109 Y72.344 E0.02365
G1 X50.109 Y87.656 E0.48010
G1 X50.863 Y87.654 E0.02365
G1 X50.863 Y82.572 E0.15934
G1 X51.155 Y83.529 E0.03136
G1 X51.340 Y84.008 E0.01609
G1 X51.617 Y84.615 E0.02093
G1 X51.617 Y87.651 E0.09520
G1 X52.372 Y87.648 E0.02365
G1 X52.372 Y85.907 E0.05461
G1 X52.603 Y86.235 E0.01259
G1 X53.126 Y86.879 E0.02601
G1 X53.126 Y92.328 E0.17086
G1 X53.880 Y92.328 E0.02365
G1 X53.880 Y87.657 E0.14645
G1 X54.361 Y88.081 E0.02009
G1 X54.634 Y88.295 E0.01087
G1 X54.634 Y92.328 E0.12647
G1 X54.919 Y92.328 E0.00893
G1 X54.919 Y94.665 E0.07328
G1 X55.388 Y94.665 E0.01471
G1 X55.388 Y88.822 E0.18322
G1 X56.142 Y89.260 E0.02735
G1 X56.142 Y94.665 E0.16947
G1 X56.896 Y94.665 E0.02365
G1 X56.896 Y89.618 E0.15826
G1 X57.651 Y89.905 E0.02530
G1 X57.651 Y94.665 E0.14926
G1 X58.405 Y94.665 E0.02365
G1 X58.405 Y90.130 E0.14219
G1 X59.159 Y90.292 E0.02419
G1 X59.159 Y94.665 E0.13711
G1 X59.913 Y94.665 E0.02365
G1 X59.913 Y90.401 E0.13371
G1 X60.667 Y90.451 E0.02370
G1 X60.667 Y94.665 E0.13215
G1 X61.421 Y94.665 E0.02365
G1 X61.421 Y90.448 E0.13222
G1 X62.176 Y90.390 E0.02372
G1 X62.176 Y94.665 E0.13406
G1 X62.930 Y94.665 E0.02365
G1 X62.930 Y90.277 E0.13760
G1 X63.684 Y90.106 E0.02425
G1 X63.684 Y94.665 E0.14296
G1 X64.438 Y94.665 E0.02365
G1 X64.438 Y89.876 E0.15018
G1 X65.192 Y89.578 E0.02541
G1 X65.192 Y94.665 E0.15950
G1 X65.553 Y94.665 E0.01131
G1 X65.553 Y89.865 E0.15051
G1 X65.946 Y89.702 E0.01335
G1 X65.946 Y89.215 E0.01528
G1 X66.701 Y88.766 E0.02752
G1 X66.701 Y89.390 E0.01956
G1 X67.455 Y89.077 E0.02559
G1 X67.455 Y88.225 E0.02671
G1 X68.209 Y87.573 E0.03126
G1 X68.209 Y88.765 E0.03737
G1 X68.963 Y88.452 E0.02559
G1 X68.963 Y86.776 E0.05256
G1 X69.397 Y86.235 E0.02175
G1 X69.717 Y85.777 E0.01751
G1 X69.717 Y87.324 E0.04849
G1 X70.471 Y85.503 E0.06179
G1 X70.471 Y84.434 E0.03353
G1 X70.849 Y83.518 E0.03106
G1 X71.010 Y83.031 E0.01610
G1 X71.226 Y82.184 E0.02740
G1 X71.226 Y85.317 E0.09824
G1 X71.980 Y85.317 E0.02365
G1 X71.980 Y74.692 E0.33312
G1 X72.734 Y74.690 E0.02365
G1 X72.734 Y85.317 E0.33322
G1 X73.488 Y85.317 E0.02365
G1 X73.488 Y74.687 E0.33331
G1 X74.242 Y74.684 E0.02365
G1 X74.242 Y85.317 E0.33340
G1 X74.996 Y85.317 E0.02365
G1 X74.996 Y74.681 E0.33349
G1 X75.750 Y74.678 E0.02365
G1 X75.750 Y85.317 E0.33358
G1 X75.953 Y85.317 E0.00634
G1 X75.953 Y85.334 E0.00052
G1 X76.505 Y85.330 E0.01731
G1 X76.505 Y74.675 E0.33410
G1 X77.259 Y74.683 E0.02365
G1 X77.259 Y85.326 E0.33370
G1 X78.013 Y85.321 E0.02365
G1 X78.013 Y74.683 E0.33356
G1 X78.290 Y74.683 E0.00868
G1 X78.290 Y72.331 E0.07374
G1 X78.767 Y72.334 E0.01497
G1 X78.767 Y87.666 E0.48074
G1 X79.521 Y87.662 E0.02365
G1 X79.521 Y72.338 E0.48050
G1 X80.275 Y72.342 E0.02365
G1 X80.275 Y87.828 E0.48557
G1 E-4.55000 F3000.000
;WIPE_START
G1 F7200.000
G1 X80.275 Y83.148 E-1.85250
;WIPE_END
G1 E-0.09750 F3000.000
G1 X82.538 Y79.456 F9000.000
G1 E6.50000 F2400.000
G1 F1200.000
G1 X82.538 Y80.100 E0.02020
G1 X83.292 Y81.921 E0.06179
G1 X83.292 Y78.079 E0.12047
G1 X84.046 Y76.258 E0.06179
G1 X84.046 Y83.742 E0.23464
G1 X84.800 Y85.563 E0.06179
G1 X84.800 Y74.437 E0.34882
G1 X84.987 Y73.987 E0.01529
G1 X85.555 Y73.752 E0.01926
G1 X85.555 Y86.248 E0.39181
G1 X86.309 Y86.560 E0.02559
G1 X86.309 Y73.440 E0.41140
G1 X87.063 Y73.127 E0.02559
G1 X87.063 Y86.873 E0.43099
G1 X87.817 Y87.185 E0.02559
G1 X87.817 Y72.815 E0.45058
G1 X88.571 Y72.502 E0.02559
G1 X88.571 Y87.498 E0.47017
G1 X89.325 Y87.810 E0.02559
G1 X89.325 Y72.190 E0.48975
G1 X90.079 Y71.878 E0.02559
G1 X90.079 Y88.122 E0.50934
G1 X90.834 Y88.435 E0.02559
G1 X90.834 Y71.565 E0.52893
G1 X91.000 Y71.496 E0.00565
G1 X91.588 Y71.740 E0.01995
G1 X91.588 Y88.260 E0.51799
G1 X92.342 Y87.948 E0.02559
G1 X92.342 Y72.052 E0.49840
G1 X93.096 Y72.365 E0.02559
G1 X93.096 Y87.635 E0.47881
G1 X93.850 Y87.323 E0.02559
G1 X93.850 Y72.677 E0.45922
G1 X94.604 Y72.989 E0.02559
G1 X94.604 Y87.011 E0.43963
G1 X95.359 Y86.698 E0.02559
G1 X95.359 Y73.302 E0.42004
G1 X96.113 Y73.614 E0.02559
G1 X96.113 Y86.386 E0.40045
G1 X96.867 Y86.074 E0.02559
G1 X96.867 Y73.926 E0.38086
G1 X97.013 Y73.987 E0.00496
G1 X97.621 Y75.455 E0.04982
G1 X97.621 Y84.545 E0.28502
G1 X98.375 Y82.724 E0.06179
G1 X98.375 Y77.276 E0.17084
G1 X99.129 Y79.096 E0.06179
G1 X99.129 Y81.347 E0.07057
G1 E-4.55000 F3000.000
;WIPE_START
G1 F7200.000
G1 X99.129 Y79.096 E-0.89090
G1 X98.375 Y77.276 E-0.78008
G1 X98.375 Y77.734 E-0.18152
;WIPE_END
G1 E-0.09750 F3000.000
G1 X105.163 Y85.487 F9000.000
G1 E6.50000 F2400.000
G1 F1200.000
G1 X105.163 Y74.659 E0.33950
G1 X104.409 Y74.666 E0.02365
G1 X104.409 Y85.317 E0.33397
G1 X103.654 Y85.317 E0.02365
G1 X103.654 Y74.672 E0.33376
G1 X102.900 Y74.679 E0.02365
G1 X102.900 Y85.317 E0.33355
G1 X102.146 Y85.317 E0.02365
G1 X102.146 Y74.686 E0.33333
G1 X101.392 Y74.692 E0.02365
G1 X101.392 Y85.317 E0.33312
G1 X100.638 Y85.317 E0.02365
G1 X100.638 Y84.058 E0.03946
G1 X100.226 Y84.925 E0.03008
G1 X99.884 Y85.514 E0.02137
G1 X99.884 Y86.922 E0.04414
G1 X99.309 Y88.309 E0.04707
G1 X99.129 Y88.383 E0.00610
G1 X99.129 Y86.578 E0.05662
G1 X98.753 Y87.019 E0.01820
G1 X98.375 Y87.415 E0.01714
G1 X98.375 Y88.696 E0.04017
G1 X97.621 Y89.008 E0.02559
G1 X97.621 Y88.095 E0.02862
G1 X96.867 Y88.656 E0.02947
G1 X96.867 Y89.321 E0.02083
G1 X96.113 Y89.633 E0.02559
G1 X96.113 Y89.120 E0.01607
G1 X95.359 Y89.505 E0.02654
G1 X95.359 Y94.665 E0.16181
G1 X94.604 Y94.665 E0.02365
G1 X94.604 Y89.816 E0.15204
G1 X93.850 Y90.060 E0.02485
G1 X93.850 Y94.665 E0.14441
G1 X93.096 Y94.665 E0.02365
G1 X93.096 Y90.245 E0.13859
G1 X92.342 Y90.369 E0.02396
G1 X92.342 Y94.665 E0.13470
G1 X91.588 Y94.665 E0.02365
G1 X91.588 Y90.441 E0.13246
G1 X90.834 Y90.455 E0.02365
G1 X90.834 Y94.665 E0.13202
G1 X90.079 Y94.665 E0.02365
G1 X90.079 Y90.416 E0.13323
G1 X89.325 Y90.321 E0.02383
G1 X89.325 Y94.665 E0.13621
G1 X88.571 Y94.665 E0.02365
G1 X88.571 Y90.170 E0.14093
G1 X87.817 Y89.960 E0.02455
G1 X87.817 Y94.665 E0.14754
G1 X87.063 Y94.665 E0.02365
G1 X87.063 Y89.688 E0.15607
G1 X86.309 Y89.344 E0.02599
G1 X86.309 Y94.665 E0.16685
G1 X85.555 Y94.665 E0.02365
G1 X85.555 Y88.927 E0.17991
G1 X84.800 Y88.422 E0.02846
G1 X84.800 Y89.183 E0.02385
G1 X84.046 Y88.870 E0.02559
G1 X84.046 Y87.810 E0.03326
G1 X83.609 Y87.399 E0.01881
G1 X83.292 Y87.067 E0.01439
G1 X83.292 Y88.558 E0.04675
G1 X82.691 Y88.309 E0.02040
G1 X82.538 Y87.940 E0.01254
G1 X82.538 Y86.143 E0.05634
G1 X82.032 Y85.382 E0.02865
G1 X81.784 Y84.943 E0.01580
G1 X81.784 Y87.651 E0.08488
G1 X81.030 Y87.654 E0.02365
G1 X81.030 Y83.151 E0.14121
G1 X80.854 Y82.536 E0.02005
G1 X80.655 Y81.540 E0.03183
G1 X80.554 Y80.519 E0.03217
G1 X80.541 Y79.994 E0.01646
G1 X80.591 Y78.987 E0.03161
G1 X80.655 Y78.461 E0.01664
G1 X80.854 Y77.464 E0.03185
G1 X81.030 Y76.849 E0.02005
G1 X81.030 Y72.345 E0.14121
G1 X81.784 Y72.349 E0.02365
G1 X81.784 Y75.057 E0.08488
G1 X82.032 Y74.618 E0.01580
G1 X82.538 Y73.857 E0.02865
G1 X82.538 Y72.060 E0.05634
G1 X82.691 Y71.691 E0.01254
G1 X83.292 Y71.442 E0.02040
G1 X83.292 Y72.933 E0.04675
G1 X83.609 Y72.601 E0.01439
G1 X84.046 Y72.190 E0.01881
G1 X84.046 Y71.130 E0.03326
G1 X84.800 Y70.817 E0.02559
G1 X84.800 Y71.578 E0.02385
G1 X85.555 Y71.073 E0.02846
G1 X85.555 Y65.335 E0.17991
G1 X86.309 Y65.335 E0.02365
G1 X86.309 Y70.656 E0.16685
G1 X87.063 Y70.312 E0.02599
G1 X87.063 Y65.335 E0.15607
G1 X87.817 Y65.335 E0.02365
G1 X87.817 Y70.040 E0.14754
G1 X88.571 Y69.830 E0.02455
G1 X88.571 Y65.335 E0.14093
G1 X89.325 Y65.335 E0.02365
G1 X89.325 Y69.679 E0.13621
G1 X90.079 Y69.584 E0.02383
G1 X90.079 Y65.335 E0.13323
G1 X90.834 Y65.335 E0.02365
G1 X90.834 Y69.545 E0.13202
G1 X91.588 Y69.559 E0.02365
G1 X91.588 Y65.335 E0.13246
G1 X92.342 Y65.335 E0.02365
G1 X92.342 Y69.631 E0.13470
G1 X93.096 Y69.755 E0.02396
G1 X93.096 Y65.335 E0.13859
G1 X93.850 Y65.335 E0.02365
G1 X93.850 Y69.940 E0.14441
G1 X94.604 Y70.184 E0.02485
G1 X94.604 Y65.335 E0.15205
G1 X95.359 Y65.335 E0.02365
G1 X95.359 Y70.495 E0.16181
G1 X96.113 Y70.880 E0.02654
G1 X96.113 Y70.367 E0.01607
G1 X96.867 Y70.679 E0.02559
G1 X96.867 Y71.344 E0.02083
G1 X97.621 Y71.905 E0.02947
G1 X97.621 Y70.992 E0.02862
G1 X98.375 Y71.304 E0.02559
G1 X98.375 Y72.585 E0.04017
G1 X98.753 Y72.981 E0.01714
G1 X99.129 Y73.422 E0.01820
G1 X99.129 Y71.617 E0.05662
G1 X99.309 Y71.691 E0.00610
G1 X99.884 Y73.078 E0.04707
G1 X99.884 Y74.486 E0.04413
G1 X100.226 Y75.075 E0.02137
G1 X100.638 Y75.942 E0.03008
G1 X100.638 Y74.455 E0.04660
G1 E-4.55000 F3000.000
;WIPE_START
G1 F7200.000
G1 X100.638 Y75.942 E-0.58836
G1 X100.226 Y75.075 E-0.37978
G1 X99.884 Y74.486 E-0.26984
G1 X99.884 Y73.078 E-0.55718
G1 X99.828 Y72.944 E-0.05733
;WIPE_END
G1 E-0.09750 F3000.000
G1 X106.671 Y74.513 F9000.000
G1 E6.50000 F2400.000
G1 F1200.000
G1 X106.671 Y85.335 E0.33929
G1 X107.425 Y85.329 E0.02365
G1 X107.425 Y74.683 E0.33381
G1 X108.179 Y74.683 E0.02365
G1 X108.179 Y85.324 E0.33364
G1 X108.933 Y85.319 E0.02365
G1 X108.933 Y74.683 E0.33347
G1 X109.688 Y74.683 E0.02365
G1 X109.688 Y85.313 E0.33330
G1 X110.442 Y85.308 E0.02365
G1 X110.442 Y74.683 E0.33314
G1 X111.196 Y74.683 E0.02365
G1 X111.196 Y76.365 E0.05272
G1 X110.990 Y76.969 E0.02003
G1 X110.854 Y77.464 E0.01609
G1 X110.741 Y77.965 E0.01610
G1 X110.655 Y78.461 E0.01576
G1 X110.591 Y78.979 E0.01639
G1 X110.541 Y79.994 E0.03186
G1 X110.554 Y80.507 E0.01609
G1 X110.591 Y81.021 E0.01614
G1 X110.655 Y81.540 E0.01641
G1 X110.741 Y82.035 E0.01575
G1 X110.854 Y82.536 E0.01610
G1 X110.990 Y83.031 E0.01609
G1 X111.196 Y83.635 E0.02003
G1 X111.196 Y85.303 E0.05227
G1 X111.445 Y85.301 E0.00781
G1 X111.950 Y86.520 E0.04139
G1 X111.950 Y85.237 E0.04024
G1 X112.307 Y85.815 E0.02130
G1 X112.704 Y86.364 E0.02125
G1 X112.704 Y88.315 E0.06114
G1 X113.458 Y88.627 E0.02559
G1 X113.458 Y87.242 E0.04343
G1 X113.972 Y87.746 E0.02256
G1 X114.213 Y87.953 E0.00996
G1 X114.213 Y88.939 E0.03092
G1 X114.967 Y89.252 E0.02559
G1 X114.967 Y88.539 E0.02234
G1 X115.721 Y89.026 E0.02815
G1 X115.721 Y94.665 E0.17681
G1 X116.475 Y94.665 E0.02365
G1 X116.475 Y89.428 E0.16422
G1 X117.229 Y89.752 E0.02574
G1 X117.229 Y94.665 E0.15406
G1 X117.983 Y94.665 E0.02365
G1 X117.983 Y90.014 E0.14585
G1 X118.738 Y90.208 E0.02442
G1 X118.738 Y94.665 E0.13976
G1 X119.492 Y94.665 E0.02365
G1 X119.492 Y90.349 E0.13534
G1 X120.246 Y90.428 E0.02378
G1 X120.246 Y94.665 E0.13285
G1 X121.000 Y94.665 E0.02365
G1 X121.000 Y90.459 E0.13190
G1 X121.754 Y90.428 E0.02367
