; generated by PrusaSlicer 2.3.3+x64 on 2022-01-03 at 22:01:19 UTC

; 

; external perimeters extrusion width = 0.45mm
; perimeters extrusion width = 0.45mm
; infill extrusion width = 0.45mm
; solid infill extrusion width = 0.45mm
; top infill extrusion width = 0.40mm
; first layer extrusion width = 0.42mm

M201 X500 Y500 Z100 E5000 ; sets maximum accelerations, mm/sec^2
M203 X500 Y500 Z10 E60 ; sets maximum feedrates, mm/sec
M204 P500 R1000 T500 ; sets acceleration (P, T) and retract acceleration (R), mm/sec^2
M205 X8.00 Y8.00 Z0.40 E5.00 ; sets the jerk limits, mm/sec
M205 S0 T0 ; sets the minimum extruding and travel feed rate, mm/sec
M107
;TYPE:Custom
G90 ; use absolute coordinates
M83 ; extruder relative mode
M104 S200 ; set extruder temp
M140 S60 ; set bed temp
M190 S60 ; wait for bed temp
M109 S200 ; wait for extruder temp
G28 ; home all
G29 ; Bed-Level
G1 Z2 F240
G1 X2 Y10 F3000
G1 Z0.28 F240
G92 E0
G1 Y190 E15 F1500 ; intro line
G1 X2.3 F5000
G92 E0
G1 Y10 E15 F1200 ; intro line
G92 E0
G21 ; set units to millimeters
G90 ; use absolute coordinates
M83 ; use relative distances for extrusion
; Filament gcode
;LAYER_CHANGE
;Z:0.2
;HEIGHT:0.2
;BEFORE_LAYER_CHANGE
G92 E0
;0.2


G1 E-6.50000 F3000.000
G1 Z0.200 F9000.000
;AFTER_LAYER_CHANGE
;0.2
G1 X174.247 Y20.959
G1 E6.50000 F2400.000
;TYPE:Skirt
;WIDTH:0.42
G1 F1200.000
G1 X174.440 Y21.854 E0.02872
G1 X174.441 Y126.909 E3.29391
G1 X174.317 Y127.654 E0.02367
G1 X173.969 Y128.319 E0.02355
G1 X173.593 Y128.717 E0.01716
G1 X173.137 Y129.019 E0.01716
G1 X172.619 Y129.209 E0.01728
G1 X172.076 Y129.275 E0.01716
G1 X92.048 Y129.274 E2.50921
G1 X91.307 Y129.151 E0.02355
G1 X90.642 Y128.803 E0.02355
G1 X90.065 Y128.185 E0.02649
G1 X89.741 Y127.405 E0.02649
G1 X85.360 Y104.597 E0.72820
G1 X85.364 Y44.074 E1.89765
G1 X89.734 Y21.423 E0.72333
G1 X89.894 Y20.927 E0.01633
G1 X90.157 Y20.478 E0.01633
G1 X90.529 Y20.082 E0.01704
G1 X90.985 Y19.779 E0.01716
G1 X91.495 Y19.589 E0.01704
G1 X92.038 Y19.521 E0.01716
G1 X172.067 Y19.520 E2.50927
G1 X172.966 Y19.698 E0.02872
G1 X173.730 Y20.203 E0.02872
G1 X174.214 Y20.909 E0.02684
G1 E-4.55000 F3000.000
;WIPE_START
G1 F7200.000
G1 X174.440 Y21.854 E-0.38468
G1 X174.440 Y25.563 E-1.46782
;WIPE_END
G1 E-0.09750 F3000.000
G1 X171.376 Y22.585 F9000.000
G1 E6.50000 F2400.000
;TYPE:Perimeter
G1 F1200.000
G1 X171.376 Y41.083 E0.57999
G1 X171.396 Y42.436 E0.04243
G1 X171.305 Y42.270 E0.00592
G1 X169.949 Y42.660 E0.04424
G1 X166.949 Y43.635 E0.09890
G1 X166.949 Y48.160 E0.14189
G1 X169.949 Y49.134 E0.09890
G1 X171.305 Y49.525 E0.04424
G1 X171.394 Y49.363 E0.00579
G1 X171.377 Y50.254 E0.02796
G1 X171.377 Y98.541 E1.51399
G1 X171.394 Y99.432 E0.02796
G1 X171.305 Y99.270 E0.00579
G1 X169.949 Y99.660 E0.04424
G1 X166.949 Y100.635 E0.09890
G1 X166.949 Y105.160 E0.14189
G1 X169.949 Y106.134 E0.09890
G1 X171.305 Y106.525 E0.04424
G1 X171.395 Y106.361 E0.00586
G1 X171.377 Y107.218 E0.02689
G1 X171.376 Y126.210 E0.59548
G1 X92.751 Y126.210 E2.46526
G1 X92.751 Y103.718 E0.70524
G1 X91.733 Y103.387 E0.03354
G1 X90.689 Y104.824 E0.05568
G1 X88.425 Y104.088 E0.07467
G1 X88.425 Y101.707 E0.07467
G1 X90.689 Y100.971 E0.07467
G1 X91.733 Y102.408 E0.05568
G1 X92.751 Y102.077 E0.03354
G1 X92.751 Y46.718 E1.73575
G1 X91.733 Y46.387 E0.03354
G1 X90.689 Y47.824 E0.05568
G1 X88.425 Y47.088 E0.07467
G1 X88.425 Y44.707 E0.07467
G1 X90.689 Y43.971 E0.07467
G1 X91.733 Y45.408 E0.05568
G1 X92.751 Y45.077 E0.03354
G1 X92.751 Y22.585 E0.70524
G1 X171.316 Y22.585 E2.46338
G1 E-4.55000 F3000.000
;WIPE_START
G1 F7200.000
G1 X171.332 Y27.265 E-1.85250
;WIPE_END
G1 E-0.09750 F3000.000
G1 X171.120 Y42.716 F9000.000
G1 E6.50000 F2400.000
;TYPE:External perimeter
G1 F1200.000
G1 X170.060 Y43.021 E0.03459
G1 X167.326 Y43.909 E0.09010
G1 X167.326 Y47.886 E0.12471
G1 X170.060 Y48.774 E0.09010
G1 X171.120 Y49.079 E0.03459
G1 X171.440 Y48.496 E0.02085
G1 X171.853 Y47.922 E0.02220
G1 X171.853 Y48.261 E0.01064
G1 X171.773 Y49.254 E0.03124
G1 X171.754 Y50.258 E0.03148
G1 X171.754 Y98.537 E1.51376
G1 X171.773 Y99.541 E0.03148
G1 X171.853 Y100.534 E0.03124
G1 X171.853 Y100.873 E0.01064
G1 X171.440 Y100.299 E0.02220
G1 X171.120 Y99.716 E0.02085
G1 X170.060 Y100.021 E0.03459
G1 X167.326 Y100.909 E0.09010
G1 X167.326 Y104.886 E0.12471
G1 X170.060 Y105.774 E0.09010
G1 X171.120 Y106.079 E0.03459
G1 X171.440 Y105.496 E0.02085
G1 X171.853 Y104.922 E0.02220
G1 X171.853 Y105.249 E0.01027
G1 X171.775 Y106.231 E0.03087
G1 X171.754 Y107.222 E0.03111
G1 X171.753 Y126.587 E0.60718
G1 X92.373 Y126.587 E2.48890
G1 X92.373 Y103.992 E0.70847
G1 X91.877 Y103.831 E0.01636
G1 X90.833 Y105.267 E0.05568
G1 X88.048 Y104.362 E0.09185
G1 X88.048 Y101.433 E0.09185
G1 X90.833 Y100.528 E0.09185
G1 X91.877 Y101.964 E0.05568
G1 X92.373 Y101.803 E0.01636
G1 X92.373 Y46.992 E1.71857
G1 X91.877 Y46.831 E0.01636
G1 X90.833 Y48.267 E0.05568
G1 X88.048 Y47.362 E0.09185
G1 X88.048 Y44.433 E0.09185
G1 X90.833 Y43.528 E0.09185
G1 X91.877 Y44.964 E0.05568
G1 X92.373 Y44.803 E0.01636
G1 X92.373 Y22.207 E0.70847
G1 X171.753 Y22.207 E2.48890
G1 X171.753 Y41.080 E0.59173
G1 X171.775 Y42.564 E0.04653
G1 X171.853 Y43.546 E0.03089
G1 X171.853 Y43.873 E0.01027
G1 X171.440 Y43.299 E0.02220
G1 X171.149 Y42.769 E0.01897
G1 X170.973 Y42.344 F9000.000
G1 E-4.55000 F3000.000
;WIPE_START
G1 F7200.000
G1 X170.060 Y43.021 E-0.44249
G1 X167.326 Y43.909 E-1.13753
G1 X167.326 Y44.597 E-0.27249
;WIPE_END
G1 E-0.09750 F3000.000
G1 X171.266 Y50.130 F9000.000
G1 E6.50000 F2400.000
;TYPE:Solid infill
;WIDTH:0.42006
G1 F1200.000
G1 X170.813 Y49.677 E0.02010
G1 X170.064 Y49.462 E0.02444
G1 X171.094 Y50.492 E0.04568
G1 X171.094 Y51.025 E0.01673
G1 X169.285 Y49.216 E0.08024
G1 X168.495 Y48.959 E0.02604
G1 X171.094 Y51.558 E0.11527
G1 X171.094 Y52.092 E0.01673
G1 X167.441 Y48.439 E0.16202
G1 E-4.55000 F3000.000
;WIPE_START
G1 F7200.000
G1 X170.750 Y51.748 E-1.85250
;WIPE_END
G1 E-0.09750 F3000.000
G1 X171.263 Y23.460 F9000.000
G1 E6.50000 F2400.000
G1 F1200.000
G1 X170.671 Y22.867 E0.02629
G1 X170.137 Y22.867 E0.01673
G1 X171.094 Y23.824 E0.04241
G1 X171.094 Y24.357 E0.01673
G1 X169.604 Y22.867 E0.06607
G1 X169.070 Y22.867 E0.01673
G1 X171.094 Y24.890 E0.08972
G1 X171.094 Y25.424 E0.01673
G1 X168.537 Y22.867 E0.11338
G1 X168.004 Y22.867 E0.01673
G1 X171.094 Y25.957 E0.13703
G1 X171.094 Y26.491 E0.01673
G1 X167.470 Y22.867 E0.16068
G1 X166.937 Y22.867 E0.01673
G1 X171.094 Y27.024 E0.18434
G1 X171.094 Y27.557 E0.01673
G1 X166.404 Y22.867 E0.20799
G1 X165.870 Y22.867 E0.01673
G1 X171.094 Y28.091 E0.23164
G1 X171.094 Y28.624 E0.01673
G1 X165.337 Y22.867 E0.25530
G1 X164.804 Y22.867 E0.01673
G1 X171.094 Y29.157 E0.27895
G1 X171.094 Y29.691 E0.01673
G1 X164.270 Y22.867 E0.30261
G1 X163.737 Y22.867 E0.01673
G1 X171.094 Y30.224 E0.32626
G1 X171.094 Y30.757 E0.01673
G1 X163.204 Y22.867 E0.34991
G1 X162.670 Y22.867 E0.01673
G1 X171.094 Y31.291 E0.37357
G1 X171.094 Y31.824 E0.01673
G1 X162.137 Y22.867 E0.39722
G1 X161.603 Y22.867 E0.01673
G1 X171.094 Y32.357 E0.42087
G1 X171.094 Y32.891 E0.01673
G1 X161.070 Y22.867 E0.44453
G1 X160.537 Y22.867 E0.01673
G1 X171.094 Y33.424 E0.46818
G1 X171.094 Y33.957 E0.01673
G1 X160.003 Y22.867 E0.49183
G1 X159.470 Y22.867 E0.01673
G1 X171.094 Y34.491 E0.51549
G1 X171.094 Y35.024 E0.01673
G1 X158.937 Y22.867 E0.53914
G1 X158.403 Y22.867 E0.01673
G1 X171.094 Y35.558 E0.56280
G1 X171.094 Y36.091 E0.01673
G1 X157.870 Y22.867 E0.58645
G1 X157.337 Y22.867 E0.01673
G1 X171.094 Y36.624 E0.61010
G1 X171.094 Y37.158 E0.01673
G1 X156.803 Y22.867 E0.63376
G1 X156.270 Y22.867 E0.01673
G1 X171.094 Y37.691 E0.65741
G1 X171.094 Y38.224 E0.01673
G1 X155.737 Y22.867 E0.68106
G1 X155.203 Y22.867 E0.01673
G1 X171.094 Y38.758 E0.70472
G1 X171.094 Y39.291 E0.01673
G1 X154.670 Y22.867 E0.72837
G1 X154.136 Y22.867 E0.01673
G1 X171.094 Y39.824 E0.75203
G1 X171.094 Y40.358 E0.01673
G1 X153.603 Y22.867 E0.77568
G1 X153.070 Y22.867 E0.01673
G1 X171.094 Y40.891 E0.79933
G1 X171.099 Y41.430 E0.01688
G1 X152.536 Y22.867 E0.82321
G1 X152.003 Y22.867 E0.01673
G1 X171.107 Y41.971 E0.84721
G1 X171.107 Y42.033 E0.00195
G1 X170.741 Y42.138 E0.01196
G1 X151.470 Y22.867 E0.85465
G1 X150.936 Y22.867 E0.01673
G1 X170.327 Y42.258 E0.85993
G1 X169.912 Y42.377 E0.01351
G1 X150.403 Y22.867 E0.86522
G1 X149.870 Y22.867 E0.01673
G1 X169.509 Y42.506 E0.87096
G1 X169.106 Y42.637 E0.01327
G1 X149.336 Y22.867 E0.87676
G1 X148.803 Y22.867 E0.01673
G1 X168.703 Y42.768 E0.88256
G1 X168.301 Y42.899 E0.01327
G1 X148.270 Y22.867 E0.88836
G1 X147.736 Y22.867 E0.01673
G1 X167.898 Y43.029 E0.89416
G1 X167.496 Y43.160 E0.01327
G1 X147.203 Y22.867 E0.89996
G1 X146.670 Y22.867 E0.01673
G1 X167.093 Y43.291 E0.90576
G1 X166.690 Y43.422 E0.01327
G1 X146.136 Y22.867 E0.91156
G1 X145.603 Y22.867 E0.01673
G1 X166.667 Y43.931 E0.93415
G1 X166.667 Y44.464 E0.01673
G1 X145.069 Y22.867 E0.95781
G1 X144.536 Y22.867 E0.01673
G1 X166.667 Y44.998 E0.98146
G1 X166.667 Y45.531 E0.01673
G1 X144.003 Y22.867 E1.00511
G1 X143.469 Y22.867 E0.01673
G1 X166.667 Y46.065 E1.02877
G1 X166.667 Y46.598 E0.01673
G1 X142.936 Y22.867 E1.05242
G1 X142.403 Y22.867 E0.01673
G1 X166.667 Y47.131 E1.07608
G1 X166.667 Y47.665 E0.01673
G1 X141.869 Y22.867 E1.09973
G1 X141.336 Y22.867 E0.01673
G1 X171.094 Y52.625 E1.31972
G1 X171.094 Y53.159 E0.01673
G1 X140.803 Y22.867 E1.34338
G1 X140.269 Y22.867 E0.01673
G1 X171.094 Y53.692 E1.36703
G1 X171.094 Y54.225 E0.01673
G1 X139.736 Y22.867 E1.39068
G1 X139.203 Y22.867 E0.01673
G1 X171.094 Y54.759 E1.41434
G1 X171.094 Y55.292 E0.01673
G1 X138.669 Y22.867 E1.43799
G1 X138.136 Y22.867 E0.01673
G1 X171.094 Y55.825 E1.46165
G1 X171.094 Y56.359 E0.01673
G1 X137.602 Y22.867 E1.48530
G1 X137.069 Y22.867 E0.01673
G1 X171.094 Y56.892 E1.50895
G1 X171.094 Y57.425 E0.01673
G1 X136.536 Y22.867 E1.53261
G1 X136.002 Y22.867 E0.01673
G1 X171.094 Y57.959 E1.55626
G1 X171.094 Y58.492 E0.01673
G1 X135.469 Y22.867 E1.57991
G1 X134.936 Y22.867 E0.01673
G1 X171.094 Y59.025 E1.60357
G1 X171.094 Y59.559 E0.01673
G1 X134.402 Y22.867 E1.62722
G1 X133.869 Y22.867 E0.01673
G1 X171.094 Y60.092 E1.65088
G1 X171.094 Y60.626 E0.01673
G1 X133.336 Y22.867 E1.67453
G1 X132.802 Y22.867 E0.01673
G1 X171.094 Y61.159 E1.69818
G1 X171.094 Y61.692 E0.01673
G1 X132.269 Y22.867 E1.72184
G1 X131.736 Y22.867 E0.01673
G1 X171.094 Y62.226 E1.74549
G1 X171.094 Y62.759 E0.01673
G1 X131.202 Y22.867 E1.76914
G1 X130.669 Y22.867 E0.01673
G1 X171.094 Y63.292 E1.79280
G1 X171.094 Y63.826 E0.01673
G1 X130.135 Y22.867 E1.81645
G1 X129.602 Y22.867 E0.01673
G1 X171.094 Y64.359 E1.84011
G1 X171.094 Y64.892 E0.01673
G1 X129.069 Y22.867 E1.86376
G1 X128.535 Y22.867 E0.01673
G1 X171.094 Y65.426 E1.88741
G1 X171.094 Y65.959 E0.01673
G1 X128.002 Y22.867 E1.91107
G1 X127.469 Y22.867 E0.01673
G1 X171.094 Y66.492 E1.93472
G1 X171.094 Y67.026 E0.01673
G1 X126.935 Y22.867 E1.95837
G1 X126.402 Y22.867 E0.01673
G1 X171.094 Y67.559 E1.98203
G1 X171.094 Y68.093 E0.01673
G1 X125.869 Y22.867 E2.00568
G1 X125.335 Y22.867 E0.01673
G1 X171.094 Y68.626 E2.02933
G1 X171.094 Y69.159 E0.01673
G1 X124.802 Y22.867 E2.05299
G1 X124.269 Y22.867 E0.01673
G1 X171.094 Y69.693 E2.07664
G1 X171.094 Y70.226 E0.01673
G1 X123.735 Y22.867 E2.10030
G1 X123.202 Y22.867 E0.01673
G1 X171.094 Y70.759 E2.12395
G1 X171.094 Y71.293 E0.01673
G1 X122.668 Y22.867 E2.14760
G1 X122.135 Y22.867 E0.01673
G1 X171.094 Y71.826 E2.17126
G1 X171.094 Y72.359 E0.01673
G1 X121.602 Y22.867 E2.19491
G1 X121.068 Y22.867 E0.01673
G1 X171.094 Y72.893 E2.21856
G1 X171.094 Y73.426 E0.01673
G1 X120.535 Y22.867 E2.24222
G1 X120.002 Y22.867 E0.01673
G1 X171.094 Y73.959 E2.26587
G1 X171.094 Y74.493 E0.01673
G1 X119.468 Y22.867 E2.28953
G1 X118.935 Y22.867 E0.01673
G1 X171.094 Y75.026 E2.31318
G1 X171.094 Y75.560 E0.01673
G1 X118.402 Y22.867 E2.33683
G1 X117.868 Y22.867 E0.01673
G1 X171.094 Y76.093 E2.36049
G1 X171.094 Y76.626 E0.01673
G1 X117.335 Y22.867 E2.38414
G1 X116.802 Y22.867 E0.01673
G1 X171.094 Y77.160 E2.40779
G1 X171.094 Y77.693 E0.01673
G1 X116.268 Y22.867 E2.43145
G1 X115.735 Y22.867 E0.01673
G1 X171.094 Y78.226 E2.45510
G1 X171.094 Y78.760 E0.01673
G1 X115.201 Y22.867 E2.47876
G1 X114.668 Y22.867 E0.01673
G1 X171.094 Y79.293 E2.50241
G1 X171.094 Y79.826 E0.01673
G1 X114.135 Y22.867 E2.52606
G1 X113.601 Y22.867 E0.01673
G1 X171.094 Y80.360 E2.54972
G1 X171.094 Y80.893 E0.01673
G1 X113.068 Y22.867 E2.57337
G1 X112.535 Y22.867 E0.01673
G1 X171.094 Y81.426 E2.59702
G1 X171.094 Y81.960 E0.01673
G1 X112.001 Y22.867 E2.62068
G1 X111.468 Y22.867 E0.01673
G1 X171.094 Y82.493 E2.64433
G1 X171.094 Y83.026 E0.01673
G1 X110.935 Y22.867 E2.66798
G1 X110.401 Y22.867 E0.01673
G1 X171.094 Y83.560 E2.69164
G1 X171.094 Y84.093 E0.01673
G1 X109.868 Y22.867 E2.71529
G1 X109.335 Y22.867 E0.01673
G1 X171.094 Y84.627 E2.73895
G1 X171.094 Y85.160 E0.01673
G1 X108.801 Y22.867 E2.76260
G1 X108.268 Y22.867 E0.01673
G1 X171.094 Y85.693 E2.78625
G1 X171.094 Y86.227 E0.01673
G1 X107.734 Y22.867 E2.80991
G1 X107.201 Y22.867 E0.01673
G1 X171.094 Y86.760 E2.83356
G1 X171.094 Y87.293 E0.01673
G1 X106.668 Y22.867 E2.85721
G1 X106.134 Y22.867 E0.01673
G1 X171.094 Y87.827 E2.88087
G1 X171.094 Y88.360 E0.01673
G1 X105.601 Y22.867 E2.90452
G1 X105.068 Y22.867 E0.01673
G1 X171.094 Y88.893 E2.92818
G1 X171.094 Y89.427 E0.01673
G1 X104.534 Y22.867 E2.95183
G1 X104.001 Y22.867 E0.01673
G1 X171.094 Y89.960 E2.97548
G1 X171.094 Y90.493 E0.01673
G1 X103.468 Y22.867 E2.99914
G1 X102.934 Y22.867 E0.01673
G1 X171.094 Y91.027 E3.02279
G1 X171.094 Y91.560 E0.01673
G1 X102.401 Y22.867 E3.04644
G1 X101.868 Y22.867 E0.01673
G1 X171.094 Y92.094 E3.07010
G1 X171.094 Y92.627 E0.01673
G1 X101.334 Y22.867 E3.09375
G1 X100.801 Y22.867 E0.01673
G1 X171.094 Y93.160 E3.11741
G1 X171.094 Y93.694 E0.01673
G1 X100.267 Y22.867 E3.14106
G1 X99.734 Y22.867 E0.01673
G1 X171.094 Y94.227 E3.16471
G1 X171.094 Y94.760 E0.01673
G1 X99.201 Y22.867 E3.18837
G1 X98.667 Y22.867 E0.01673
G1 X171.094 Y95.294 E3.21202
G1 X171.094 Y95.827 E0.01673
G1 X98.134 Y22.867 E3.23567
G1 X97.601 Y22.867 E0.01673
G1 X171.094 Y96.360 E3.25933
G1 X171.094 Y96.894 E0.01673
G1 X97.067 Y22.867 E3.28298
G1 X96.534 Y22.867 E0.01673
G1 X171.094 Y97.427 E3.30664
G1 X171.094 Y97.960 E0.01673
G1 X96.001 Y22.867 E3.33029
G1 X95.467 Y22.867 E0.01673
G1 X171.094 Y98.494 E3.35394
G1 X171.101 Y99.035 E0.01696
G1 X94.934 Y22.867 E3.37793
G1 X94.401 Y22.867 E0.01673
G1 X170.687 Y99.154 E3.38321
G1 X170.273 Y99.273 E0.01351
G1 X93.867 Y22.867 E3.38850
G1 X93.334 Y22.867 E0.01673
G1 X169.859 Y99.392 E3.39380
G1 X169.456 Y99.523 E0.01327
G1 X93.033 Y23.100 E3.38927
G1 X93.033 Y23.634 E0.01673
G1 X169.054 Y99.654 E3.37141
G1 X168.651 Y99.785 E0.01327
G1 X93.033 Y24.167 E3.35356
G1 X93.033 Y24.700 E0.01673
G1 X168.249 Y99.916 E3.33570
G1 X167.846 Y100.046 E0.01327
G1 X93.033 Y25.234 E3.31785
G1 X93.033 Y25.767 E0.01673
G1 X167.443 Y100.177 E3.30000
G1 X167.041 Y100.308 E0.01327
G1 X93.033 Y26.300 E3.28214
G1 X93.033 Y26.834 E0.01673
G1 X166.667 Y100.467 E3.26554
G1 X166.667 Y101.000 E0.01673
G1 X93.033 Y27.367 E3.26554
G1 X93.033 Y27.900 E0.01673
G1 X166.667 Y101.534 E3.26554
G1 X166.667 Y102.067 E0.01673
G1 X93.033 Y28.434 E3.26554
G1 X93.033 Y28.967 E0.01673
G1 X166.667 Y102.600 E3.26554
G1 X166.667 Y103.134 E0.01673
G1 X93.033 Y29.500 E3.26554
G1 X93.033 Y30.034 E0.01673
G1 X166.667 Y103.667 E3.26554
G1 X166.667 Y104.200 E0.01673
G1 X93.033 Y30.567 E3.26554
G1 X93.033 Y31.101 E0.01673
G1 X166.836 Y104.903 E3.27307
G1 E-4.55000 F3000.000
;WIPE_START
G1 F7200.000
G1 X163.527 Y101.594 E-1.85250
;WIPE_END
G1 E-0.09750 F3000.000
G1 X170.468 Y106.401 F9000.000
G1 E6.50000 F2400.000
G1 F1200.000
G1 X171.098 Y107.032 E0.02795
G1 X171.094 Y107.561 E0.01660
G1 X169.967 Y106.434 E0.04999
G1 X169.182 Y106.183 E0.02583
G1 X171.094 Y108.094 E0.08478
G1 X171.094 Y108.628 E0.01673
G1 X168.392 Y105.926 E0.11981
G1 X167.602 Y105.670 E0.02605
G1 X171.094 Y109.161 E0.15484
G1 X171.094 Y109.694 E0.01673
G1 X93.033 Y31.634 E3.46188
G1 X93.033 Y32.167 E0.01673
G1 X171.094 Y110.228 E3.46188
G1 X171.094 Y110.761 E0.01673
G1 X93.033 Y32.701 E3.46188
G1 X93.033 Y33.234 E0.01673
G1 X171.094 Y111.294 E3.46188
