; generated by PrusaSlicer 2.3.3+x64 on 2022-01-18 at 11:59:39 UTC

; 

; external perimeters extrusion width = 0.45mm
; perimeters extrusion width = 0.45mm
; infill extrusion width = 0.45mm
; solid infill extrusion width = 0.45mm
; top infill extrusion width = 0.40mm
; first layer extrusion width = 0.42mm

M201 X500 Y500 Z100 E5000 ; sets maximum accelerations, mm/sec^2
M203 X500 Y500 Z10 E60 ; sets maximum feedrates, mm/sec
M204 P500 R1000 T500 ; sets acceleration (P, T) and retract acceleration (R), mm/sec^2
M205 X8.00 Y8.00 Z0.40 E5.00 ; sets the jerk limits, mm/sec
M205 S0 T0 ; sets the minimum extruding and travel feed rate, mm/sec
M107
;TYPE:Custom
G90 ; use absolute coordinates
M83 ; extruder relative mode
M104 S210 ; set extruder temp
M140 S60 ; set bed temp
M190 S60 ; wait for bed temp
M109 S210 ; wait for extruder temp
G28 ; home all
G29 ; Bed-Level
G1 Z2 F240
G1 X2 Y10 F3000
G1 Z0.28 F240
G92 E0
G1 Y190 E15 F1500 ; intro line
G1 X2.3 F5000
G92 E0
G1 Y10 E15 F1200 ; intro line
G92 E0
G21 ; set units to millimeters
G90 ; use absolute coordinates
M83 ; use relative distances for extrusion
; Filament gcode
;LAYER_CHANGE
;Z:0.2
;HEIGHT:0.2
;BEFORE_LAYER_CHANGE
G92 E0
;0.2


G1 E-6.50000 F3000.000
G1 Z0.200 F9000.000
;AFTER_LAYER_CHANGE
;0.2
G1 X104.907 Y35.766
G1 E6.50000 F2400.000
;TYPE:Skirt
;WIDTH:0.42
G1 F1200.000
G1 X105.399 Y34.962 E0.02955
G1 X105.806 Y34.583 E0.01745
G1 X106.278 Y34.295 E0.01733
G1 X106.802 Y34.106 E0.01745
G1 X107.353 Y34.027 E0.01745
G1 X127.473 Y34.025 E0.63087
G1 X128.475 Y34.215 E0.03195
G1 X129.335 Y34.753 E0.03183
G1 X129.942 Y35.566 E0.03183
G1 X130.214 Y36.549 E0.03195
G1 X130.222 Y56.866 E0.63703
G1 X130.030 Y57.793 E0.02968
G1 X129.539 Y58.597 E0.02955
G1 X129.115 Y58.988 E0.01809
G1 X128.619 Y59.283 E0.01809
G1 X128.072 Y59.467 E0.01809
G1 X127.499 Y59.534 E0.01809
G1 X107.382 Y59.533 E0.63074
G1 X106.455 Y59.341 E0.02968
G1 X105.651 Y58.849 E0.02955
G1 X105.260 Y58.425 E0.01809
G1 X104.965 Y57.929 E0.01809
G1 X104.781 Y57.382 E0.01809
G1 X104.714 Y56.809 E0.01809
G1 X104.716 Y36.693 E0.63074
G1 X104.895 Y35.825 E0.02779
G1 E-4.55000 F3000.000
;WIPE_START
G1 F7200.000
G1 X105.399 Y34.962 E-0.39548
G1 X105.806 Y34.583 E-0.22034
G1 X106.278 Y34.295 E-0.21873
G1 X106.802 Y34.106 E-0.22034
G1 X107.353 Y34.027 E-0.22034
G1 X108.811 Y34.027 E-0.57727
;WIPE_END
G1 E-0.09750 F3000.000
G1 X106.460 Y34.626 F9000.000
G1 E6.50000 F2400.000
G1 F1200.000
G1 X107.383 Y34.403 E0.02977
G1 X127.473 Y34.402 E0.62990
G1 X128.340 Y34.567 E0.02767
G1 X129.090 Y35.039 E0.02778
G1 X129.612 Y35.750 E0.02767
G1 X129.840 Y36.603 E0.02767
G1 X129.846 Y56.845 E0.63467
G1 X129.678 Y57.657 E0.02602
G1 X129.242 Y58.363 E0.02602
G1 X128.876 Y58.696 E0.01550
G1 X128.450 Y58.945 E0.01550
G1 X127.981 Y59.101 E0.01550
G1 X127.489 Y59.157 E0.01550
G1 X107.400 Y59.156 E0.62990
G1 X106.591 Y58.989 E0.02590
G1 X105.885 Y58.553 E0.02602
G1 X105.552 Y58.187 E0.01550
G1 X105.303 Y57.760 E0.01550
G1 X105.147 Y57.291 E0.01550
G1 X105.091 Y56.800 E0.01550
G1 X105.092 Y36.710 E0.62990
G1 X105.259 Y35.901 E0.02590
G1 X105.696 Y35.195 E0.02602
G1 X106.412 Y34.662 E0.02801
G1 E-4.55000 F3000.000
;WIPE_START
G1 F7200.000
G1 X107.383 Y34.403 E-0.39785
G1 X111.058 Y34.403 E-1.45465
;WIPE_END
G1 E-0.09750 F3000.000
G1 X108.155 Y37.466 F9000.000
G1 E6.50000 F2400.000
;TYPE:Perimeter
G1 F1200.000
G1 X126.782 Y37.466 E0.58403
G1 X126.782 Y56.093 E0.58403
G1 X108.155 Y56.093 E0.58403
G1 X108.155 Y37.526 E0.58215
G1 X107.778 Y37.089 F9000.000
;TYPE:External perimeter
G1 F1200.000
G1 X127.159 Y37.089 E0.60768
G1 X127.159 Y56.470 E0.60768
G1 X107.778 Y56.470 E0.60768
G1 X107.778 Y37.149 E0.60580
G1 X108.165 Y37.192 F9000.000
G1 E-4.55000 F3000.000
;WIPE_START
G1 F7200.000
G1 X112.458 Y37.134 E-1.85250
;WIPE_END
G1 E-0.09750 F3000.000
G1 X125.905 Y37.579 F9000.000
G1 E6.50000 F2400.000
;TYPE:Solid infill
;WIDTH:0.420829
G1 F1200.000
G1 X126.499 Y38.173 E0.02641
G1 X126.499 Y38.708 E0.01679
G1 X125.540 Y37.749 E0.04262
G1 X125.006 Y37.749 E0.01679
G1 X126.499 Y39.242 E0.06637
G1 X126.499 Y39.777 E0.01679
G1 X124.471 Y37.749 E0.09012
G1 X123.937 Y37.749 E0.01679
G1 X126.499 Y40.311 E0.11387
G1 X126.499 Y40.846 E0.01679
G1 X123.403 Y37.749 E0.13762
G1 X122.868 Y37.749 E0.01679
G1 X126.499 Y41.380 E0.16137
G1 X126.499 Y41.914 E0.01679
G1 X122.334 Y37.749 E0.18512
G1 X121.799 Y37.749 E0.01679
G1 X126.499 Y42.449 E0.20887
G1 X126.499 Y42.983 E0.01679
G1 X121.265 Y37.749 E0.23262
G1 X120.730 Y37.749 E0.01679
G1 X126.499 Y43.518 E0.25637
G1 X126.499 Y44.052 E0.01679
G1 X120.196 Y37.749 E0.28012
G1 X119.661 Y37.749 E0.01679
G1 X126.499 Y44.587 E0.30387
G1 X126.499 Y45.121 E0.01679
G1 X119.127 Y37.749 E0.32762
G1 X118.593 Y37.749 E0.01679
G1 X126.499 Y45.656 E0.35138
G1 X126.499 Y46.190 E0.01679
G1 X118.058 Y37.749 E0.37513
G1 X117.524 Y37.749 E0.01679
G1 X126.499 Y46.724 E0.39888
G1 X126.499 Y47.259 E0.01679
G1 X116.989 Y37.749 E0.42263
G1 X116.455 Y37.749 E0.01679
G1 X126.499 Y47.793 E0.44638
G1 X126.499 Y48.328 E0.01679
G1 X115.920 Y37.749 E0.47013
G1 X115.386 Y37.749 E0.01679
G1 X126.499 Y48.862 E0.49388
G1 X126.499 Y49.397 E0.01679
G1 X114.851 Y37.749 E0.51763
G1 X114.317 Y37.749 E0.01679
G1 X126.499 Y49.931 E0.54138
G1 X126.499 Y50.466 E0.01679
G1 X113.783 Y37.749 E0.56513
G1 X113.248 Y37.749 E0.01679
G1 X126.499 Y51.000 E0.58888
G1 X126.499 Y51.534 E0.01679
G1 X112.714 Y37.749 E0.61263
G1 X112.179 Y37.749 E0.01679
G1 X126.499 Y52.069 E0.63638
G1 X126.499 Y52.603 E0.01679
G1 X111.645 Y37.749 E0.66013
G1 X111.110 Y37.749 E0.01679
G1 X126.499 Y53.138 E0.68388
G1 X126.499 Y53.672 E0.01679
G1 X110.576 Y37.749 E0.70763
G1 X110.042 Y37.749 E0.01679
G1 X126.499 Y54.207 E0.73138
G1 X126.499 Y54.741 E0.01679
G1 X109.507 Y37.749 E0.75513
G1 X108.973 Y37.749 E0.01679
G1 X126.499 Y55.276 E0.77888
G1 X126.499 Y55.810 E0.01679
G1 X108.438 Y37.749 E0.80263
G1 X108.438 Y38.283 E0.01679
G1 X125.965 Y55.810 E0.77887
G1 X125.431 Y55.810 E0.01679
G1 X108.438 Y38.818 E0.75512
G1 X108.438 Y39.352 E0.01679
G1 X124.896 Y55.810 E0.73137
G1 X124.362 Y55.810 E0.01679
G1 X108.438 Y39.886 E0.70762
G1 X108.438 Y40.421 E0.01679
G1 X123.827 Y55.810 E0.68387
G1 X123.293 Y55.810 E0.01679
G1 X108.438 Y40.955 E0.66012
G1 X108.438 Y41.490 E0.01679
G1 X122.758 Y55.810 E0.63637
G1 X122.224 Y55.810 E0.01679
G1 X108.438 Y42.024 E0.61262
G1 X108.438 Y42.559 E0.01679
G1 X121.689 Y55.810 E0.58887
G1 X121.155 Y55.810 E0.01679
G1 X108.438 Y43.093 E0.56512
G1 X108.438 Y43.628 E0.01679
G1 X120.621 Y55.810 E0.54137
G1 X120.086 Y55.810 E0.01679
G1 X108.438 Y44.162 E0.51762
G1 X108.438 Y44.696 E0.01679
G1 X119.552 Y55.810 E0.49387
G1 X119.017 Y55.810 E0.01679
G1 X108.438 Y45.231 E0.47012
G1 X108.438 Y45.765 E0.01679
G1 X118.483 Y55.810 E0.44637
G1 X117.948 Y55.810 E0.01679
G1 X108.438 Y46.300 E0.42262
G1 X108.438 Y46.834 E0.01679
G1 X117.414 Y55.810 E0.39887
G1 X116.879 Y55.810 E0.01679
G1 X108.438 Y47.369 E0.37512
G1 X108.438 Y47.903 E0.01679
G1 X116.345 Y55.810 E0.35137
G1 X115.811 Y55.810 E0.01679
G1 X108.438 Y48.438 E0.32762
G1 X108.438 Y48.972 E0.01679
G1 X115.276 Y55.810 E0.30387
G1 X114.742 Y55.810 E0.01679
G1 X108.438 Y49.506 E0.28012
G1 X108.438 Y50.041 E0.01679
G1 X114.207 Y55.810 E0.25637
G1 X113.673 Y55.810 E0.01679
G1 X108.438 Y50.575 E0.23262
G1 X108.438 Y51.110 E0.01679
G1 X113.138 Y55.810 E0.20887
G1 X112.604 Y55.810 E0.01679
G1 X108.438 Y51.644 E0.18512
G1 X108.438 Y52.179 E0.01679
G1 X112.069 Y55.810 E0.16137
G1 X111.535 Y55.810 E0.01679
G1 X108.438 Y52.713 E0.13762
G1 X108.438 Y53.248 E0.01679
G1 X111.001 Y55.810 E0.11387
G1 X110.466 Y55.810 E0.01679
G1 X108.438 Y53.782 E0.09012
G1 X108.438 Y54.316 E0.01679
G1 X109.932 Y55.810 E0.06637
G1 X109.397 Y55.810 E0.01679
G1 X108.438 Y54.851 E0.04262
G1 X108.438 Y55.385 E0.01679
G1 X109.032 Y55.980 E0.02641
M106 S255
;LAYER_CHANGE
;Z:0.4
;HEIGHT:0.2
;BEFORE_LAYER_CHANGE
G92 E0
;0.4


G1 E-4.55000 F3000.000
;WIPE_START
G1 F7200.000
G1 X108.438 Y55.385 E-0.33264
G1 X108.438 Y54.851 E-0.21155
G1 X109.397 Y55.810 E-0.53682
G1 X109.932 Y55.810 E-0.21155
G1 X108.931 Y54.810 E-0.55994
;WIPE_END
G1 E-0.09750 F3000.000
G1 Z0.400 F9000.000
;AFTER_LAYER_CHANGE
;0.4
M104 S205 ; set temperature
G1 X106.455 Y59.341
G1 E6.50000 F2400.000
;TYPE:Skirt
;WIDTH:0.42
G1 X105.651 Y58.849 E0.02955
G1 X105.260 Y58.425 E0.01809
G1 X104.965 Y57.929 E0.01809
G1 X104.781 Y57.382 E0.01809
G1 X104.714 Y56.809 E0.01809
G1 X104.716 Y36.693 E0.63074
G1 X104.907 Y35.766 E0.02968
G1 X105.399 Y34.962 E0.02955
G1 X105.806 Y34.583 E0.01745
G1 X106.278 Y34.295 E0.01733
G1 X106.802 Y34.106 E0.01745
G1 X107.353 Y34.027 E0.01745
G1 X127.473 Y34.025 E0.63087
G1 X128.475 Y34.215 E0.03195
G1 X129.335 Y34.753 E0.03183
G1 X129.942 Y35.566 E0.03183
G1 X130.214 Y36.549 E0.03195
G1 X130.222 Y56.866 E0.63703
G1 X130.030 Y57.793 E0.02968
G1 X129.539 Y58.597 E0.02955
G1 X129.115 Y58.988 E0.01809
G1 X128.619 Y59.283 E0.01809
G1 X128.072 Y59.467 E0.01809
G1 X127.499 Y59.534 E0.01809
G1 X107.382 Y59.533 E0.63074
G1 X106.514 Y59.353 E0.02780
G1 X106.591 Y58.989 F9000.000
G1 F2400.000
G1 X105.885 Y58.553 E0.02602
G1 X105.552 Y58.187 E0.01550
G1 X105.303 Y57.760 E0.01550
G1 X105.147 Y57.291 E0.01550
G1 X105.091 Y56.800 E0.01550
G1 X105.092 Y36.710 E0.62990
G1 X105.259 Y35.901 E0.02590
G1 X105.696 Y35.195 E0.02602
G1 X106.460 Y34.626 E0.02989
G1 X107.383 Y34.403 E0.02977
G1 X127.473 Y34.402 E0.62990
G1 X128.340 Y34.567 E0.02767
G1 X129.090 Y35.039 E0.02778
G1 X129.612 Y35.750 E0.02767
G1 X129.840 Y36.603 E0.02767
G1 X129.846 Y56.845 E0.63467
G1 X129.678 Y57.657 E0.02602
G1 X129.242 Y58.363 E0.02602
G1 X128.876 Y58.696 E0.01550
G1 X128.450 Y58.945 E0.01550
G1 X127.981 Y59.101 E0.01550
G1 X127.489 Y59.157 E0.01550
G1 X107.400 Y59.156 E0.62990
G1 X106.649 Y59.001 E0.02402
G1 E-4.55000 F3000.000
;WIPE_START
G1 F7200.000
G1 X105.885 Y58.553 E-0.35091
G1 X105.552 Y58.187 E-0.19565
G1 X105.303 Y57.760 E-0.19565
G1 X105.147 Y57.291 E-0.19565
G1 X105.091 Y56.800 E-0.19565
G1 X105.091 Y54.983 E-0.71899
;WIPE_END
G1 E-0.09750 F3000.000
G1 X108.100 Y56.148 F9000.000
G1 E6.50000 F2400.000
;TYPE:Perimeter
;WIDTH:0.45
G1 X108.100 Y37.411 E0.63422
G1 X126.837 Y37.411 E0.63422
G1 X126.837 Y56.148 E0.63422
G1 X108.160 Y56.148 E0.63219
G1 X107.693 Y56.555 F9000.000
;TYPE:External perimeter
G1 F1500.000
G1 X107.693 Y37.004 E0.66178
G1 X127.244 Y37.004 E0.66178
G1 X127.244 Y56.555 E0.66178
G1 X107.753 Y56.555 E0.65975
G1 X107.797 Y56.168 F9000.000
G1 E-4.55000 F3000.000
;WIPE_START
G1 F7200.000
G1 X107.739 Y51.875 E-1.85250
;WIPE_END
G1 E-0.09750 F3000.000
G1 X126.715 Y55.197 F9000.000
G1 E6.50000 F2400.000
;TYPE:Solid infill
;WIDTH:0.452451
G1 X126.070 Y55.842 E0.03106
G1 X125.491 Y55.842 E0.01972
G1 X126.532 Y54.801 E0.05013
G1 X126.532 Y54.222 E0.01972
G1 X124.912 Y55.842 E0.07802
G1 X124.333 Y55.842 E0.01972
G1 X126.532 Y53.643 E0.10591
G1 X126.532 Y53.064 E0.01972
G1 X123.754 Y55.842 E0.13380
G1 X123.174 Y55.842 E0.01972
G1 X126.532 Y52.485 E0.16169
G1 X126.532 Y51.906 E0.01972
G1 X122.595 Y55.842 E0.18958
G1 X122.016 Y55.842 E0.01972
G1 X126.532 Y51.326 E0.21747
G1 X126.532 Y50.747 E0.01972
G1 X121.437 Y55.842 E0.24537
G1 X120.858 Y55.842 E0.01972
G1 X126.532 Y50.168 E0.27326
G1 X126.532 Y49.589 E0.01972
G1 X120.279 Y55.842 E0.30115
G1 X119.699 Y55.842 E0.01972
G1 X126.532 Y49.010 E0.32904
G1 X126.532 Y48.431 E0.01972
G1 X119.120 Y55.842 E0.35693
G1 X118.541 Y55.842 E0.01972
G1 X126.532 Y47.851 E0.38482
G1 X126.532 Y47.272 E0.01972
G1 X117.962 Y55.842 E0.41271
G1 X117.383 Y55.842 E0.01972
G1 X126.532 Y46.693 E0.44060
G1 X126.532 Y46.114 E0.01972
G1 X116.804 Y55.842 E0.46850
G1 X116.224 Y55.842 E0.01972
G1 X126.532 Y45.535 E0.49639
G1 X126.532 Y44.956 E0.01972
G1 X115.645 Y55.842 E0.52428
G1 X115.066 Y55.842 E0.01972
G1 X126.532 Y44.377 E0.55217
G1 X126.532 Y43.797 E0.01972
G1 X114.487 Y55.842 E0.58006
G1 X113.908 Y55.842 E0.01972
G1 X126.532 Y43.218 E0.60795
G1 X126.532 Y42.639 E0.01972
G1 X113.329 Y55.842 E0.63584
G1 X112.749 Y55.842 E0.01972
G1 X126.532 Y42.060 E0.66373
G1 X126.532 Y41.481 E0.01972
G1 X112.170 Y55.842 E0.69163
G1 X111.591 Y55.842 E0.01972
G1 X126.532 Y40.902 E0.71952
G1 X126.532 Y40.322 E0.01972
G1 X111.012 Y55.842 E0.74741
G1 X110.433 Y55.842 E0.01972
G1 X126.532 Y39.743 E0.77530
G1 X126.532 Y39.164 E0.01972
G1 X109.854 Y55.842 E0.80319
G1 X109.274 Y55.842 E0.01972
G1 X126.532 Y38.585 E0.83108
G1 X126.532 Y38.006 E0.01972
G1 X108.695 Y55.842 E0.85897
G1 X108.406 Y55.842 E0.00986
G1 X108.406 Y55.553 E0.00986
G1 X126.242 Y37.716 E0.85897
G1 X125.663 Y37.716 E0.01972
G1 X108.406 Y54.974 E0.83108
G1 X108.406 Y54.394 E0.01972
G1 X125.084 Y37.716 E0.80319
G1 X124.505 Y37.716 E0.01972
G1 X108.406 Y53.815 E0.77530
G1 X108.406 Y53.236 E0.01972
G1 X123.926 Y37.716 E0.74741
G1 X123.347 Y37.716 E0.01972
G1 X108.406 Y52.657 E0.71951
G1 X108.406 Y52.078 E0.01972
G1 X122.767 Y37.716 E0.69162
G1 X122.188 Y37.716 E0.01972
G1 X108.406 Y51.499 E0.66373
G1 X108.406 Y50.919 E0.01972
G1 X121.609 Y37.716 E0.63584
G1 X121.030 Y37.716 E0.01972
G1 X108.406 Y50.340 E0.60795
G1 X108.406 Y49.761 E0.01972
G1 X120.451 Y37.716 E0.58006
G1 X119.872 Y37.716 E0.01972
G1 X108.406 Y49.182 E0.55217
G1 X108.406 Y48.603 E0.01972
G1 X119.292 Y37.716 E0.52428
G1 X118.713 Y37.716 E0.01972
G1 X108.406 Y48.024 E0.49638
G1 X108.406 Y47.444 E0.01972
G1 X118.134 Y37.716 E0.46849
G1 X117.555 Y37.716 E0.01972
G1 X108.406 Y46.865 E0.44060
G1 X108.406 Y46.286 E0.01972
G1 X116.976 Y37.716 E0.41271
G1 X116.397 Y37.716 E0.01972
G1 X108.406 Y45.707 E0.38482
G1 X108.406 Y45.128 E0.01972
G1 X115.817 Y37.716 E0.35693
G1 X115.238 Y37.716 E0.01972
G1 X108.406 Y44.549 E0.32904
G1 X108.406 Y43.969 E0.01972
G1 X114.659 Y37.716 E0.30115
G1 X114.080 Y37.716 E0.01972
G1 X108.406 Y43.390 E0.27325
G1 X108.406 Y42.811 E0.01972
G1 X113.501 Y37.716 E0.24536
G1 X112.922 Y37.716 E0.01972
G1 X108.406 Y42.232 E0.21747
G1 X108.406 Y41.653 E0.01972
G1 X112.342 Y37.716 E0.18958
G1 X111.763 Y37.716 E0.01972
G1 X108.406 Y41.074 E0.16169
G1 X108.406 Y40.494 E0.01972
G1 X111.184 Y37.716 E0.13380
G1 X110.605 Y37.716 E0.01972
G1 X108.406 Y39.915 E0.10591
G1 X108.406 Y39.336 E0.01972
G1 X110.026 Y37.716 E0.07802
G1 X109.447 Y37.716 E0.01972
G1 X108.406 Y38.757 E0.05013
G1 X108.406 Y38.178 E0.01972
G1 X109.051 Y37.533 E0.03106
;LAYER_CHANGE
;Z:0.6
;HEIGHT:0.2
;BEFORE_LAYER_CHANGE
G92 E0
;0.6


G1 E-4.55000 F3000.000
;WIPE_START
G1 F7200.000
G1 X108.406 Y38.178 E-0.36100
G1 X108.406 Y38.757 E-0.22925
G1 X109.447 Y37.716 E-0.58266
G1 X110.026 Y37.716 E-0.22925
G1 X109.221 Y38.521 E-0.45034
;WIPE_END
G1 E-0.09750 F3000.000
G1 Z0.600 F9000.000
;AFTER_LAYER_CHANGE
;0.6
G1 X108.100 Y37.411
G1 E6.50000 F2400.000
;TYPE:Perimeter
;WIDTH:0.45
G1 X126.837 Y37.411 E0.63422
G1 X126.837 Y56.148 E0.63422
G1 X108.100 Y56.148 E0.63422
G1 X108.100 Y37.471 E0.63219
G1 X107.693 Y37.004 F9000.000
;TYPE:External perimeter
G1 F1500.000
G1 X127.244 Y37.004 E0.66178
G1 X127.244 Y56.555 E0.66178
G1 X107.693 Y56.555 E0.66178
G1 X107.693 Y37.064 E0.65975
G1 X108.080 Y37.107 F9000.000
G1 E-4.55000 F3000.000
;WIPE_START
G1 F7200.000
G1 X112.373 Y37.049 E-1.85250
;WIPE_END
G1 E-0.09750 F3000.000
G1 X125.887 Y37.533 F9000.000
G1 E6.50000 F2400.000
;TYPE:Solid infill
;WIDTH:0.452451
G1 X126.532 Y38.178 E0.03106
G1 X126.532 Y38.757 E0.01972
G1 X125.491 Y37.716 E0.05013
G1 X124.912 Y37.716 E0.01972
G1 X126.532 Y39.336 E0.07802
G1 X126.532 Y39.915 E0.01972
G1 X124.333 Y37.716 E0.10591
G1 X123.754 Y37.716 E0.01972
G1 X126.532 Y40.495 E0.13380
G1 X126.532 Y41.074 E0.01972
G1 X123.174 Y37.716 E0.16169
G1 X122.595 Y37.716 E0.01972
G1 X126.532 Y41.653 E0.18958
G1 X126.532 Y42.232 E0.01972
G1 X122.016 Y37.716 E0.21747
G1 X121.437 Y37.716 E0.01972
G1 X126.532 Y42.811 E0.24537
G1 X126.532 Y43.390 E0.01972
G1 X120.858 Y37.716 E0.27326
G1 X120.279 Y37.716 E0.01972
G1 X126.532 Y43.970 E0.30115
G1 X126.532 Y44.549 E0.01972
G1 X119.699 Y37.716 E0.32904
G1 X119.120 Y37.716 E0.01972
G1 X126.532 Y45.128 E0.35693
G1 X126.532 Y45.707 E0.01972
G1 X118.541 Y37.716 E0.38482
G1 X117.962 Y37.716 E0.01972
G1 X126.532 Y46.286 E0.41271
G1 X126.532 Y46.865 E0.01972
G1 X117.383 Y37.716 E0.44060
