; generated by PrusaSlicer 2.3.3+x64 on 2021-08-02 at 10:28:31 UTC

; 

; external perimeters extrusion width = 0.45mm
; perimeters extrusion width = 0.45mm
; infill extrusion width = 0.45mm
; solid infill extrusion width = 0.45mm
; top infill extrusion width = 0.40mm
; first layer extrusion width = 0.42mm

M201 X500 Y500 Z100 E5000 ; sets maximum accelerations, mm/sec^2
M203 X500 Y500 Z10 E60 ; sets maximum feedrates, mm/sec
M204 P500 R1000 T500 ; sets acceleration (P, T) and retract acceleration (R), mm/sec^2
M205 X8.00 Y8.00 Z0.40 E5.00 ; sets the jerk limits, mm/sec
M205 S0 T0 ; sets the minimum extruding and travel feed rate, mm/sec
M107
;TYPE:Custom
G90 ; use absolute coordinates
M83 ; extruder relative mode
M104 S200 ; set extruder temp
M140 S60 ; set bed temp
M190 S60 ; wait for bed temp
M109 S200 ; wait for extruder temp
G28 ; home all
G1 Z2 F240
G1 X2 Y10 F3000
G1 Z0.28 F240
G92 E0
G1 Y190 E15 F1500 ; intro line
G1 X2.3 F5000
G92 E0
G1 Y10 E15 F1200 ; intro line
G92 E0
G21 ; set units to millimeters
G90 ; use absolute coordinates
M83 ; use relative distances for extrusion
; Filament gcode
;LAYER_CHANGE
;Z:0.2
;HEIGHT:0.2
;BEFORE_LAYER_CHANGE
G92 E0
;0.2


G1 E-5.00000 F3000.000
G1 Z0.200 F9000.000
;AFTER_LAYER_CHANGE
;0.2
G1 X104.199 Y57.689
G1 E5.00000 F2400.000
;TYPE:Skirt
;WIDTH:0.42
G1 F1200.000
G1 X104.465 Y56.975 E0.02390
G1 X104.943 Y56.381 E0.02390
G1 X105.588 Y55.968 E0.02402
G1 X106.327 Y55.782 E0.02390
G1 X126.535 Y55.773 E0.63360
G1 X127.437 Y55.952 E0.02884
G1 X128.206 Y56.463 E0.02896
G1 X128.721 Y57.226 E0.02884
G1 X128.908 Y58.126 E0.02884
G1 X128.828 Y104.116 E1.44198
G1 X127.572 Y164.545 E1.89512
G1 X127.303 Y165.266 E0.02414
G1 X126.814 Y165.866 E0.02426
G1 X126.163 Y166.276 E0.02414
G1 X125.414 Y166.455 E0.02414
G1 X104.778 Y166.228 E0.64707
G1 X104.024 Y165.939 E0.02532
G1 X103.408 Y165.411 E0.02543
G1 X103.005 Y164.707 E0.02543
G1 X102.862 Y163.909 E0.02543
G1 X104.198 Y57.749 E3.32881
G1 E-3.50000 F3000.000
;WIPE_START
G1 F7200.000
G1 X104.465 Y56.975 E-0.32421
G1 X104.943 Y56.381 E-0.30175
G1 X105.588 Y55.968 E-0.30323
G1 X106.327 Y55.782 E-0.30175
G1 X106.817 Y55.781 E-0.19407
;WIPE_END
G1 E-0.07500 F3000.000
G1 X107.218 Y58.837 F9000.000
G1 E5.00000 F2400.000
;TYPE:Perimeter
G1 F1200.000
G1 X125.844 Y58.837 E0.58400
G1 X125.844 Y62.463 E0.11369
G1 X107.218 Y62.463 E0.58400
G1 X107.218 Y58.897 E0.11180
G1 X106.841 Y58.460 F9000.000
;TYPE:External perimeter
G1 F1200.000
G1 X126.221 Y58.460 E0.60765
G1 X126.221 Y62.840 E0.13733
G1 X106.841 Y62.840 E0.60765
G1 X106.841 Y58.520 E0.13545
G1 X107.240 Y58.490 F9000.000
G1 E-3.50000 F3000.000
;WIPE_START
G1 F7200.000
G1 X110.441 Y58.509 E-1.42500
;WIPE_END
G1 E-0.07500 F3000.000
G1 X124.968 Y58.950 F9000.000
G1 E5.00000 F2400.000
;TYPE:Solid infill
;WIDTH:0.420181
G1 F1200.000
G1 X125.561 Y59.543 E0.02631
G1 X125.561 Y60.077 E0.01674
G1 X124.604 Y59.120 E0.04245
G1 X124.071 Y59.120 E0.01674
G1 X125.561 Y60.610 E0.06612
G1 X125.561 Y61.144 E0.01674
G1 X123.537 Y59.120 E0.08978
G1 X123.004 Y59.120 E0.01674
G1 X125.561 Y61.677 E0.11345
G1 X125.561 Y62.180 E0.01577
G1 X125.531 Y62.180 E0.00096
G1 X122.470 Y59.120 E0.13576
G1 X121.937 Y59.120 E0.01674
G1 X124.997 Y62.180 E0.13576
G1 X124.463 Y62.180 E0.01674
G1 X121.403 Y59.120 E0.13576
G1 X120.870 Y59.120 E0.01674
G1 X123.930 Y62.180 E0.13576
G1 X123.396 Y62.180 E0.01674
G1 X120.336 Y59.120 E0.13576
G1 X119.803 Y59.120 E0.01674
G1 X122.863 Y62.180 E0.13576
G1 X122.329 Y62.180 E0.01674
G1 X119.269 Y59.120 E0.13576
G1 X118.736 Y59.120 E0.01674
G1 X121.796 Y62.180 E0.13576
G1 X121.262 Y62.180 E0.01674
G1 X118.202 Y59.120 E0.13576
G1 X117.669 Y59.120 E0.01674
G1 X120.729 Y62.180 E0.13576
G1 X120.195 Y62.180 E0.01674
G1 X117.135 Y59.120 E0.13576
G1 X116.601 Y59.120 E0.01674
G1 X119.662 Y62.180 E0.13576
G1 X119.128 Y62.180 E0.01674
G1 X116.068 Y59.120 E0.13576
G1 X115.534 Y59.120 E0.01674
G1 X118.595 Y62.180 E0.13576
G1 X118.061 Y62.180 E0.01674
G1 X115.001 Y59.120 E0.13576
G1 X114.467 Y59.120 E0.01674
G1 X117.528 Y62.180 E0.13576
G1 X116.994 Y62.180 E0.01674
G1 X113.934 Y59.120 E0.13576
G1 X113.400 Y59.120 E0.01674
G1 X116.461 Y62.180 E0.13576
G1 X115.927 Y62.180 E0.01674
G1 X112.867 Y59.120 E0.13576
G1 X112.333 Y59.120 E0.01674
G1 X115.394 Y62.180 E0.13576
G1 X114.860 Y62.180 E0.01674
G1 X111.800 Y59.120 E0.13576
G1 X111.266 Y59.120 E0.01674
G1 X114.326 Y62.180 E0.13576
G1 X113.793 Y62.180 E0.01674
G1 X110.733 Y59.120 E0.13576
G1 X110.199 Y59.120 E0.01674
G1 X113.259 Y62.180 E0.13576
G1 X112.726 Y62.180 E0.01674
G1 X109.666 Y59.120 E0.13576
G1 X109.132 Y59.120 E0.01674
G1 X112.192 Y62.180 E0.13576
G1 X111.659 Y62.180 E0.01674
G1 X108.599 Y59.120 E0.13576
G1 X108.065 Y59.120 E0.01674
G1 X111.125 Y62.180 E0.13576
G1 X110.592 Y62.180 E0.01674
G1 X107.532 Y59.120 E0.13576
G1 X107.501 Y59.120 E0.00096
G1 X107.501 Y59.623 E0.01578
G1 X110.058 Y62.180 E0.11345
G1 X109.525 Y62.180 E0.01674
G1 X107.501 Y60.156 E0.08978
G1 X107.501 Y60.690 E0.01674
G1 X108.991 Y62.180 E0.06611
G1 X108.458 Y62.180 E0.01674
G1 X107.501 Y61.223 E0.04244
G1 X107.501 Y61.757 E0.01674
G1 X108.094 Y62.350 E0.02630
G1 E-3.50000 F3000.000
;WIPE_START
G1 F7200.000
G1 X107.501 Y61.757 E-0.33187
G1 X107.501 Y61.223 E-0.21119
G1 X108.458 Y62.180 E-0.53554
G1 X108.991 Y62.180 E-0.21119
G1 X108.750 Y61.939 E-0.13521
;WIPE_END
G1 E-0.07500 F3000.000
G1 X116.161 Y83.242 F9000.000
G1 E5.00000 F2400.000
;TYPE:External perimeter
;WIDTH:0.42
G1 F1200.000
G1 X116.364 Y83.214 E0.00644
G1 X126.140 Y83.211 E0.30652
G1 X126.140 Y83.595 E0.01203
G1 X116.364 Y83.591 E0.30652
G1 X116.161 Y83.564 E0.00644
G1 X116.164 Y83.302 E0.00820
G1 X116.359 Y83.294 F9000.000
G1 E-3.50000 F3000.000
;WIPE_START
G1 F7200.000
G1 X116.364 Y83.214 E-0.08657
G1 X119.745 Y83.213 E-1.33842
;WIPE_END
G1 E-0.07500 F3000.000
G1 X116.161 Y103.242 F9000.000
G1 E5.00000 F2400.000
G1 F1200.000
G1 X116.364 Y103.214 E0.00644
G1 X126.140 Y103.211 E0.30652
G1 X126.140 Y103.595 E0.01203
G1 X116.364 Y103.591 E0.30652
G1 X116.161 Y103.564 E0.00644
G1 X116.164 Y103.302 E0.00820
G1 X116.359 Y103.294 F9000.000
G1 E-3.50000 F3000.000
;WIPE_START
G1 F7200.000
G1 X116.364 Y103.214 E-0.08657
G1 X119.745 Y103.213 E-1.33842
;WIPE_END
G1 E-0.07500 F3000.000
G1 X115.651 Y123.242 F9000.000
G1 E5.00000 F2400.000
G1 F1200.000
G1 X115.854 Y123.214 E0.00644
G1 X125.630 Y123.211 E0.30652
G1 X125.630 Y123.595 E0.01203
G1 X115.854 Y123.591 E0.30652
G1 X115.651 Y123.564 E0.00644
G1 X115.654 Y123.302 E0.00820
G1 X115.849 Y123.294 F9000.000
G1 E-3.50000 F3000.000
;WIPE_START
G1 F7200.000
G1 X115.854 Y123.214 E-0.08657
G1 X119.235 Y123.213 E-1.33842
;WIPE_END
G1 E-0.07500 F3000.000
G1 X115.275 Y143.242 F9000.000
G1 E5.00000 F2400.000
G1 F1200.000
G1 X115.478 Y143.214 E0.00644
G1 X125.254 Y143.211 E0.30652
G1 X125.254 Y143.595 E0.01203
G1 X115.478 Y143.591 E0.30652
G1 X115.275 Y143.564 E0.00644
G1 X115.278 Y143.302 E0.00820
G1 X115.473 Y143.294 F9000.000
G1 E-3.50000 F3000.000
;WIPE_START
G1 F7200.000
G1 X115.478 Y143.214 E-0.08657
G1 X118.860 Y143.213 E-1.33842
;WIPE_END
G1 E-0.07500 F3000.000
G1 X114.949 Y163.242 F9000.000
G1 E5.00000 F2400.000
G1 F1200.000
G1 X115.153 Y163.214 E0.00644
G1 X124.929 Y163.211 E0.30652
G1 X124.929 Y163.595 E0.01203
G1 X115.153 Y163.591 E0.30652
G1 X114.949 Y163.564 E0.00644
G1 X114.952 Y163.302 E0.00820
G1 X115.148 Y163.294 F9000.000
M106 S255
;LAYER_CHANGE
;Z:0.36
;HEIGHT:0.16
;BEFORE_LAYER_CHANGE
G92 E0
;0.36


G1 E-3.50000 F3000.000
;WIPE_START
G1 F7200.000
G1 X115.153 Y163.214 E-0.08657
G1 X118.534 Y163.213 E-1.33842
;WIPE_END
G1 E-0.07500 F3000.000
G1 Z0.360 F9000.000
;AFTER_LAYER_CHANGE
;0.36
M104 S190 ; set temperature
G1 X104.778 Y166.228
G1 E5.00000 F2400.000
;TYPE:Skirt
G1 X104.024 Y165.939 E0.02071
G1 X103.408 Y165.411 E0.02081
G1 X103.005 Y164.707 E0.02081
G1 X102.862 Y163.909 E0.02081
G1 X104.199 Y57.689 E2.72521
G1 X104.465 Y56.975 E0.01956
G1 X104.943 Y56.381 E0.01956
G1 X105.588 Y55.968 E0.01965
G1 X106.327 Y55.782 E0.01956
G1 X126.535 Y55.773 E0.51842
G1 X127.437 Y55.952 E0.02360
G1 X128.206 Y56.463 E0.02369
G1 X128.721 Y57.226 E0.02360
G1 X128.908 Y58.126 E0.02360
G1 X128.828 Y104.116 E1.17985
G1 X127.572 Y164.545 E1.55061
G1 X127.303 Y165.266 E0.01975
G1 X126.814 Y165.866 E0.01985
G1 X126.163 Y166.276 E0.01975
G1 X125.414 Y166.455 E0.01975
G1 X104.838 Y166.228 E0.52790
G1 E-3.50000 F3000.000
;WIPE_START
G1 F7200.000
G1 X104.024 Y165.939 E-0.34196
G1 X103.408 Y165.411 E-0.32108
G1 X103.005 Y164.707 E-0.32108
G1 X102.862 Y163.909 E-0.32108
G1 X102.866 Y163.606 E-0.11981
;WIPE_END
G1 E-0.07500 F3000.000
G1 X107.172 Y62.509 F9000.000
G1 E5.00000 F2400.000
;TYPE:Perimeter
;WIDTH:0.45
G1 X107.172 Y58.791 E0.10282
G1 X125.890 Y58.791 E0.51757
G1 X125.890 Y62.509 E0.10282
G1 X107.232 Y62.509 E0.51591
G1 X106.756 Y62.925 F9000.000
;TYPE:External perimeter
G1 F1500.000
G1 X106.756 Y58.375 E0.12581
G1 X126.306 Y58.375 E0.54056
G1 X126.306 Y62.925 E0.12581
G1 X106.816 Y62.925 E0.53890
G1 X106.929 Y62.564 F9000.000
G1 E-3.50000 F3000.000
;WIPE_START
G1 F7200.000
G1 X106.769 Y59.325 E-1.42500
;WIPE_END
G1 E-0.07500 F3000.000
G1 X124.914 Y62.385 F9000.000
G1 E5.00000 F2400.000
;TYPE:Solid infill
;WIDTH:0.455192
G1 X125.579 Y61.720 E0.02630
G1 X125.579 Y61.125 E0.01666
G1 X124.506 Y62.198 E0.04246
G1 X123.911 Y62.198 E0.01666
G1 X125.579 Y60.530 E0.06602
G1 X125.579 Y59.935 E0.01666
G1 X123.316 Y62.198 E0.08958
G1 X122.721 Y62.198 E0.01666
G1 X125.579 Y59.340 E0.11315
G1 X125.579 Y59.102 E0.00664
G1 X125.221 Y59.102 E0.01002
G1 X122.126 Y62.198 E0.12254
G1 X121.530 Y62.198 E0.01666
G1 X124.626 Y59.102 E0.12254
G1 X124.030 Y59.102 E0.01666
G1 X120.935 Y62.198 E0.12254
G1 X120.340 Y62.198 E0.01666
G1 X123.435 Y59.102 E0.12254
G1 X122.840 Y59.102 E0.01666
G1 X119.745 Y62.198 E0.12254
G1 X119.150 Y62.198 E0.01666
G1 X122.245 Y59.102 E0.12254
G1 X121.650 Y59.102 E0.01666
G1 X118.555 Y62.198 E0.12254
G1 X117.959 Y62.198 E0.01666
G1 X121.055 Y59.102 E0.12254
G1 X120.459 Y59.102 E0.01666
G1 X117.364 Y62.198 E0.12254
G1 X116.769 Y62.198 E0.01666
G1 X119.864 Y59.102 E0.12254
G1 X119.269 Y59.102 E0.01666
G1 X116.174 Y62.198 E0.12254
G1 X115.579 Y62.198 E0.01666
G1 X118.674 Y59.102 E0.12254
G1 X118.079 Y59.102 E0.01666
G1 X114.983 Y62.198 E0.12254
G1 X114.388 Y62.198 E0.01666
G1 X117.483 Y59.102 E0.12254
G1 X116.888 Y59.102 E0.01666
G1 X113.793 Y62.198 E0.12254
G1 X113.198 Y62.198 E0.01666
G1 X116.293 Y59.102 E0.12254
G1 X115.698 Y59.102 E0.01666
G1 X112.603 Y62.198 E0.12254
G1 X112.008 Y62.198 E0.01666
G1 X115.103 Y59.102 E0.12254
G1 X114.508 Y59.102 E0.01666
G1 X111.412 Y62.198 E0.12254
G1 X110.817 Y62.198 E0.01666
G1 X113.912 Y59.102 E0.12254
G1 X113.317 Y59.102 E0.01666
G1 X110.222 Y62.198 E0.12254
G1 X109.627 Y62.198 E0.01666
G1 X112.722 Y59.102 E0.12254
G1 X112.127 Y59.102 E0.01666
G1 X109.032 Y62.198 E0.12254
G1 X108.436 Y62.198 E0.01666
G1 X111.532 Y59.102 E0.12254
G1 X110.936 Y59.102 E0.01666
G1 X107.841 Y62.198 E0.12254
G1 X107.483 Y62.198 E0.01002
G1 X107.483 Y61.960 E0.00665
G1 X110.341 Y59.102 E0.11314
G1 X109.746 Y59.102 E0.01666
G1 X107.483 Y61.365 E0.08958
G1 X107.483 Y60.770 E0.01666
G1 X109.151 Y59.102 E0.06602
G1 X108.556 Y59.102 E0.01666
G1 X107.483 Y60.175 E0.04245
G1 X107.483 Y59.579 E0.01666
G1 X108.148 Y58.915 E0.02629
G1 E-3.50000 F3000.000
;WIPE_START
G1 F7200.000
G1 X107.483 Y59.579 E-0.37176
G1 X107.483 Y60.175 E-0.23559
G1 X108.556 Y59.102 E-0.60023
G1 X109.105 Y59.102 E-0.21742
;WIPE_END
G1 E-0.07500 F3000.000
G1 X125.811 Y83.438 F9000.000
G1 E5.00000 F2400.000
;TYPE:Perimeter
;WIDTH:0.45
G1 F1500.000
G1 X122.099 Y83.403 E0.10265
G1 X125.811 Y83.378 E0.10265
G1 X126.226 Y83.378 F9000.000
;TYPE:External perimeter
G1 F1500.000
G1 X126.226 Y83.858 E0.01326
G1 X106.676 Y83.673 E0.54061
G1 X106.676 Y83.133 E0.01493
G1 X126.226 Y82.948 E0.54061
G1 X126.226 Y83.318 E0.01022
G1 X126.025 Y83.723 F9000.000
G1 E-3.50000 F3000.000
;WIPE_START
G1 F7200.000
G1 X126.226 Y83.858 E-0.21360
G1 X123.166 Y83.829 E-1.21140
;WIPE_END
G1 E-0.07500 F3000.000
G1 X121.891 Y83.403 F9000.000
G1 E5.00000 F2400.000
;TYPE:Gap fill
;WIDTH:0.442215
G1 F1800.000
G1 X119.389 Y83.403 E0.06786
;WIDTH:0.395784
G1 X116.888 Y83.403 E0.06014
;WIDTH:0.349354
G1 X114.387 Y83.403 E0.05241
;WIDTH:0.302923
G1 X111.886 Y83.403 E0.04469
;WIDTH:0.256492
G1 X109.385 Y83.403 E0.03696
;WIDTH:0.210061
G1 X106.883 Y83.403 E0.02924
G1 E-3.50000 F3000.000
;WIPE_START
G1 F7200.000
G1 X109.385 Y83.403 E-0.99007
;WIPE_END
G1 E-0.50993 F3000.000
G1 X125.811 Y103.438 F9000.000
G1 E5.00000 F2400.000
;TYPE:Perimeter
;WIDTH:0.45
G1 F1500.000
G1 X122.099 Y103.403 E0.10265
G1 X125.811 Y103.378 E0.10265
G1 X126.226 Y103.378 F9000.000
;TYPE:External perimeter
G1 F1500.000
G1 X126.226 Y103.858 E0.01326
G1 X106.676 Y103.673 E0.54061
G1 X106.676 Y103.133 E0.01493
G1 X126.226 Y102.948 E0.54061
G1 X126.226 Y103.318 E0.01022
G1 X126.025 Y103.724 F9000.000
G1 E-3.50000 F3000.000
;WIPE_START
G1 F7200.000
G1 X126.226 Y103.858 E-0.21360
G1 X123.166 Y103.829 E-1.21140
;WIPE_END
G1 E-0.07500 F3000.000
G1 X121.891 Y103.403 F9000.000
G1 E5.00000 F2400.000
;TYPE:Gap fill
;WIDTH:0.442215
G1 F1800.000
G1 X119.389 Y103.403 E0.06786
;WIDTH:0.395784
G1 X116.888 Y103.403 E0.06014
;WIDTH:0.349354
G1 X114.387 Y103.403 E0.05241
;WIDTH:0.302923
G1 X111.886 Y103.403 E0.04469
;WIDTH:0.256492
G1 X109.385 Y103.403 E0.03696
;WIDTH:0.210061
G1 X106.883 Y103.403 E0.02924
G1 E-3.50000 F3000.000
;WIPE_START
G1 F7200.000
G1 X109.385 Y103.403 E-0.99007
;WIPE_END
G1 E-0.50993 F3000.000
G1 X125.301 Y123.438 F9000.000
G1 E5.00000 F2400.000
;TYPE:Perimeter
;WIDTH:0.45
G1 F1500.000
G1 X121.589 Y123.403 E0.10265
G1 X125.301 Y123.378 E0.10265
G1 X125.717 Y123.378 F9000.000
;TYPE:External perimeter
G1 F1500.000
G1 X125.717 Y123.858 E0.01326
G1 X106.166 Y123.673 E0.54061
G1 X106.166 Y123.133 E0.01493
G1 X125.717 Y122.948 E0.54061
G1 X125.717 Y123.318 E0.01022
G1 X125.515 Y123.724 F9000.000
G1 E-3.50000 F3000.000
;WIPE_START
G1 F7200.000
G1 X125.717 Y123.858 E-0.21360
G1 X122.656 Y123.829 E-1.21140
;WIPE_END
G1 E-0.07500 F3000.000
G1 X121.381 Y123.403 F9000.000
G1 E5.00000 F2400.000
;TYPE:Gap fill
;WIDTH:0.442215
G1 F1800.000
G1 X118.880 Y123.403 E0.06786
;WIDTH:0.395784
G1 X116.378 Y123.403 E0.06014
;WIDTH:0.349354
G1 X113.877 Y123.403 E0.05241
;WIDTH:0.302923
G1 X111.376 Y123.403 E0.04469
;WIDTH:0.256492
G1 X108.875 Y123.403 E0.03696
;WIDTH:0.210061
G1 X106.374 Y123.403 E0.02924
G1 E-3.50000 F3000.000
;WIPE_START
G1 F7200.000
G1 X108.875 Y123.403 E-0.99007
;WIPE_END
G1 E-0.50993 F3000.000
G1 X124.925 Y143.438 F9000.000
G1 E5.00000 F2400.000
;TYPE:Perimeter
;WIDTH:0.45
G1 F1500.000
G1 X121.213 Y143.403 E0.10265
G1 X124.925 Y143.378 E0.10265
G1 X125.341 Y143.378 F9000.000
;TYPE:External perimeter
G1 F1500.000
G1 X125.341 Y143.858 E0.01326
G1 X105.790 Y143.673 E0.54061
G1 X105.790 Y143.133 E0.01493
G1 X125.341 Y142.948 E0.54061
G1 X125.341 Y143.318 E0.01022
G1 X125.139 Y143.724 F9000.000
G1 E-3.50000 F3000.000
;WIPE_START
G1 F7200.000
G1 X125.341 Y143.858 E-0.21360
G1 X122.280 Y143.829 E-1.21140
;WIPE_END
G1 E-0.07500 F3000.000
G1 X121.005 Y143.403 F9000.000
G1 E5.00000 F2400.000
;TYPE:Gap fill
;WIDTH:0.442215
G1 F1800.000
G1 X118.504 Y143.403 E0.06786
;WIDTH:0.395784
G1 X116.003 Y143.403 E0.06014
;WIDTH:0.349354
G1 X113.501 Y143.403 E0.05241
;WIDTH:0.302923
G1 X111.000 Y143.403 E0.04469
;WIDTH:0.256492
G1 X108.499 Y143.403 E0.03696
;WIDTH:0.210061
G1 X105.998 Y143.403 E0.02924
G1 E-3.50000 F3000.000
;WIPE_START
G1 F7200.000
G1 X108.499 Y143.403 E-0.99007
;WIPE_END
G1 E-0.50993 F3000.000
G1 X124.600 Y163.438 F9000.000
G1 E5.00000 F2400.000
;TYPE:Perimeter
;WIDTH:0.45
G1 F1500.000
G1 X120.887 Y163.403 E0.10265
G1 X124.600 Y163.378 E0.10265
G1 X125.015 Y163.378 F9000.000
;TYPE:External perimeter
G1 F1500.000
G1 X125.015 Y163.858 E0.01326
G1 X105.464 Y163.673 E0.54061
G1 X105.464 Y163.133 E0.01493
G1 X125.015 Y162.948 E0.54061
G1 X125.015 Y163.318 E0.01022
G1 X124.814 Y163.724 F9000.000
G1 E-3.50000 F3000.000
;WIPE_START
G1 F7200.000
G1 X125.015 Y163.858 E-0.21360
G1 X121.955 Y163.829 E-1.21140
;WIPE_END
G1 E-0.07500 F3000.000
