; generated by PrusaSlicer 2.3.3+x64 on 2021-09-25 at 17:34:57 UTC

; 

; external perimeters extrusion width = 0.45mm
; perimeters extrusion width = 0.45mm
; infill extrusion width = 0.45mm
; solid infill extrusion width = 0.45mm
; top infill extrusion width = 0.40mm
; first layer extrusion width = 0.42mm

M201 X500 Y500 Z100 E5000 ; sets maximum accelerations, mm/sec^2
M203 X500 Y500 Z10 E60 ; sets maximum feedrates, mm/sec
M204 P500 R1000 T500 ; sets acceleration (P, T) and retract acceleration (R), mm/sec^2
M205 X8.00 Y8.00 Z0.40 E5.00 ; sets the jerk limits, mm/sec
M205 S0 T0 ; sets the minimum extruding and travel feed rate, mm/sec
M107
;TYPE:Custom
G90 ; use absolute coordinates
M83 ; extruder relative mode
M104 S200 ; set extruder temp
M140 S60 ; set bed temp
M190 S60 ; wait for bed temp
M109 S200 ; wait for extruder temp
G28 ; home all
G29 ; Level Bed
G1 Z2 F240
G1 X2 Y10 F3000
G1 Z0.28 F240
G92 E0
G1 Y190 E15 F1500 ; intro line
G1 X2.3 F5000
G92 E0
G1 Y10 E15 F1200 ; intro line
G92 E0
G21 ; set units to millimeters
G90 ; use absolute coordinates
M83 ; use relative distances for extrusion
; Filament gcode
;LAYER_CHANGE
;Z:0.2
;HEIGHT:0.2
;BEFORE_LAYER_CHANGE
G92 E0
;0.2


G1 E-6.50000 F3000.000
G1 Z0.200 F1200.000
;AFTER_LAYER_CHANGE
;0.2
G1 X98.442 Y28.802
G1 E6.50000 F2400.000
;TYPE:Skirt
;WIDTH:0.42
G1 F1200.000
G1 X98.666 Y28.249 E0.01870
G1 X99.026 Y27.764 E0.01894
G1 X99.500 Y27.384 E0.01906
G1 X100.055 Y27.136 E0.01906
G1 X100.650 Y27.037 E0.01894
G1 X130.743 Y27.035 E0.94353
G1 X131.631 Y27.209 E0.02837
G1 X132.390 Y27.701 E0.02837
G1 X132.909 Y28.442 E0.02837
G1 X133.115 Y29.323 E0.02837
G1 X133.116 Y80.653 E1.60940
G1 X133.038 Y81.248 E0.01882
G1 X132.812 Y81.804 E0.01882
G1 X132.447 Y82.295 E0.01917
G1 X131.969 Y82.676 E0.01917
G1 X131.409 Y82.922 E0.01917
G1 X130.805 Y83.018 E0.01917
G1 X100.716 Y83.018 E0.94341
G1 X100.129 Y82.939 E0.01858
G1 X99.576 Y82.715 E0.01870
G1 X99.080 Y82.344 E0.01941
G1 X98.699 Y81.861 E0.01929
G1 X98.453 Y81.293 E0.01941
G1 X98.362 Y80.681 E0.01941
G1 X98.362 Y29.397 E1.60797
G1 X98.434 Y28.861 E0.01694
G1 E-4.55000 F3000.000
;WIPE_START
G1 F960.000
G1 X98.655 Y28.278 E-1.85250
;WIPE_END
G1 E-0.09750 F3000.000
G1 X100.949 Y79.737 F1200.000
G1 E6.50000 F2400.000
;TYPE:External perimeter
G1 F1200.000
G1 X130.529 Y79.737 E0.92746
G1 X130.529 Y80.251 E0.01614
G1 X100.949 Y80.251 E0.92746
G1 X100.949 Y79.797 E0.01426
G1 X101.349 Y79.739
G1 E-4.55000 F3000.000
;WIPE_START
G1 F960.000
G1 X101.573 Y79.795 E-1.85250
;WIPE_END
G1 E-0.09750 F3000.000
G1 X130.341 Y79.994 F1200.000
G1 E6.50000 F2400.000
;TYPE:Gap fill
;WIDTH:0.180626
G1 F1200.000
G1 X101.138 Y79.994 E0.33438
G1 E-4.55000 F3000.000
;WIPE_START
G1 F960.000
G1 X101.762 Y79.994 E-1.85250
;WIPE_END
G1 E-0.09750 F3000.000
G1 X101.138 Y70.238 F1200.000
G1 E6.50000 F2400.000
;TYPE:External perimeter
;WIDTH:0.42
G1 F1200.000
G1 X100.949 Y70.238 E0.00591
G1 X100.949 Y69.750 E0.01532
G1 X130.529 Y69.750 E0.92746
G1 X130.529 Y70.238 E0.01532
G1 X101.198 Y70.238 E0.91967
G1 X101.042 Y70.075
G1 E-4.55000 F3000.000
;WIPE_START
G1 F960.000
G1 X100.949 Y70.238 E-0.73785
G1 X100.949 Y69.863 E-1.11465
;WIPE_END
G1 E-0.09750 F3000.000
G1 X130.341 Y69.994 F1200.000
G1 E6.50000 F2400.000
;TYPE:Gap fill
;WIDTH:0.154394
G1 F1200.000
G1 X101.138 Y69.994 E0.27068
G1 E-4.55000 F3000.000
;WIPE_START
G1 F960.000
G1 X101.762 Y69.994 E-1.85250
;WIPE_END
G1 E-0.09750 F3000.000
G1 X101.138 Y60.225 F1200.000
G1 E6.50000 F2400.000
;TYPE:External perimeter
;WIDTH:0.42
G1 F1200.000
G1 X100.949 Y60.225 E0.00591
G1 X100.949 Y59.763 E0.01450
G1 X130.529 Y59.763 E0.92746
G1 X130.529 Y60.225 E0.01450
G1 X101.198 Y60.225 E0.91967
G1 X101.043 Y60.062
G1 E-4.55000 F3000.000
;WIPE_START
G1 F960.000
G1 X100.949 Y60.225 E-0.73785
G1 X100.949 Y59.850 E-1.11465
;WIPE_END
G1 E-0.09750 F3000.000
G1 X130.341 Y59.994 F1200.000
G1 E6.50000 F2400.000
;TYPE:Gap fill
;WIDTH:0.128284
G1 F1200.000
G1 X101.138 Y59.994 E0.20728
G1 E-4.55000 F3000.000
;WIPE_START
G1 F960.000
G1 X101.762 Y59.994 E-1.85250
;WIPE_END
G1 E-0.09750 F3000.000
G1 X101.138 Y50.212 F1200.000
G1 E6.50000 F2400.000
;TYPE:External perimeter
;WIDTH:0.42
G1 F1200.000
G1 X100.949 Y50.212 E0.00591
G1 X100.949 Y49.776 E0.01368
G1 X130.529 Y49.776 E0.92746
G1 X130.529 Y50.212 E0.01368
G1 X101.198 Y50.212 E0.91967
G1 X101.043 Y50.049
G1 E-4.55000 F3000.000
;WIPE_START
G1 F960.000
G1 X100.949 Y50.212 E-0.73785
G1 X100.949 Y49.837 E-1.11465
;WIPE_END
G1 E-0.09750 F3000.000
G1 X130.341 Y49.994 F1200.000
G1 E6.50000 F2400.000
;TYPE:Gap fill
;WIDTH:0.102204
G1 F1200.000
G1 X101.138 Y49.994 E0.14396
G1 E-4.55000 F3000.000
;WIPE_START
G1 F960.000
G1 X101.762 Y49.994 E-1.85250
;WIPE_END
G1 E-0.09750 F3000.000
G1 X101.138 Y40.199 F1200.000
G1 E6.50000 F2400.000
;TYPE:External perimeter
;WIDTH:0.42
G1 F1200.000
G1 X100.949 Y40.199 E0.00591
G1 X100.949 Y39.789 E0.01286
G1 X130.529 Y39.789 E0.92746
G1 X130.529 Y40.199 E0.01286
G1 X101.198 Y40.199 E0.91967
G1 X101.043 Y40.036
G1 E-4.55000 F3000.000
;WIPE_START
G1 F960.000
G1 X100.949 Y40.199 E-0.73785
G1 X100.949 Y39.824 E-1.11465
;WIPE_END
G1 E-0.09750 F3000.000
G1 X100.949 Y30.186 F1200.000
G1 E6.50000 F2400.000
G1 F1200.000
G1 X100.949 Y29.802 E0.01204
G1 X130.529 Y29.802 E0.92746
G1 X130.529 Y30.186 E0.01204
G1 X101.009 Y30.186 E0.92558
G1 X101.140 Y29.853
M106 S255
;LAYER_CHANGE
;Z:0.36
;HEIGHT:0.16
;BEFORE_LAYER_CHANGE
G92 E0
;0.36


G1 E-4.55000 F3000.000
;WIPE_START
G1 F960.000
G1 X100.949 Y29.802 E-1.15389
G1 X101.184 Y29.802 E-0.69861
;WIPE_END
G1 E-0.09750 F3000.000
G1 Z0.360 F1200.000
;AFTER_LAYER_CHANGE
;0.36
M104 S190 ; set temperature
G1 X131.631 Y27.209
G1 E6.50000 F2400.000
;TYPE:Skirt
G1 F1200.000
G1 X132.390 Y27.701 E0.02321
G1 X132.909 Y28.442 E0.02321
G1 X133.115 Y29.323 E0.02321
G1 X133.116 Y80.653 E1.31683
G1 X133.038 Y81.248 E0.01540
G1 X132.812 Y81.804 E0.01540
G1 X132.447 Y82.295 E0.01569
G1 X131.969 Y82.676 E0.01569
G1 X131.409 Y82.922 E0.01569
G1 X130.805 Y83.018 E0.01569
G1 X100.716 Y83.018 E0.77191
G1 X100.129 Y82.939 E0.01520
G1 X99.576 Y82.715 E0.01530
G1 X99.080 Y82.344 E0.01588
G1 X98.699 Y81.861 E0.01579
G1 X98.453 Y81.293 E0.01588
G1 X98.362 Y80.681 E0.01588
G1 X98.362 Y29.397 E1.31566
G1 X98.442 Y28.802 E0.01540
G1 X98.666 Y28.249 E0.01530
G1 X99.026 Y27.764 E0.01550
G1 X99.500 Y27.384 E0.01559
G1 X100.055 Y27.136 E0.01559
G1 X100.650 Y27.037 E0.01550
G1 X130.743 Y27.035 E0.77201
G1 X131.572 Y27.197 E0.02167
G1 E-4.55000 F3000.000
;WIPE_START
G1 F960.000
G1 X132.103 Y27.525 E-1.85250
;WIPE_END
G1 E-0.09750 F3000.000
G1 X130.514 Y29.637 F1200.000
G1 E6.50000 F2400.000
;TYPE:External perimeter
;WIDTH:0.45
G1 F1200.000
G1 X130.514 Y30.351 E0.01974
G1 X100.964 Y30.351 E0.81706
G1 X100.964 Y29.637 E0.01974
G1 X130.454 Y29.637 E0.81540
G1 X130.317 Y29.985
G1 E-4.55000 F3000.000
;WIPE_START
G1 F960.000
G1 X130.506 Y30.259 E-1.85250
;WIPE_END
G1 E-0.09750 F3000.000
G1 X101.172 Y29.994 F1200.000
G1 E6.50000 F2400.000
;TYPE:Gap fill
;WIDTH:0.332698
G1 F1200.000
G1 X130.306 Y29.994 E0.57823
G1 E-4.55000 F3000.000
;WIPE_START
G1 F960.000
G1 X129.682 Y29.994 E-1.85250
;WIPE_END
G1 E-0.09750 F3000.000
G1 X130.514 Y39.624 F1200.000
G1 E6.50000 F2400.000
;TYPE:External perimeter
;WIDTH:0.45
G1 F1200.000
G1 X130.514 Y40.364 E0.02047
G1 X100.964 Y40.364 E0.81706
G1 X100.964 Y39.624 E0.02047
G1 X130.454 Y39.624 E0.81540
G1 X130.317 Y39.972
G1 E-4.55000 F3000.000
;WIPE_START
G1 F960.000
G1 X130.505 Y40.246 E-1.85250
;WIPE_END
G1 E-0.09750 F3000.000
G1 X101.172 Y39.994 F1200.000
G1 E6.50000 F2400.000
;TYPE:Gap fill
;WIDTH:0.358964
G1 F1200.000
G1 X130.306 Y39.994 E0.62914
G1 E-4.55000 F3000.000
;WIPE_START
G1 F960.000
G1 X129.682 Y39.994 E-1.85250
;WIPE_END
G1 E-0.09750 F3000.000
G1 X130.514 Y49.611 F1200.000
G1 E6.50000 F2400.000
;TYPE:External perimeter
;WIDTH:0.45
G1 F1200.000
G1 X130.514 Y50.377 E0.02119
G1 X100.964 Y50.377 E0.81706
G1 X100.964 Y49.611 E0.02119
G1 X130.454 Y49.611 E0.81540
G1 X130.317 Y49.959
G1 E-4.55000 F3000.000
;WIPE_START
G1 F960.000
G1 X130.503 Y50.233 E-1.85250
;WIPE_END
G1 E-0.09750 F3000.000
G1 X101.172 Y49.994 F1200.000
G1 E6.50000 F2400.000
;TYPE:Gap fill
;WIDTH:0.385028
G1 F1200.000
G1 X130.306 Y49.994 E0.67965
G1 E-4.55000 F3000.000
;WIPE_START
G1 F960.000
G1 X129.682 Y49.994 E-1.85250
;WIPE_END
G1 E-0.09750 F3000.000
G1 X130.514 Y59.598 F1200.000
G1 E6.50000 F2400.000
;TYPE:External perimeter
;WIDTH:0.45
G1 F1200.000
G1 X130.514 Y60.390 E0.02191
G1 X100.964 Y60.390 E0.81706
G1 X100.964 Y59.598 E0.02191
G1 X130.454 Y59.598 E0.81540
G1 X130.317 Y59.946
G1 E-4.55000 F3000.000
;WIPE_START
G1 F960.000
G1 X130.501 Y60.220 E-1.85250
;WIPE_END
G1 E-0.09750 F3000.000
G1 X101.172 Y59.994 F1200.000
G1 E6.50000 F2400.000
;TYPE:Gap fill
;WIDTH:0.411098
G1 F1200.000
G1 X130.306 Y59.994 E0.73017
G1 E-4.55000 F3000.000
;WIPE_START
G1 F960.000
G1 X129.682 Y59.994 E-1.85250
;WIPE_END
G1 E-0.09750 F3000.000
G1 X130.514 Y69.585 F1200.000
G1 E6.50000 F2400.000
;TYPE:External perimeter
;WIDTH:0.45
G1 F1200.000
G1 X130.514 Y70.403 E0.02263
G1 X100.964 Y70.403 E0.81706
G1 X100.964 Y69.585 E0.02263
G1 X130.454 Y69.585 E0.81540
G1 X130.317 Y69.933
G1 E-4.55000 F3000.000
;WIPE_START
G1 F960.000
G1 X130.500 Y70.207 E-1.85250
;WIPE_END
G1 E-0.09750 F3000.000
G1 X101.172 Y69.994 F1200.000
G1 E6.50000 F2400.000
;TYPE:Gap fill
;WIDTH:0.437268
G1 F1200.000
G1 X130.306 Y69.994 E0.78089
G1 E-4.55000 F3000.000
;WIPE_START
G1 F960.000
G1 X129.682 Y69.994 E-1.85250
;WIPE_END
G1 E-0.09750 F3000.000
G1 X130.098 Y79.987 F1200.000
G1 E6.50000 F2400.000
;TYPE:Perimeter
;WIDTH:0.45
G1 F1200.000
G1 X130.098 Y80.001 E0.00037
G1 X101.380 Y80.001 E0.79407
G1 X101.380 Y79.987 E0.00037
G1 X130.038 Y79.987 E0.79241
G1 X130.514 Y79.572
;TYPE:External perimeter
G1 X130.514 Y80.416 E0.02336
G1 X100.964 Y80.416 E0.81706
G1 X100.964 Y79.572 E0.02336
G1 X130.454 Y79.572 E0.81540
G1 X130.317 Y79.920
;LAYER_CHANGE
;Z:0.52
;HEIGHT:0.16
;BEFORE_LAYER_CHANGE
G92 E0
;0.52


G1 E-4.55000 F3000.000
;WIPE_START
G1 F960.000
G1 X130.498 Y80.194 E-1.85250
;WIPE_END
G1 E-0.09750 F3000.000
G1 Z0.520 F1200.000
;AFTER_LAYER_CHANGE
;0.52
G1 X130.098 Y30.095
G1 E6.50000 F2400.000
;TYPE:Perimeter
G1 F1200.000
G1 X101.380 Y30.095 E0.79407
G1 X101.380 Y29.893 E0.00560
G1 X130.098 Y29.893 E0.79407
G1 X130.098 Y30.035 E0.00395
G1 X130.514 Y30.511
;TYPE:External perimeter
G1 X100.964 Y30.511 E0.81706
G1 X100.964 Y29.477 E0.02859
G1 X130.514 Y29.477 E0.81706
G1 X130.514 Y30.451 E0.02693
G1 X130.114 Y30.506
G1 E-4.55000 F3000.000
;WIPE_START
G1 F960.000
G1 X129.890 Y30.452 E-1.85250
;WIPE_END
G1 E-0.09750 F3000.000
G1 X130.098 Y40.108 F1200.000
G1 E6.50000 F2400.000
;TYPE:Perimeter
G1 F1200.000
G1 X101.380 Y40.108 E0.79407
G1 X101.380 Y39.879 E0.00633
G1 X130.098 Y39.879 E0.79407
G1 X130.098 Y40.048 E0.00467
G1 X130.514 Y40.524
;TYPE:External perimeter
G1 X100.964 Y40.524 E0.81706
G1 X100.964 Y39.464 E0.02932
G1 X130.514 Y39.464 E0.81706
G1 X130.514 Y40.464 E0.02766
G1 X130.114 Y40.519
G1 E-4.55000 F3000.000
;WIPE_START
G1 F960.000
G1 X129.890 Y40.465 E-1.85250
;WIPE_END
G1 E-0.09750 F3000.000
G1 X130.098 Y50.121 F1200.000
G1 E6.50000 F2400.000
;TYPE:Perimeter
G1 F1200.000
G1 X101.380 Y50.121 E0.79407
G1 X101.380 Y49.866 E0.00705
G1 X130.098 Y49.866 E0.79407
G1 X130.098 Y50.061 E0.00539
G1 X130.514 Y50.537
;TYPE:External perimeter
G1 X100.964 Y50.537 E0.81706
G1 X100.964 Y49.451 E0.03004
G1 X130.514 Y49.451 E0.81706
G1 X130.514 Y50.477 E0.02838
G1 X130.114 Y50.532
G1 E-4.55000 F3000.000
;WIPE_START
G1 F960.000
G1 X129.890 Y50.478 E-1.85250
;WIPE_END
G1 E-0.09750 F3000.000
G1 X130.098 Y60.135 F1200.000
G1 E6.50000 F2400.000
;TYPE:Perimeter
G1 F1200.000
G1 X101.380 Y60.135 E0.79407
G1 X101.380 Y59.853 E0.00777
G1 X130.098 Y59.853 E0.79407
G1 X130.098 Y60.075 E0.00611
G1 X130.514 Y60.550
;TYPE:External perimeter
G1 X100.964 Y60.550 E0.81706
G1 X100.964 Y59.438 E0.03076
G1 X130.514 Y59.438 E0.81706
G1 X130.514 Y60.490 E0.02910
G1 X130.114 Y60.545
G1 E-4.55000 F3000.000
;WIPE_START
G1 F960.000
G1 X129.890 Y60.491 E-1.85250
;WIPE_END
G1 E-0.09750 F3000.000
G1 X130.098 Y70.148 F1200.000
G1 E6.50000 F2400.000
;TYPE:Perimeter
G1 F1200.000
G1 X101.380 Y70.148 E0.79407
G1 X101.380 Y69.840 E0.00850
G1 X130.098 Y69.840 E0.79407
G1 X130.098 Y70.088 E0.00684
G1 X130.514 Y70.563
;TYPE:External perimeter
G1 X100.964 Y70.563 E0.81706
G1 X100.964 Y69.425 E0.03148
G1 X130.514 Y69.425 E0.81706
G1 X130.514 Y70.503 E0.02982
G1 X130.114 Y70.558
G1 E-4.55000 F3000.000
;WIPE_START
G1 F960.000
G1 X129.890 Y70.505 E-1.85250
;WIPE_END
G1 E-0.09750 F3000.000
G1 X130.098 Y80.161 F1200.000
G1 E6.50000 F2400.000
;TYPE:Perimeter
G1 F1200.000
G1 X101.380 Y80.161 E0.79407
G1 X101.380 Y79.827 E0.00922
G1 X130.098 Y79.827 E0.79407
G1 X130.098 Y80.101 E0.00756
G1 X130.514 Y80.576
;TYPE:External perimeter
G1 X100.964 Y80.576 E0.81706
G1 X100.964 Y79.412 E0.03220
G1 X130.514 Y79.412 E0.81706
G1 X130.514 Y80.516 E0.03055
G1 X130.114 Y80.571
;LAYER_CHANGE
;Z:0.68
;HEIGHT:0.16
;BEFORE_LAYER_CHANGE
G92 E0
;0.68


G1 E-4.55000 F3000.000
;WIPE_START
G1 F960.000
G1 X129.890 Y80.518 E-1.85250
;WIPE_END
G1 E-0.09750 F3000.000
G1 Z0.680 F1200.000
;AFTER_LAYER_CHANGE
;0.68
G1 X130.098 Y30.194
G1 E6.50000 F2400.000
;TYPE:Perimeter
G1 F1200.000
G1 X101.380 Y30.194 E0.79407
G1 X101.380 Y29.794 E0.01106
G1 X130.098 Y29.794 E0.79407
G1 X130.098 Y30.134 E0.00940
G1 X130.514 Y30.610
;TYPE:External perimeter
G1 X100.964 Y30.610 E0.81706
G1 X100.964 Y29.378 E0.03405
G1 X130.514 Y29.378 E0.81706
G1 X130.514 Y30.550 E0.03239
G1 X130.114 Y30.604
G1 E-4.55000 F3000.000
;WIPE_START
G1 F960.000
G1 X129.890 Y30.551 E-1.85250
;WIPE_END
G1 E-0.09750 F3000.000
G1 X130.098 Y40.203 F1200.000
G1 E6.50000 F2400.000
;TYPE:Perimeter
G1 F1200.000
G1 X101.380 Y40.203 E0.79407
G1 X101.380 Y39.785 E0.01158
G1 X130.098 Y39.785 E0.79407
G1 X130.098 Y40.143 E0.00992
G1 X130.514 Y40.619
;TYPE:External perimeter
G1 X100.964 Y40.619 E0.81706
G1 X100.964 Y39.369 E0.03456
G1 X130.514 Y39.369 E0.81706
G1 X130.514 Y40.559 E0.03290
G1 X130.114 Y40.613
G1 E-4.55000 F3000.000
;WIPE_START
G1 F960.000
G1 X129.890 Y40.560 E-1.85250
;WIPE_END
G1 E-0.09750 F3000.000
G1 X130.098 Y50.213 F1200.000
G1 E6.50000 F2400.000
;TYPE:Perimeter
G1 F1200.000
G1 X101.380 Y50.213 E0.79407
G1 X101.380 Y49.775 E0.01209
G1 X130.098 Y49.775 E0.79407
G1 X130.098 Y50.153 E0.01043
G1 X130.514 Y50.628
;TYPE:External perimeter
G1 X100.964 Y50.628 E0.81706
G1 X100.964 Y49.360 E0.03507
G1 X130.514 Y49.360 E0.81706
G1 X130.514 Y50.568 E0.03341
G1 X130.114 Y50.622
G1 E-4.55000 F3000.000
;WIPE_START
G1 F960.000
G1 X129.890 Y50.569 E-1.85250
;WIPE_END
G1 E-0.09750 F3000.000
G1 X130.098 Y59.766 F1200.000
G1 E6.50000 F2400.000
;TYPE:Perimeter
G1 F1200.000
G1 X130.098 Y60.222 E0.01259
G1 X101.380 Y60.222 E0.79407
G1 X101.380 Y59.766 E0.01259
G1 X130.038 Y59.766 E0.79241
G1 X130.514 Y59.351
;TYPE:External perimeter
G1 X130.514 Y60.637 E0.03558
G1 X100.964 Y60.637 E0.81706
G1 X100.964 Y59.351 E0.03558
G1 X130.454 Y59.351 E0.81540
G1 X130.319 Y59.700
G1 E-4.55000 F3000.000
;WIPE_START
G1 F960.000
G1 X130.483 Y59.974 E-1.85250
;WIPE_END
G1 E-0.09750 F3000.000
G1 X130.098 Y69.757 F1200.000
G1 E6.50000 F2400.000
;TYPE:Perimeter
G1 F1200.000
G1 X130.098 Y70.231 E0.01311
G1 X101.380 Y70.231 E0.79407
G1 X101.380 Y69.757 E0.01311
G1 X130.038 Y69.757 E0.79241
G1 X130.514 Y69.341
;TYPE:External perimeter
G1 X130.514 Y70.647 E0.03609
G1 X100.964 Y70.647 E0.81706
G1 X100.964 Y69.341 E0.03609
G1 X130.454 Y69.341 E0.81540
G1 X130.319 Y69.691
G1 E-4.55000 F3000.000
;WIPE_START
G1 F960.000
G1 X130.483 Y69.965 E-1.85250
;WIPE_END
G1 E-0.09750 F3000.000
G1 X101.588 Y69.994 F1200.000
G1 E6.50000 F2400.000
;TYPE:Gap fill
;WIDTH:0.0927503
G1 F1200.000
G1 X129.891 Y69.994 E0.10998
G1 E-4.55000 F3000.000
;WIPE_START
G1 F960.000
G1 X129.267 Y69.994 E-1.85250
;WIPE_END
G1 E-0.09750 F3000.000
G1 X130.098 Y79.748 F1200.000
G1 E6.50000 F2400.000
;TYPE:Perimeter
;WIDTH:0.45
G1 F1200.000
G1 X130.098 Y80.240 E0.01362
G1 X101.380 Y80.240 E0.79407
G1 X101.380 Y79.748 E0.01362
G1 X130.038 Y79.748 E0.79241
G1 X130.514 Y79.332
