; generated by PrusaSlicer 2.3.3+x64 on 2022-01-01 at 19:29:04 UTC

; 

; external perimeters extrusion width = 0.45mm
; perimeters extrusion width = 0.45mm
; infill extrusion width = 0.45mm
; solid infill extrusion width = 0.45mm
; top infill extrusion width = 0.40mm
; first layer extrusion width = 0.42mm

M201 X500 Y500 Z100 E5000 ; sets maximum accelerations, mm/sec^2
M203 X500 Y500 Z10 E60 ; sets maximum feedrates, mm/sec
M204 P500 R1000 T500 ; sets acceleration (P, T) and retract acceleration (R), mm/sec^2
M205 X8.00 Y8.00 Z0.40 E5.00 ; sets the jerk limits, mm/sec
M205 S0 T0 ; sets the minimum extruding and travel feed rate, mm/sec
M107
;TYPE:Custom
G90 ; use absolute coordinates
M83 ; extruder relative mode
M104 S200 ; set extruder temp
M140 S60 ; set bed temp
M190 S60 ; wait for bed temp
M109 S200 ; wait for extruder temp
G28 ; home all
G29 ; Bed-Level
G1 Z2 F240
G1 X2 Y10 F3000
G1 Z0.28 F240
G92 E0
G1 Y190 E15 F1500 ; intro line
G1 X2.3 F5000
G92 E0
G1 Y10 E15 F1200 ; intro line
G92 E0
G21 ; set units to millimeters
G90 ; use absolute coordinates
M83 ; use relative distances for extrusion
; Filament gcode
;LAYER_CHANGE
;Z:0.2
;HEIGHT:0.2
;BEFORE_LAYER_CHANGE
G92 E0
;0.2


G1 E-6.50000 F3000.000
G1 Z0.200 F9000.000
;AFTER_LAYER_CHANGE
;0.2
G1 X172.047 Y26.420
G1 E6.50000 F2400.000
;TYPE:Skirt
;WIDTH:0.42
G1 F1200.000
G1 X172.240 Y27.316 E0.02872
G1 X172.240 Y132.370 E3.29391
G1 X172.117 Y133.115 E0.02367
G1 X171.769 Y133.780 E0.02355
G1 X171.393 Y134.178 E0.01716
G1 X170.936 Y134.480 E0.01716
G1 X170.419 Y134.670 E0.01728
G1 X169.876 Y134.736 E0.01716
G1 X89.848 Y134.736 E2.50921
G1 X89.107 Y134.612 E0.02355
G1 X88.442 Y134.264 E0.02355
G1 X87.867 Y133.650 E0.02637
G1 X87.544 Y132.877 E0.02626
G1 X83.059 Y110.132 E0.72689
G1 X83.063 Y49.458 E1.90239
G1 X87.536 Y26.876 E0.72181
G1 X87.695 Y26.384 E0.01621
G1 X87.957 Y25.938 E0.01621
G1 X88.330 Y25.543 E0.01704
G1 X88.782 Y25.242 E0.01704
G1 X89.295 Y25.051 E0.01716
G1 X89.834 Y24.982 E0.01704
G1 X169.867 Y24.982 E2.50938
G1 X170.766 Y25.160 E0.02872
G1 X171.530 Y25.664 E0.02872
G1 X172.013 Y26.371 E0.02684
G1 E-4.55000 F3000.000
;WIPE_START
G1 F7200.000
G1 X172.240 Y27.316 E-0.38468
G1 X172.240 Y31.024 E-1.46782
;WIPE_END
G1 E-0.09750 F3000.000
G1 X169.176 Y28.046 F9000.000
G1 E6.50000 F2400.000
;TYPE:Perimeter
G1 F1200.000
G1 X169.176 Y46.544 E0.57999
G1 X169.196 Y47.897 E0.04243
G1 X169.105 Y47.731 E0.00592
G1 X167.749 Y48.122 E0.04424
G1 X164.749 Y49.096 E0.09890
G1 X164.749 Y53.621 E0.14189
G1 X167.749 Y54.596 E0.09890
G1 X169.105 Y54.986 E0.04424
G1 X169.194 Y54.824 E0.00580
G1 X169.176 Y55.715 E0.02796
G1 X169.176 Y104.002 E1.51399
G1 X169.194 Y104.894 E0.02796
G1 X169.105 Y104.731 E0.00580
G1 X167.749 Y105.122 E0.04424
G1 X164.749 Y106.096 E0.09890
G1 X164.749 Y110.621 E0.14189
G1 X167.749 Y111.596 E0.09890
G1 X169.105 Y111.986 E0.04424
G1 X169.195 Y111.822 E0.00586
G1 X169.176 Y112.680 E0.02690
G1 X169.176 Y131.672 E0.59548
G1 X90.550 Y131.672 E2.46526
G1 X90.550 Y109.351 E0.69984
G1 X89.533 Y109.021 E0.03354
G1 X88.528 Y110.404 E0.05362
G1 X86.123 Y109.623 E0.07927
G1 X86.123 Y107.095 E0.07928
G1 X88.528 Y106.313 E0.07927
G1 X89.533 Y107.697 E0.05362
G1 X90.550 Y107.366 E0.03354
G1 X90.550 Y52.351 E1.72496
G1 X89.533 Y52.021 E0.03354
G1 X88.528 Y53.404 E0.05362
G1 X86.123 Y52.623 E0.07927
G1 X86.123 Y50.095 E0.07928
G1 X88.528 Y49.313 E0.07927
G1 X89.533 Y50.697 E0.05362
G1 X90.550 Y50.366 E0.03354
G1 X90.550 Y28.046 E0.69984
G1 X169.116 Y28.046 E2.46338
G1 E-4.55000 F3000.000
;WIPE_START
G1 F7200.000
G1 X169.131 Y32.726 E-1.85250
;WIPE_END
G1 E-0.09750 F3000.000
G1 X168.920 Y48.177 F9000.000
G1 E6.50000 F2400.000
;TYPE:External perimeter
G1 F1200.000
G1 X167.860 Y48.482 E0.03459
G1 X165.126 Y49.370 E0.09010
G1 X165.126 Y53.347 E0.12471
G1 X167.860 Y54.235 E0.09010
G1 X168.920 Y54.540 E0.03459
G1 X169.240 Y53.957 E0.02085
G1 X169.653 Y53.383 E0.02220
G1 X169.653 Y53.722 E0.01064
G1 X169.573 Y54.715 E0.03124
G1 X169.554 Y55.719 E0.03148
G1 X169.554 Y103.998 E1.51376
G1 X169.573 Y105.002 E0.03148
G1 X169.653 Y105.995 E0.03124
G1 X169.653 Y106.335 E0.01064
G1 X169.240 Y105.760 E0.02220
G1 X168.920 Y105.177 E0.02085
G1 X167.860 Y105.482 E0.03459
G1 X165.126 Y106.370 E0.09010
G1 X165.126 Y110.347 E0.12471
G1 X167.860 Y111.235 E0.09010
G1 X168.920 Y111.540 E0.03459
G1 X169.240 Y110.957 E0.02085
G1 X169.653 Y110.383 E0.02220
G1 X169.653 Y110.710 E0.01027
G1 X169.575 Y111.692 E0.03087
G1 X169.554 Y112.684 E0.03111
G1 X169.553 Y132.049 E0.60718
G1 X90.173 Y132.049 E2.48890
G1 X90.173 Y109.625 E0.70308
G1 X89.677 Y109.464 E0.01636
G1 X88.672 Y110.848 E0.05362
G1 X85.746 Y109.897 E0.09645
G1 X85.746 Y106.821 E0.09646
G1 X88.672 Y105.870 E0.09645
G1 X89.677 Y107.254 E0.05362
G1 X90.173 Y107.092 E0.01636
G1 X90.173 Y52.625 E1.70778
G1 X89.677 Y52.464 E0.01636
G1 X88.672 Y53.848 E0.05362
G1 X85.746 Y52.897 E0.09645
G1 X85.746 Y49.821 E0.09646
G1 X88.672 Y48.870 E0.09645
G1 X89.677 Y50.254 E0.05362
G1 X90.173 Y50.092 E0.01636
G1 X90.173 Y27.669 E0.70308
G1 X169.553 Y27.669 E2.48890
G1 X169.553 Y46.541 E0.59173
G1 X169.575 Y48.025 E0.04653
G1 X169.653 Y49.007 E0.03089
G1 X169.653 Y49.335 E0.01027
G1 X169.240 Y48.760 E0.02220
G1 X168.948 Y48.230 E0.01897
G1 X168.773 Y47.805 F9000.000
G1 E-4.55000 F3000.000
;WIPE_START
G1 F7200.000
G1 X167.860 Y48.482 E-0.44249
G1 X165.126 Y49.370 E-1.13753
G1 X165.126 Y50.058 E-0.27249
;WIPE_END
G1 E-0.09750 F3000.000
G1 X169.066 Y55.592 F9000.000
G1 E6.50000 F2400.000
;TYPE:Solid infill
;WIDTH:0.42006
G1 F1200.000
G1 X168.612 Y55.139 E0.02010
G1 X167.864 Y54.923 E0.02444
G1 X168.894 Y55.953 E0.04568
G1 X168.894 Y56.486 E0.01673
G1 X167.084 Y54.677 E0.08024
G1 X166.295 Y54.421 E0.02605
G1 X168.894 Y57.020 E0.11527
G1 X168.894 Y57.553 E0.01673
G1 X165.240 Y53.900 E0.16202
G1 E-4.55000 F3000.000
;WIPE_START
G1 F7200.000
G1 X168.550 Y57.209 E-1.85250
;WIPE_END
G1 E-0.09750 F3000.000
G1 X169.063 Y28.921 F9000.000
G1 E6.50000 F2400.000
G1 F1200.000
G1 X168.470 Y28.329 E0.02629
G1 X167.937 Y28.329 E0.01673
G1 X168.893 Y29.285 E0.04241
G1 X168.893 Y29.818 E0.01673
G1 X167.404 Y28.329 E0.06607
G1 X166.870 Y28.329 E0.01673
G1 X168.893 Y30.352 E0.08972
G1 X168.893 Y30.885 E0.01673
G1 X166.337 Y28.329 E0.11338
G1 X165.804 Y28.329 E0.01673
G1 X168.893 Y31.418 E0.13703
G1 X168.893 Y31.952 E0.01673
G1 X165.270 Y28.329 E0.16068
G1 X164.737 Y28.329 E0.01673
G1 X168.893 Y32.485 E0.18434
G1 X168.893 Y33.019 E0.01673
G1 X164.204 Y28.329 E0.20799
G1 X163.670 Y28.329 E0.01673
G1 X168.893 Y33.552 E0.23164
G1 X168.893 Y34.085 E0.01673
G1 X163.137 Y28.329 E0.25530
G1 X162.603 Y28.329 E0.01673
G1 X168.893 Y34.619 E0.27895
G1 X168.893 Y35.152 E0.01673
G1 X162.070 Y28.329 E0.30261
G1 X161.537 Y28.329 E0.01673
G1 X168.893 Y35.685 E0.32626
G1 X168.893 Y36.219 E0.01673
G1 X161.003 Y28.329 E0.34991
G1 X160.470 Y28.329 E0.01673
G1 X168.893 Y36.752 E0.37357
G1 X168.893 Y37.285 E0.01673
G1 X159.937 Y28.329 E0.39722
G1 X159.403 Y28.329 E0.01673
G1 X168.893 Y37.819 E0.42087
G1 X168.893 Y38.352 E0.01673
G1 X158.870 Y28.329 E0.44453
G1 X158.337 Y28.329 E0.01673
G1 X168.893 Y38.885 E0.46818
G1 X168.893 Y39.419 E0.01673
G1 X157.803 Y28.329 E0.49183
G1 X157.270 Y28.329 E0.01673
G1 X168.893 Y39.952 E0.51549
G1 X168.893 Y40.485 E0.01673
G1 X156.737 Y28.329 E0.53914
G1 X156.203 Y28.329 E0.01673
G1 X168.893 Y41.019 E0.56280
G1 X168.893 Y41.552 E0.01673
G1 X155.670 Y28.329 E0.58645
G1 X155.136 Y28.329 E0.01673
G1 X168.893 Y42.086 E0.61010
G1 X168.893 Y42.619 E0.01673
G1 X154.603 Y28.329 E0.63376
G1 X154.070 Y28.329 E0.01673
G1 X168.893 Y43.152 E0.65741
G1 X168.893 Y43.686 E0.01673
G1 X153.536 Y28.329 E0.68106
G1 X153.003 Y28.329 E0.01673
G1 X168.893 Y44.219 E0.70472
G1 X168.893 Y44.752 E0.01673
G1 X152.470 Y28.329 E0.72837
G1 X151.936 Y28.329 E0.01673
G1 X168.893 Y45.286 E0.75203
G1 X168.893 Y45.819 E0.01673
G1 X151.403 Y28.329 E0.77568
G1 X150.870 Y28.329 E0.01673
G1 X168.893 Y46.352 E0.79933
G1 X168.898 Y46.891 E0.01688
G1 X150.336 Y28.329 E0.82321
G1 X149.803 Y28.329 E0.01673
G1 X168.906 Y47.432 E0.84721
G1 X168.907 Y47.494 E0.00195
G1 X168.541 Y47.600 E0.01196
G1 X149.270 Y28.329 E0.85465
G1 X148.736 Y28.329 E0.01673
G1 X168.126 Y47.719 E0.85993
G1 X167.712 Y47.838 E0.01351
G1 X148.203 Y28.329 E0.86522
G1 X147.670 Y28.329 E0.01673
G1 X167.308 Y47.968 E0.87096
G1 X166.906 Y48.098 E0.01327
G1 X147.136 Y28.329 E0.87676
G1 X146.603 Y28.329 E0.01673
G1 X166.503 Y48.229 E0.88256
G1 X166.101 Y48.360 E0.01327
G1 X146.069 Y28.329 E0.88836
G1 X145.536 Y28.329 E0.01673
G1 X165.698 Y48.491 E0.89416
G1 X165.295 Y48.621 E0.01327
G1 X145.003 Y28.329 E0.89996
G1 X144.469 Y28.329 E0.01673
G1 X164.893 Y48.752 E0.90576
G1 X164.490 Y48.883 E0.01327
G1 X143.936 Y28.329 E0.91156
G1 X143.403 Y28.329 E0.01673
G1 X164.466 Y49.392 E0.93415
G1 X164.466 Y49.926 E0.01673
G1 X142.869 Y28.329 E0.95781
G1 X142.336 Y28.329 E0.01673
G1 X164.466 Y50.459 E0.98146
G1 X164.466 Y50.992 E0.01673
G1 X141.803 Y28.329 E1.00511
G1 X141.269 Y28.329 E0.01673
G1 X164.466 Y51.526 E1.02877
G1 X164.466 Y52.059 E0.01673
G1 X140.736 Y28.329 E1.05242
G1 X140.203 Y28.329 E0.01673
G1 X164.466 Y52.593 E1.07608
G1 X164.466 Y53.126 E0.01673
G1 X139.669 Y28.329 E1.09973
G1 X139.136 Y28.329 E0.01673
G1 X168.894 Y58.086 E1.31972
G1 X168.894 Y58.620 E0.01673
G1 X138.602 Y28.329 E1.34338
G1 X138.069 Y28.329 E0.01673
G1 X168.894 Y59.153 E1.36703
G1 X168.894 Y59.687 E0.01673
G1 X137.536 Y28.329 E1.39068
G1 X137.002 Y28.329 E0.01673
G1 X168.894 Y60.220 E1.41434
G1 X168.894 Y60.753 E0.01673
G1 X136.469 Y28.329 E1.43799
G1 X135.936 Y28.329 E0.01673
G1 X168.894 Y61.287 E1.46165
G1 X168.894 Y61.820 E0.01673
G1 X135.402 Y28.329 E1.48530
G1 X134.869 Y28.329 E0.01673
G1 X168.894 Y62.353 E1.50895
G1 X168.894 Y62.887 E0.01673
G1 X134.336 Y28.329 E1.53261
G1 X133.802 Y28.329 E0.01673
G1 X168.894 Y63.420 E1.55626
G1 X168.894 Y63.953 E0.01673
G1 X133.269 Y28.329 E1.57991
G1 X132.736 Y28.329 E0.01673
G1 X168.894 Y64.487 E1.60357
G1 X168.894 Y65.020 E0.01673
G1 X132.202 Y28.329 E1.62722
G1 X131.669 Y28.329 E0.01673
G1 X168.894 Y65.553 E1.65088
G1 X168.894 Y66.087 E0.01673
G1 X131.135 Y28.329 E1.67453
G1 X130.602 Y28.329 E0.01673
G1 X168.894 Y66.620 E1.69818
G1 X168.894 Y67.154 E0.01673
G1 X130.069 Y28.329 E1.72184
G1 X129.535 Y28.329 E0.01673
G1 X168.894 Y67.687 E1.74549
G1 X168.894 Y68.220 E0.01673
G1 X129.002 Y28.329 E1.76914
G1 X128.469 Y28.329 E0.01673
G1 X168.894 Y68.754 E1.79280
G1 X168.894 Y69.287 E0.01673
G1 X127.935 Y28.329 E1.81645
G1 X127.402 Y28.329 E0.01673
G1 X168.894 Y69.820 E1.84011
G1 X168.894 Y70.354 E0.01673
G1 X126.869 Y28.329 E1.86376
G1 X126.335 Y28.329 E0.01673
G1 X168.894 Y70.887 E1.88741
G1 X168.894 Y71.420 E0.01673
G1 X125.802 Y28.329 E1.91107
G1 X125.269 Y28.329 E0.01673
G1 X168.894 Y71.954 E1.93472
G1 X168.894 Y72.487 E0.01673
G1 X124.735 Y28.329 E1.95837
G1 X124.202 Y28.329 E0.01673
G1 X168.894 Y73.020 E1.98203
G1 X168.894 Y73.554 E0.01673
G1 X123.668 Y28.329 E2.00568
G1 X123.135 Y28.329 E0.01673
G1 X168.894 Y74.087 E2.02933
G1 X168.894 Y74.621 E0.01673
G1 X122.602 Y28.329 E2.05299
G1 X122.068 Y28.329 E0.01673
G1 X168.894 Y75.154 E2.07664
G1 X168.894 Y75.687 E0.01673
G1 X121.535 Y28.329 E2.10030
G1 X121.002 Y28.329 E0.01673
G1 X168.894 Y76.221 E2.12395
G1 X168.894 Y76.754 E0.01673
G1 X120.468 Y28.329 E2.14760
G1 X119.935 Y28.329 E0.01673
G1 X168.894 Y77.287 E2.17126
G1 X168.894 Y77.821 E0.01673
G1 X119.402 Y28.329 E2.19491
G1 X118.868 Y28.329 E0.01673
G1 X168.894 Y78.354 E2.21856
G1 X168.894 Y78.887 E0.01673
G1 X118.335 Y28.329 E2.24222
G1 X117.802 Y28.329 E0.01673
G1 X168.894 Y79.421 E2.26587
G1 X168.894 Y79.954 E0.01673
G1 X117.268 Y28.329 E2.28953
G1 X116.735 Y28.329 E0.01673
G1 X168.894 Y80.487 E2.31318
G1 X168.894 Y81.021 E0.01673
G1 X116.201 Y28.329 E2.33683
G1 X115.668 Y28.329 E0.01673
G1 X168.894 Y81.554 E2.36049
G1 X168.894 Y82.088 E0.01673
G1 X115.135 Y28.329 E2.38414
G1 X114.601 Y28.329 E0.01673
G1 X168.894 Y82.621 E2.40779
G1 X168.894 Y83.154 E0.01673
G1 X114.068 Y28.329 E2.43145
G1 X113.535 Y28.329 E0.01673
G1 X168.894 Y83.688 E2.45510
G1 X168.894 Y84.221 E0.01673
G1 X113.001 Y28.329 E2.47876
G1 X112.468 Y28.329 E0.01673
G1 X168.894 Y84.754 E2.50241
G1 X168.894 Y85.288 E0.01673
G1 X111.935 Y28.329 E2.52606
G1 X111.401 Y28.329 E0.01673
G1 X168.894 Y85.821 E2.54972
G1 X168.894 Y86.354 E0.01673
G1 X110.868 Y28.329 E2.57337
G1 X110.335 Y28.329 E0.01673
G1 X168.894 Y86.888 E2.59702
G1 X168.894 Y87.421 E0.01673
G1 X109.801 Y28.329 E2.62068
G1 X109.268 Y28.329 E0.01673
G1 X168.894 Y87.954 E2.64433
G1 X168.894 Y88.488 E0.01673
G1 X108.734 Y28.329 E2.66798
G1 X108.201 Y28.329 E0.01673
G1 X168.894 Y89.021 E2.69164
G1 X168.894 Y89.554 E0.01673
G1 X107.668 Y28.329 E2.71529
G1 X107.134 Y28.329 E0.01673
G1 X168.894 Y90.088 E2.73895
G1 X168.894 Y90.621 E0.01673
G1 X106.601 Y28.329 E2.76260
G1 X106.068 Y28.329 E0.01673
G1 X168.894 Y91.155 E2.78625
G1 X168.894 Y91.688 E0.01673
G1 X105.534 Y28.329 E2.80991
G1 X105.001 Y28.329 E0.01673
G1 X168.894 Y92.221 E2.83356
G1 X168.894 Y92.755 E0.01673
G1 X104.468 Y28.329 E2.85721
G1 X103.934 Y28.329 E0.01673
G1 X168.894 Y93.288 E2.88087
G1 X168.894 Y93.821 E0.01673
G1 X103.401 Y28.329 E2.90452
G1 X102.868 Y28.329 E0.01673
G1 X168.894 Y94.355 E2.92818
G1 X168.894 Y94.888 E0.01673
G1 X102.334 Y28.329 E2.95183
G1 X101.801 Y28.329 E0.01673
G1 X168.894 Y95.421 E2.97548
G1 X168.894 Y95.955 E0.01673
G1 X101.267 Y28.329 E2.99914
G1 X100.734 Y28.329 E0.01673
G1 X168.894 Y96.488 E3.02279
G1 X168.894 Y97.021 E0.01673
G1 X100.201 Y28.329 E3.04644
G1 X99.667 Y28.329 E0.01673
G1 X168.894 Y97.555 E3.07010
G1 X168.894 Y98.088 E0.01673
G1 X99.134 Y28.329 E3.09375
G1 X98.601 Y28.329 E0.01673
G1 X168.894 Y98.622 E3.11741
G1 X168.894 Y99.155 E0.01673
G1 X98.067 Y28.329 E3.14106
G1 X97.534 Y28.329 E0.01673
G1 X168.894 Y99.688 E3.16471
G1 X168.894 Y100.222 E0.01673
G1 X97.001 Y28.329 E3.18837
G1 X96.467 Y28.329 E0.01673
G1 X168.894 Y100.755 E3.21202
G1 X168.894 Y101.288 E0.01673
G1 X95.934 Y28.329 E3.23567
G1 X95.401 Y28.329 E0.01673
G1 X168.894 Y101.822 E3.25933
G1 X168.894 Y102.355 E0.01673
G1 X94.867 Y28.329 E3.28298
G1 X94.334 Y28.329 E0.01673
G1 X168.894 Y102.888 E3.30664
G1 X168.894 Y103.422 E0.01673
G1 X93.801 Y28.329 E3.33029
G1 X93.267 Y28.329 E0.01673
G1 X168.894 Y103.955 E3.35394
G1 X168.901 Y104.496 E0.01696
G1 X92.734 Y28.329 E3.37793
G1 X92.200 Y28.329 E0.01673
G1 X168.487 Y104.615 E3.38321
G1 X168.073 Y104.734 E0.01351
G1 X91.667 Y28.329 E3.38850
G1 X91.134 Y28.329 E0.01673
G1 X167.659 Y104.854 E3.39380
G1 X167.256 Y104.985 E0.01327
G1 X90.833 Y28.561 E3.38927
G1 X90.833 Y29.095 E0.01673
G1 X166.854 Y105.115 E3.37141
G1 X166.451 Y105.246 E0.01327
G1 X90.833 Y29.628 E3.35356
G1 X90.833 Y30.162 E0.01673
G1 X166.048 Y105.377 E3.33570
G1 X165.646 Y105.508 E0.01327
G1 X90.833 Y30.695 E3.31785
G1 X90.833 Y31.228 E0.01673
G1 X165.243 Y105.638 E3.30000
G1 X164.841 Y105.769 E0.01327
G1 X90.833 Y31.762 E3.28214
G1 X90.833 Y32.295 E0.01673
G1 X164.466 Y105.928 E3.26554
G1 X164.466 Y106.462 E0.01673
G1 X90.833 Y32.828 E3.26554
G1 X90.833 Y33.362 E0.01673
G1 X164.466 Y106.995 E3.26554
G1 X164.466 Y107.528 E0.01673
G1 X90.833 Y33.895 E3.26554
G1 X90.833 Y34.428 E0.01673
G1 X164.466 Y108.062 E3.26554
G1 X164.466 Y108.595 E0.01673
G1 X90.833 Y34.962 E3.26554
G1 X90.833 Y35.495 E0.01673
G1 X164.466 Y109.128 E3.26554
G1 X164.466 Y109.662 E0.01673
G1 X90.833 Y36.028 E3.26554
G1 X90.833 Y36.562 E0.01673
G1 X164.636 Y110.365 E3.27307
G1 E-4.55000 F3000.000
;WIPE_START
G1 F7200.000
G1 X161.327 Y107.055 E-1.85250
;WIPE_END
G1 E-0.09750 F3000.000
G1 X168.267 Y111.863 F9000.000
G1 E6.50000 F2400.000
G1 F1200.000
G1 X168.898 Y112.493 E0.02795
G1 X168.894 Y113.022 E0.01660
G1 X167.766 Y111.895 E0.04999
G1 X166.982 Y111.644 E0.02583
G1 X168.894 Y113.556 E0.08478
G1 X168.894 Y114.089 E0.01673
G1 X166.192 Y111.387 E0.11981
G1 X165.402 Y111.131 E0.02605
G1 X168.894 Y114.622 E0.15484
G1 X168.894 Y115.156 E0.01673
G1 X90.833 Y37.095 E3.46188
G1 X90.833 Y37.629 E0.01673
G1 X168.894 Y115.689 E3.46188
G1 X168.894 Y116.222 E0.01673
G1 X90.833 Y38.162 E3.46188
G1 X90.833 Y38.695 E0.01673
