; generated by PrusaSlicer 2.3.3+x64 on 2021-09-27 at 11:17:27 UTC

; 

; external perimeters extrusion width = 0.45mm
; perimeters extrusion width = 0.45mm
; infill extrusion width = 0.45mm
; solid infill extrusion width = 0.45mm
; top infill extrusion width = 0.40mm
; support material extrusion width = 0.38mm
; first layer extrusion width = 0.42mm

M201 X500 Y500 Z100 E5000 ; sets maximum accelerations, mm/sec^2
M203 X500 Y500 Z10 E60 ; sets maximum feedrates, mm/sec
M204 P500 R1000 T500 ; sets acceleration (P, T) and retract acceleration (R), mm/sec^2
M205 X8.00 Y8.00 Z0.40 E5.00 ; sets the jerk limits, mm/sec
M205 S0 T0 ; sets the minimum extruding and travel feed rate, mm/sec
M107
;TYPE:Custom
G90 ; use absolute coordinates
M83 ; extruder relative mode
M104 S200 ; set extruder temp
M140 S60 ; set bed temp
M190 S60 ; wait for bed temp
M109 S200 ; wait for extruder temp
G28 ; home all
G29 ; Level Bed
G1 Z2 F240
G1 X2 Y10 F3000
G1 Z0.28 F240
G92 E0
G1 Y190 E15 F1500 ; intro line
G1 X2.3 F5000
G92 E0
G1 Y10 E15 F1200 ; intro line
G92 E0
G21 ; set units to millimeters
G90 ; use absolute coordinates
M83 ; use relative distances for extrusion
; Filament gcode
;LAYER_CHANGE
;Z:0.2
;HEIGHT:0.2
;BEFORE_LAYER_CHANGE
G92 E0
;0.2


G1 E-6.50000 F3000.000
G1 Z0.200 F9000.000
;AFTER_LAYER_CHANGE
;0.2
G1 X86.589 Y85.987
G1 E6.50000 F2400.000
;TYPE:Skirt
;WIDTH:0.42
G1 F1200.000
G1 X87.175 Y85.567 E0.02260
G1 X105.637 Y77.561 E0.63097
G1 X107.038 Y77.021 E0.04708
G1 X109.769 Y76.194 E0.08945
G1 X112.540 Y75.640 E0.08860
G1 X114.084 Y75.449 E0.04879
G1 X116.910 Y75.313 E0.08872
G1 X119.733 Y75.450 E0.08860
G1 X121.276 Y75.640 E0.04875
G1 X124.048 Y76.194 E0.08865
G1 X126.803 Y77.030 E0.09027
G1 X128.177 Y77.560 E0.04617
G1 X146.560 Y85.515 E0.62805
G1 X147.050 Y85.807 E0.01787
G1 X147.456 Y86.207 E0.01787
G1 X147.730 Y86.641 E0.01609
G1 X149.986 Y91.365 E0.16413
G1 X150.196 Y92.152 E0.02555
G1 X150.205 Y117.188 E0.78498
G1 X150.152 Y117.691 E0.01585
G1 X149.994 Y118.167 E0.01574
G1 X147.658 Y122.820 E0.16324
G1 X147.227 Y123.393 E0.02249
G1 X146.641 Y123.813 E0.02260
G1 X128.178 Y131.819 E0.63095
G1 X126.777 Y132.359 E0.04710
G1 X124.047 Y133.186 E0.08944
G1 X121.276 Y133.740 E0.08860
G1 X119.731 Y133.930 E0.04879
G1 X116.909 Y134.067 E0.08860
G1 X114.083 Y133.930 E0.08872
G1 X112.540 Y133.740 E0.04875
G1 X109.767 Y133.186 E0.08865
G1 X107.012 Y132.350 E0.09027
G1 X105.635 Y131.818 E0.04628
G1 X87.284 Y123.864 E0.62712
G1 X86.794 Y123.572 E0.01787
G1 X86.389 Y123.171 E0.01787
G1 X83.845 Y118.217 E0.17462
G1 X83.620 Y117.399 E0.02661
G1 X83.610 Y92.192 E0.79034
G1 X83.664 Y91.689 E0.01585
G1 X83.821 Y91.213 E0.01574
G1 X86.157 Y86.560 E0.16324
G1 X86.553 Y86.035 E0.02060
G1 E-4.55000 F3000.000
;WIPE_START
G1 F7200.000
G1 X87.175 Y85.567 E-0.30811
G1 X90.754 Y84.015 E-1.54439
;WIPE_END
G1 E-0.09750 F3000.000
G1 X85.987 Y92.192 F9000.000
G1 E6.50000 F2400.000
;TYPE:Support material
G1 F1200.000
G1 X85.987 Y102.996 E0.33874
G1 X86.741 Y102.996 E0.02365
G1 X86.741 Y92.362 E0.33342
G1 X87.496 Y92.362 E0.02365
G1 X87.496 Y102.996 E0.33342
G1 X88.250 Y102.996 E0.02365
G1 X88.250 Y87.688 E0.47998
G1 X89.004 Y87.688 E0.02365
G1 X89.004 Y102.996 E0.47998
G1 X89.508 Y102.996 E0.01581
G1 X89.582 Y101.993 E0.03152
G1 X89.758 Y100.592 E0.04428
G1 X89.758 Y87.688 E0.40461
G1 X90.512 Y87.688 E0.02365
G1 X90.512 Y97.362 E0.30334
G1 X90.684 Y97.231 E0.00678
G1 X91.266 Y97.231 E0.01825
G1 X91.266 Y87.688 E0.29924
G1 X92.020 Y87.688 E0.02365
G1 X92.020 Y97.401 E0.30456
G1 E-4.55000 F3000.000
;WIPE_START
G1 F7200.000
G1 X92.020 Y92.721 E-1.85250
;WIPE_END
G1 E-0.09750 F3000.000
G1 X95.037 Y88.372 F9000.000
G1 E6.50000 F2400.000
G1 F1200.000
G1 X95.037 Y86.812 E0.04891
G1 X94.283 Y86.334 E0.02799
G1 X94.283 Y89.141 E0.08801
G1 X94.073 Y89.439 E0.01143
G1 X93.529 Y90.299 E0.03191
G1 X93.529 Y85.857 E0.13929
G1 X93.321 Y85.725 E0.00771
G1 X92.775 Y86.588 E0.03202
G1 X92.775 Y91.599 E0.15711
G1 X92.205 Y92.713 E0.03923
G1 X92.474 Y93.148 E0.01605
G1 X92.775 Y93.148 E0.00944
G1 X92.775 Y97.231 E0.12802
G1 X93.529 Y97.231 E0.02365
G1 X93.529 Y93.148 E0.12802
G1 X94.283 Y93.148 E0.02365
G1 X94.283 Y97.231 E0.12802
G1 X95.037 Y97.231 E0.02365
G1 X95.037 Y93.148 E0.12802
G1 X95.791 Y93.148 E0.02365
G1 X95.791 Y97.231 E0.12802
G1 X96.545 Y97.231 E0.02365
G1 X96.545 Y93.148 E0.12802
G1 X97.300 Y93.148 E0.02365
G1 X97.300 Y97.231 E0.12802
G1 X98.054 Y97.231 E0.02365
G1 X98.054 Y93.148 E0.12802
G1 X98.808 Y93.148 E0.02365
G1 X98.808 Y97.231 E0.12802
G1 X99.562 Y97.231 E0.02365
G1 X99.562 Y93.148 E0.12802
G1 X100.098 Y93.148 E0.01679
G1 X100.316 Y92.930 E0.00969
G1 X100.316 Y97.450 E0.14172
G1 X100.348 Y97.481 E0.00139
G1 X101.070 Y97.481 E0.02266
G1 X101.070 Y92.898 E0.14369
G1 X101.825 Y92.898 E0.02365
G1 X101.825 Y97.481 E0.14369
G1 X102.579 Y97.481 E0.02365
G1 X102.579 Y92.898 E0.14369
G1 X103.333 Y92.898 E0.02365
G1 X103.333 Y97.651 E0.14901
G1 E-4.55000 F3000.000
;WIPE_START
G1 F7200.000
G1 X103.333 Y92.971 E-1.85250
;WIPE_END
G1 E-0.09750 F3000.000
G1 X103.333 Y117.651 F9000.000
G1 E6.50000 F2400.000
G1 F1200.000
G1 X103.333 Y112.898 E0.14901
G1 X102.579 Y112.898 E0.02365
G1 X102.579 Y117.481 E0.14369
G1 X101.825 Y117.481 E0.02365
G1 X101.825 Y112.898 E0.14369
G1 X101.070 Y112.898 E0.02365
G1 X101.070 Y117.481 E0.14369
G1 X100.348 Y117.481 E0.02266
G1 X100.316 Y117.450 E0.00139
G1 X100.316 Y112.930 E0.14172
G1 X100.098 Y113.148 E0.00969
G1 X99.562 Y113.148 E0.01679
G1 X99.562 Y117.231 E0.12802
G1 X98.808 Y117.231 E0.02365
G1 X98.808 Y113.148 E0.12802
G1 X98.054 Y113.148 E0.02365
G1 X98.054 Y117.231 E0.12802
G1 X97.300 Y117.231 E0.02365
G1 X97.300 Y113.148 E0.12802
G1 X96.545 Y113.148 E0.02365
G1 X96.545 Y117.231 E0.12802
G1 X95.791 Y117.231 E0.02365
G1 X95.791 Y113.148 E0.12802
G1 X95.037 Y113.148 E0.02365
G1 X95.037 Y117.231 E0.12802
G1 X94.283 Y117.231 E0.02365
G1 X94.283 Y113.148 E0.12802
G1 X93.529 Y113.148 E0.02365
G1 X93.529 Y117.401 E0.13334
G1 X93.529 Y118.763 F9000.000
G1 F1200.000
G1 X93.529 Y121.692 E0.09184
G1 X94.283 Y121.692 E0.02365
G1 X94.283 Y120.239 E0.04558
G1 X95.037 Y121.284 E0.04041
G1 X95.037 Y121.862 E0.01813
G1 X92.775 Y121.862 F9000.000
G1 F1200.000
G1 X92.775 Y113.148 E0.27321
G1 X92.020 Y113.148 E0.02365
G1 X92.020 Y121.692 E0.26789
G1 X91.266 Y121.692 E0.02365
G1 X91.266 Y113.148 E0.26789
G1 X90.975 Y113.148 E0.00914
G1 X90.734 Y112.974 E0.00933
G1 X90.512 Y112.229 E0.02436
G1 X90.512 Y121.692 E0.29671
G1 X89.758 Y121.692 E0.02365
G1 X89.758 Y108.788 E0.40461
G1 X89.735 Y108.626 E0.00513
G1 X89.391 Y108.721 E0.01119
G1 X89.004 Y108.721 E0.01213
G1 X89.004 Y121.692 E0.40670
G1 X88.250 Y121.692 E0.02365
G1 X88.250 Y108.721 E0.40670
G1 X87.496 Y108.721 E0.02365
G1 X87.496 Y117.018 E0.26014
G1 X86.741 Y117.018 E0.02365
G1 X86.741 Y108.721 E0.26014
G1 X85.987 Y108.721 E0.02365
G1 X85.987 Y117.188 E0.26546
G1 E-4.55000 F3000.000
;WIPE_START
G1 F7200.000
G1 X85.987 Y112.508 E-1.85250
;WIPE_END
G1 E-0.09750 F3000.000
G1 X138.778 Y87.518 F9000.000
G1 E6.50000 F2400.000
G1 F1200.000
G1 X138.778 Y88.097 E0.01814
G1 X139.532 Y89.142 E0.04041
G1 X139.532 Y87.688 E0.04560
G1 X140.287 Y87.688 E0.02365
G1 X140.287 Y90.300 E0.08191
G1 X141.041 Y91.599 E0.04710
G1 X141.041 Y87.688 E0.12264
G1 X141.795 Y87.688 E0.02365
G1 X141.795 Y97.231 E0.29924
G1 X142.549 Y97.231 E0.02365
G1 X142.549 Y87.688 E0.29924
G1 X143.303 Y87.688 E0.02365
G1 X143.303 Y97.362 E0.30334
G1 X143.378 Y97.419 E0.00293
G1 X143.545 Y98.024 E0.01968
G1 X143.838 Y99.328 E0.04190
G1 X144.057 Y100.593 E0.04027
G1 X144.057 Y87.688 E0.40464
G1 X144.812 Y87.688 E0.02365
G1 X144.812 Y102.996 E0.47998
G1 X145.566 Y102.996 E0.02365
G1 X145.566 Y87.688 E0.47998
G1 X145.595 Y87.688 E0.00093
G1 X145.595 Y92.362 E0.14655
G1 X146.320 Y92.362 E0.02271
G1 X146.320 Y102.996 E0.33342
G1 X147.074 Y102.996 E0.02365
G1 X147.074 Y92.362 E0.33342
G1 X147.828 Y92.362 E0.02365
G1 X147.828 Y103.165 E0.33874
G1 E-4.55000 F3000.000
;WIPE_START
G1 F7200.000
G1 X147.828 Y98.485 E-1.85250
;WIPE_END
G1 E-0.09750 F3000.000
G1 X141.041 Y97.401 F9000.000
G1 E6.50000 F2400.000
G1 F1200.000
G1 X141.041 Y93.148 E0.13334
G1 X140.287 Y93.148 E0.02365
G1 X140.287 Y97.231 E0.12802
G1 X139.532 Y97.231 E0.02365
G1 X139.532 Y93.148 E0.12802
G1 X138.778 Y93.148 E0.02365
G1 X138.778 Y97.231 E0.12802
G1 X138.024 Y97.231 E0.02365
G1 X138.024 Y93.148 E0.12802
G1 X137.270 Y93.148 E0.02365
G1 X137.270 Y97.231 E0.12802
G1 X136.516 Y97.231 E0.02365
G1 X136.516 Y93.148 E0.12802
G1 X135.762 Y93.148 E0.02365
G1 X135.762 Y97.231 E0.12802
G1 X135.008 Y97.231 E0.02365
G1 X135.008 Y93.148 E0.12802
G1 X134.253 Y93.148 E0.02365
G1 X134.253 Y97.231 E0.12802
G1 X133.499 Y97.231 E0.02365
G1 X133.499 Y93.148 E0.12802
G1 X132.745 Y93.148 E0.02365
G1 X132.745 Y97.231 E0.12802
G1 X132.218 Y97.231 E0.01653
G1 X131.991 Y97.458 E0.01006
G1 X131.991 Y92.922 E0.14224
G1 X131.968 Y92.898 E0.00102
G1 X131.237 Y92.898 E0.02292
G1 X131.237 Y97.481 E0.14369
G1 X130.483 Y97.481 E0.02365
G1 X130.483 Y92.898 E0.14369
G1 X129.728 Y92.898 E0.02365
G1 X129.728 Y97.481 E0.14369
G1 X128.974 Y97.481 E0.02365
G1 X128.974 Y92.898 E0.14369
G1 X128.220 Y92.898 E0.02365
G1 X128.220 Y97.651 E0.14901
G1 E-4.55000 F3000.000
;WIPE_START
G1 F7200.000
G1 X128.220 Y92.971 E-1.85250
;WIPE_END
G1 E-0.09750 F3000.000
G1 X128.220 Y112.729 F9000.000
G1 E6.50000 F2400.000
G1 F1200.000
G1 X128.220 Y117.481 E0.14901
G1 X128.974 Y117.481 E0.02365
G1 X128.974 Y112.898 E0.14369
G1 X129.728 Y112.898 E0.02365
G1 X129.728 Y117.481 E0.14369
G1 X130.483 Y117.481 E0.02365
G1 X130.483 Y112.898 E0.14369
G1 X131.237 Y112.898 E0.02365
G1 X131.237 Y117.481 E0.14369
G1 X131.968 Y117.481 E0.02292
G1 X131.991 Y117.458 E0.00102
G1 X131.991 Y112.922 E0.14224
G1 X132.218 Y113.148 E0.01006
G1 X132.745 Y113.148 E0.01653
G1 X132.745 Y117.231 E0.12802
G1 X133.499 Y117.231 E0.02365
G1 X133.499 Y113.148 E0.12802
G1 X134.253 Y113.148 E0.02365
G1 X134.253 Y117.231 E0.12802
G1 X135.008 Y117.231 E0.02365
G1 X135.008 Y113.148 E0.12802
G1 X135.762 Y113.148 E0.02365
G1 X135.762 Y117.231 E0.12802
G1 X136.516 Y117.231 E0.02365
G1 X136.516 Y113.148 E0.12802
G1 X137.270 Y113.148 E0.02365
G1 X137.270 Y117.231 E0.12802
G1 X138.024 Y117.231 E0.02365
G1 X138.024 Y113.148 E0.12802
G1 X138.778 Y113.148 E0.02365
G1 X138.778 Y117.231 E0.12802
G1 X139.532 Y117.231 E0.02365
G1 X139.532 Y113.148 E0.12802
G1 X140.287 Y113.148 E0.02365
G1 X140.287 Y117.401 E0.13334
G1 E-4.55000 F3000.000
;WIPE_START
G1 F7200.000
G1 X140.287 Y113.148 E-1.68332
G1 X139.859 Y113.148 E-0.16918
;WIPE_END
G1 E-0.09750 F3000.000
G1 X138.778 Y121.008 F9000.000
G1 E6.50000 F2400.000
G1 F1200.000
G1 X138.778 Y121.692 E0.02147
G1 X139.532 Y121.692 E0.02365
G1 X139.532 Y120.238 E0.04560
G1 X139.742 Y119.940 E0.01141
G1 X140.287 Y119.080 E0.03193
G1 X140.287 Y121.692 E0.08191
G1 X141.041 Y121.692 E0.02365
G1 X141.041 Y113.148 E0.26789
G1 X141.795 Y113.148 E0.02365
G1 X141.795 Y121.692 E0.26789
G1 X142.549 Y121.692 E0.02365
G1 X142.549 Y113.148 E0.26789
G1 X142.840 Y113.148 E0.00912
G1 X143.080 Y112.975 E0.00930
G1 X143.303 Y112.230 E0.02438
G1 X143.303 Y121.692 E0.29669
G1 X144.057 Y121.692 E0.02365
G1 X144.057 Y108.787 E0.40464
G1 X144.084 Y108.603 E0.00584
G1 X144.513 Y108.721 E0.01396
G1 X144.812 Y108.721 E0.00938
G1 X144.812 Y121.692 E0.40670
G1 X145.566 Y121.692 E0.02365
G1 X145.566 Y108.721 E0.40670
G1 X146.320 Y108.721 E0.02365
G1 X146.320 Y117.018 E0.26014
G1 X147.074 Y117.018 E0.02365
G1 X147.074 Y108.721 E0.26014
G1 X147.828 Y108.721 E0.02365
G1 X147.828 Y117.188 E0.26546
G1 E-4.55000 F3000.000
;WIPE_START
G1 F7200.000
G1 X147.828 Y112.508 E-1.85250
;WIPE_END
G1 E-0.09750 F3000.000
G1 X139.376 Y118.377 F9000.000
G1 E6.50000 F2400.000
;TYPE:Perimeter
G1 F1200.000
G1 X138.786 Y119.308 E0.03458
G1 X138.042 Y120.364 E0.04049
G1 X137.248 Y121.383 E0.04049
G1 X136.404 Y122.360 E0.04049
G1 X135.514 Y123.296 E0.04049
G1 X134.578 Y124.186 E0.04049
G1 X133.600 Y125.030 E0.04049
G1 X132.582 Y125.825 E0.04049
G1 X131.526 Y126.568 E0.04049
G1 X130.435 Y127.259 E0.04049
G1 X129.311 Y127.896 E0.04049
G1 X128.158 Y128.476 E0.04049
G1 X126.977 Y129.000 E0.04049
G1 X125.772 Y129.465 E0.04050
G1 X124.546 Y129.870 E0.04049
G1 X123.301 Y130.214 E0.04049
G1 X122.041 Y130.497 E0.04050
G1 X120.769 Y130.718 E0.04049
G1 X119.487 Y130.876 E0.04049
G1 X118.199 Y130.971 E0.04050
G1 X116.908 Y131.003 E0.04049
G1 X115.613 Y130.971 E0.04062
G1 X114.329 Y130.876 E0.04037
G1 X113.047 Y130.718 E0.04049
G1 X111.770 Y130.496 E0.04062
G1 X110.514 Y130.214 E0.04037
G1 X109.270 Y129.870 E0.04049
G1 X108.043 Y129.465 E0.04049
G1 X106.839 Y129.000 E0.04048
G1 X105.657 Y128.476 E0.04051
G1 X104.504 Y127.896 E0.04050
G1 X103.380 Y127.259 E0.04049
G1 X102.290 Y126.568 E0.04048
G1 X101.233 Y125.824 E0.04051
G1 X100.215 Y125.030 E0.04050
G1 X99.237 Y124.186 E0.04048
G1 X98.302 Y123.296 E0.04050
G1 X97.411 Y122.361 E0.04049
G1 X96.568 Y121.383 E0.04049
G1 X95.773 Y120.364 E0.04051
G1 X95.029 Y119.309 E0.04049
G1 X94.439 Y118.376 E0.03461
G1 X99.221 Y118.377 E0.14994
G1 X99.221 Y118.627 E0.00784
G1 X133.095 Y118.627 E1.06210
G1 X133.095 Y118.377 E0.00784
G1 X139.316 Y118.377 E0.19506
G1 E-4.55000 F3000.000
;WIPE_START
G1 F7200.000
G1 X138.786 Y119.308 E-0.42429
G1 X138.042 Y120.364 E-0.51123
G1 X137.248 Y121.383 E-0.51120
G1 X136.578 Y122.159 E-0.40578
;WIPE_END
G1 E-0.09750 F3000.000
G1 X99.598 Y118.250 F9000.000
G1 E6.50000 F2400.000
;TYPE:External perimeter
G1 F1200.000
G1 X132.718 Y118.250 E1.03845
G1 X132.718 Y118.000 E0.00784
G1 X140.034 Y118.000 E0.22938
G1 X139.800 Y118.411 E0.01483
G1 X139.100 Y119.518 E0.04107
G1 X138.345 Y120.589 E0.04108
G1 X137.539 Y121.622 E0.04107
G1 X136.684 Y122.614 E0.04107
G1 X135.780 Y123.563 E0.04107
G1 X134.832 Y124.466 E0.04107
G1 X133.840 Y125.322 E0.04108
G1 X132.807 Y126.127 E0.04107
G1 X131.736 Y126.882 E0.04108
G1 X130.629 Y127.583 E0.04107
G1 X129.489 Y128.228 E0.04108
G1 X128.319 Y128.817 E0.04107
G1 X127.122 Y129.348 E0.04107
G1 X125.899 Y129.820 E0.04108
G1 X124.655 Y130.231 E0.04107
G1 X123.393 Y130.580 E0.04107
G1 X122.115 Y130.867 E0.04108
G1 X120.824 Y131.091 E0.04107
G1 X119.524 Y131.251 E0.04107
G1 X118.217 Y131.348 E0.04108
G1 X116.908 Y131.380 E0.04107
G1 X115.594 Y131.347 E0.04120
G1 X114.292 Y131.251 E0.04095
G1 X112.992 Y131.091 E0.04107
G1 X111.697 Y130.866 E0.04120
G1 X110.423 Y130.580 E0.04095
G1 X109.160 Y130.231 E0.04107
G1 X107.916 Y129.820 E0.04107
G1 X106.694 Y129.348 E0.04106
G1 X105.496 Y128.817 E0.04109
G1 X104.326 Y128.228 E0.04108
G1 X103.186 Y127.583 E0.04107
G1 X102.080 Y126.882 E0.04106
G1 X101.008 Y126.127 E0.04109
G1 X99.975 Y125.322 E0.04108
G1 X98.984 Y124.466 E0.04106
G1 X98.035 Y123.563 E0.04108
G1 X97.132 Y122.614 E0.04108
G1 X96.276 Y121.622 E0.04106
G1 X95.470 Y120.589 E0.04109
G1 X94.716 Y119.518 E0.04107
G1 X94.015 Y118.411 E0.04107
G1 X93.781 Y117.999 E0.01485
G1 X99.598 Y118.000 E0.18237
G1 X99.598 Y118.190 E0.00596
G1 X99.793 Y118.599 F9000.000
G1 E-4.55000 F3000.000
;WIPE_START
G1 F7200.000
G1 X104.278 Y118.198 E-1.85250
;WIPE_END
G1 E-0.09750 F3000.000
G1 X138.879 Y118.950 F9000.000
G1 E6.50000 F2400.000
;TYPE:Solid infill
;WIDTH:0.422215
G1 F1200.000
G1 X138.589 Y118.660 E0.01296
G1 X138.052 Y118.660 E0.01692
G1 X138.548 Y119.155 E0.02211
G1 X138.326 Y119.470 E0.01214
G1 X137.516 Y118.660 E0.03615
G1 X136.979 Y118.660 E0.01692
G1 X138.105 Y119.785 E0.05019
G1 X137.883 Y120.100 E0.01214
G1 X136.443 Y118.660 E0.06422
G1 X135.907 Y118.660 E0.01692
G1 X137.652 Y120.405 E0.07784
G1 X137.417 Y120.706 E0.01205
G1 X135.370 Y118.660 E0.09128
G1 X134.834 Y118.660 E0.01692
G1 X137.182 Y121.008 E0.10472
G1 X136.942 Y121.304 E0.01203
G1 X134.297 Y118.660 E0.11795
G1 X133.761 Y118.660 E0.01692
G1 X136.693 Y121.592 E0.13079
G1 X136.445 Y121.880 E0.01199
G1 X133.378 Y118.813 E0.13682
G1 X133.378 Y118.910 E0.00306
G1 X132.938 Y118.910 E0.01385
G1 X136.197 Y122.168 E0.14533
G1 X135.935 Y122.443 E0.01197
G1 X132.402 Y118.910 E0.15759
G1 X131.865 Y118.910 E0.01692
G1 X135.674 Y122.718 E0.16985
G1 X135.412 Y122.993 E0.01197
G1 X131.329 Y118.910 E0.18210
G1 X130.793 Y118.910 E0.01692
