; generated by PrusaSlicer 2.3.3+x64 on 2021-10-01 at 11:04:56 UTC

; 

; external perimeters extrusion width = 0.45mm
; perimeters extrusion width = 0.45mm
; infill extrusion width = 0.45mm
; solid infill extrusion width = 0.45mm
; top infill extrusion width = 0.40mm
; first layer extrusion width = 0.42mm

; external perimeters extrusion width = 0.45mm
; perimeters extrusion width = 0.45mm
; infill extrusion width = 0.45mm
; solid infill extrusion width = 0.45mm
; top infill extrusion width = 0.40mm
; first layer extrusion width = 0.42mm

M201 X500 Y500 Z100 E5000 ; sets maximum accelerations, mm/sec^2
M203 X500 Y500 Z10 E60 ; sets maximum feedrates, mm/sec
M204 P500 R1000 T500 ; sets acceleration (P, T) and retract acceleration (R), mm/sec^2
M205 X8.00 Y8.00 Z0.40 E5.00 ; sets the jerk limits, mm/sec
M205 S0 T0 ; sets the minimum extruding and travel feed rate, mm/sec
M107
;TYPE:Custom
G90 ; use absolute coordinates
M83 ; extruder relative mode
M104 S200 ; set extruder temp
M140 S60 ; set bed temp
M190 S60 ; wait for bed temp
M109 S200 ; wait for extruder temp
G28 ; home all
G29 ; Level Bed
G1 Z2 F240
G1 X2 Y10 F3000
G1 Z0.28 F240
G92 E0
G1 Y190 E15 F1500 ; intro line
G1 X2.3 F5000
G92 E0
G1 Y10 E15 F1200 ; intro line
G92 E0
G21 ; set units to millimeters
G90 ; use absolute coordinates
M83 ; use relative distances for extrusion
; Filament gcode
;LAYER_CHANGE
;Z:0.2
;HEIGHT:0.2
;BEFORE_LAYER_CHANGE
G92 E0
;0.2


G1 E-6.50000 F3000.000
G1 Z0.200 F9000.000
;AFTER_LAYER_CHANGE
;0.2
G1 X69.973 Y32.098
G1 E6.50000 F2400.000
;TYPE:Skirt
;WIDTH:0.42
G1 F1200.000
G1 X70.397 Y31.626 E0.01989
G1 X85.448 Y18.941 E0.61717
G1 X87.314 Y17.651 E0.07113
G1 X88.132 Y17.353 E0.02731
G1 X90.414 Y17.090 E0.07203
G1 X160.427 Y17.090 E2.19521
G1 X161.223 Y17.228 E0.02532
G1 X163.127 Y17.951 E0.06388
G1 X163.614 Y18.225 E0.01752
G1 X165.353 Y20.110 E0.08041
G1 X165.617 Y20.532 E0.01562
G1 X165.788 Y20.996 E0.01550
G1 X195.076 Y154.093 E4.27300
G1 X195.121 Y189.578 E1.11259
G1 X195.012 Y190.267 E0.02190
G1 X194.707 Y190.896 E0.02190
G1 X194.329 Y191.327 E0.01799
G1 X193.858 Y191.655 E0.01799
G1 X193.322 Y191.860 E0.01799
G1 X192.753 Y191.932 E0.01799
G1 X42.737 Y191.932 E4.70366
G1 X42.039 Y191.825 E0.02213
G1 X41.403 Y191.518 E0.02213
G1 X40.980 Y191.148 E0.01763
G1 X40.657 Y190.692 E0.01752
G1 X40.449 Y190.173 E0.01752
G1 X40.368 Y189.617 E0.01763
G1 X40.405 Y154.134 E1.11253
G1 X69.626 Y32.877 E3.91078
G1 X69.948 Y32.153 E0.02484
G1 E-4.55000 F3000.000
;WIPE_START
G1 F7200.000
G1 X70.397 Y31.626 E-0.27373
G1 X73.446 Y29.056 E-1.57877
;WIPE_END
G1 E-0.09750 F3000.000
G1 X43.431 Y155.242 F9000.000
G1 E6.50000 F2400.000
;TYPE:Perimeter
G1 F1200.000
G1 X192.057 Y155.242 E4.66006
G1 X192.057 Y188.868 E1.05432
G1 X43.431 Y188.868 E4.66006
G1 X43.431 Y155.302 E1.05243
G1 X43.054 Y154.865 F9000.000
;TYPE:External perimeter
G1 F1200.000
G1 X192.434 Y154.865 E4.68371
G1 X192.434 Y189.245 E1.07796
G1 X43.054 Y189.245 E4.68371
G1 X43.054 Y154.925 E1.07608
G1 X43.453 Y154.895 F9000.000
G1 E-4.55000 F3000.000
;WIPE_START
G1 F7200.000
G1 X47.734 Y154.923 E-1.85250
;WIPE_END
G1 E-0.09750 F3000.000
G1 X191.182 Y155.355 F9000.000
G1 E6.50000 F2400.000
;TYPE:Solid infill
;WIDTH:0.42006
G1 F1200.000
G1 X191.774 Y155.948 E0.02629
G1 X191.774 Y156.481 E0.01673
G1 X190.818 Y155.525 E0.04241
G1 X190.285 Y155.525 E0.01673
G1 X191.774 Y157.014 E0.06607
G1 X191.774 Y157.548 E0.01673
G1 X189.751 Y155.525 E0.08972
G1 X189.218 Y155.525 E0.01673
G1 X191.774 Y158.081 E0.11338
G1 X191.774 Y158.614 E0.01673
G1 X188.685 Y155.525 E0.13703
G1 X188.151 Y155.525 E0.01673
G1 X191.774 Y159.148 E0.16068
G1 X191.774 Y159.681 E0.01673
G1 X187.618 Y155.525 E0.18434
G1 X187.084 Y155.525 E0.01673
G1 X191.774 Y160.214 E0.20799
G1 X191.774 Y160.748 E0.01673
G1 X186.551 Y155.525 E0.23164
G1 X186.018 Y155.525 E0.01673
G1 X191.774 Y161.281 E0.25530
G1 X191.774 Y161.815 E0.01673
G1 X185.484 Y155.525 E0.27895
G1 X184.951 Y155.525 E0.01673
G1 X191.774 Y162.348 E0.30261
G1 X191.774 Y162.881 E0.01673
G1 X184.418 Y155.525 E0.32626
G1 X183.884 Y155.525 E0.01673
G1 X191.774 Y163.415 E0.34991
G1 X191.774 Y163.948 E0.01673
G1 X183.351 Y155.525 E0.37357
G1 X182.818 Y155.525 E0.01673
G1 X191.774 Y164.481 E0.39722
G1 X191.774 Y165.015 E0.01673
G1 X182.284 Y155.525 E0.42087
G1 X181.751 Y155.525 E0.01673
G1 X191.774 Y165.548 E0.44453
G1 X191.774 Y166.081 E0.01673
G1 X181.218 Y155.525 E0.46818
G1 X180.684 Y155.525 E0.01673
G1 X191.774 Y166.615 E0.49183
G1 X191.774 Y167.148 E0.01673
G1 X180.151 Y155.525 E0.51549
G1 X179.617 Y155.525 E0.01673
G1 X191.774 Y167.681 E0.53914
G1 X191.774 Y168.215 E0.01673
G1 X179.084 Y155.525 E0.56280
G1 X178.551 Y155.525 E0.01673
G1 X191.774 Y168.748 E0.58645
G1 X191.774 Y169.282 E0.01673
G1 X178.017 Y155.525 E0.61010
G1 X177.484 Y155.525 E0.01673
G1 X191.774 Y169.815 E0.63376
G1 X191.774 Y170.348 E0.01673
G1 X176.951 Y155.525 E0.65741
G1 X176.417 Y155.525 E0.01673
G1 X191.774 Y170.882 E0.68106
G1 X191.774 Y171.415 E0.01673
G1 X175.884 Y155.525 E0.70472
G1 X175.351 Y155.525 E0.01673
G1 X191.774 Y171.948 E0.72837
G1 X191.774 Y172.482 E0.01673
G1 X174.817 Y155.525 E0.75203
G1 X174.284 Y155.525 E0.01673
G1 X191.774 Y173.015 E0.77568
G1 X191.774 Y173.548 E0.01673
G1 X173.751 Y155.525 E0.79933
G1 X173.217 Y155.525 E0.01673
G1 X191.774 Y174.082 E0.82299
G1 X191.774 Y174.615 E0.01673
G1 X172.684 Y155.525 E0.84664
G1 X172.150 Y155.525 E0.01673
G1 X191.774 Y175.148 E0.87029
G1 X191.774 Y175.682 E0.01673
G1 X171.617 Y155.525 E0.89395
G1 X171.084 Y155.525 E0.01673
G1 X191.774 Y176.215 E0.91760
G1 X191.774 Y176.749 E0.01673
G1 X170.550 Y155.525 E0.94126
G1 X170.017 Y155.525 E0.01673
G1 X191.774 Y177.282 E0.96491
G1 X191.774 Y177.815 E0.01673
G1 X169.484 Y155.525 E0.98856
G1 X168.950 Y155.525 E0.01673
G1 X191.774 Y178.349 E1.01222
G1 X191.774 Y178.882 E0.01673
G1 X168.417 Y155.525 E1.03587
G1 X167.884 Y155.525 E0.01673
G1 X191.774 Y179.415 E1.05952
G1 X191.774 Y179.949 E0.01673
G1 X167.350 Y155.525 E1.08318
G1 X166.817 Y155.525 E0.01673
G1 X191.774 Y180.482 E1.10683
G1 X191.774 Y181.015 E0.01673
G1 X166.284 Y155.525 E1.13049
G1 X165.750 Y155.525 E0.01673
G1 X191.774 Y181.549 E1.15414
G1 X191.774 Y182.082 E0.01673
G1 X165.217 Y155.525 E1.17779
G1 X164.684 Y155.525 E0.01673
G1 X191.774 Y182.615 E1.20145
G1 X191.774 Y183.149 E0.01673
G1 X164.150 Y155.525 E1.22510
G1 X163.617 Y155.525 E0.01673
G1 X191.774 Y183.682 E1.24875
G1 X191.774 Y184.216 E0.01673
G1 X163.083 Y155.525 E1.27241
G1 X162.550 Y155.525 E0.01673
G1 X191.774 Y184.749 E1.29606
G1 X191.774 Y185.282 E0.01673
G1 X162.017 Y155.525 E1.31971
G1 X161.483 Y155.525 E0.01673
G1 X191.774 Y185.816 E1.34337
G1 X191.774 Y186.349 E0.01673
G1 X160.950 Y155.525 E1.36702
G1 X160.417 Y155.525 E0.01673
G1 X191.774 Y186.882 E1.39068
G1 X191.774 Y187.416 E0.01673
G1 X159.883 Y155.525 E1.41433
G1 X159.350 Y155.525 E0.01673
G1 X191.774 Y187.949 E1.43798
G1 X191.774 Y188.482 E0.01673
G1 X158.817 Y155.525 E1.46164
G1 X158.283 Y155.525 E0.01673
G1 X191.344 Y188.585 E1.46618
G1 X190.810 Y188.585 E0.01673
G1 X157.750 Y155.525 E1.46618
G1 X157.217 Y155.525 E0.01673
G1 X190.277 Y188.585 E1.46618
G1 X189.743 Y188.585 E0.01673
G1 X156.683 Y155.525 E1.46618
G1 X156.150 Y155.525 E0.01673
G1 X189.210 Y188.585 E1.46618
G1 X188.677 Y188.585 E0.01673
G1 X155.616 Y155.525 E1.46618
G1 X155.083 Y155.525 E0.01673
G1 X188.143 Y188.585 E1.46618
G1 X187.610 Y188.585 E0.01673
G1 X154.550 Y155.525 E1.46618
G1 X154.016 Y155.525 E0.01673
G1 X187.077 Y188.585 E1.46618
G1 X186.543 Y188.585 E0.01673
G1 X153.483 Y155.525 E1.46618
G1 X152.950 Y155.525 E0.01673
G1 X186.010 Y188.585 E1.46618
G1 X185.477 Y188.585 E0.01673
G1 X152.416 Y155.525 E1.46618
G1 X151.883 Y155.525 E0.01673
G1 X184.943 Y188.585 E1.46618
G1 X184.410 Y188.585 E0.01673
G1 X151.350 Y155.525 E1.46618
G1 X150.816 Y155.525 E0.01673
G1 X183.877 Y188.585 E1.46618
G1 X183.343 Y188.585 E0.01673
G1 X150.283 Y155.525 E1.46618
G1 X149.750 Y155.525 E0.01673
G1 X182.810 Y188.585 E1.46618
G1 X182.276 Y188.585 E0.01673
G1 X149.216 Y155.525 E1.46618
G1 X148.683 Y155.525 E0.01673
G1 X181.743 Y188.585 E1.46618
G1 X181.210 Y188.585 E0.01673
G1 X148.149 Y155.525 E1.46618
G1 X147.616 Y155.525 E0.01673
G1 X180.676 Y188.585 E1.46618
G1 X180.143 Y188.585 E0.01673
G1 X147.083 Y155.525 E1.46618
G1 X146.549 Y155.525 E0.01673
G1 X179.610 Y188.585 E1.46618
G1 X179.076 Y188.585 E0.01673
G1 X146.016 Y155.525 E1.46618
G1 X145.483 Y155.525 E0.01673
G1 X178.543 Y188.585 E1.46618
G1 X178.010 Y188.585 E0.01673
G1 X144.949 Y155.525 E1.46618
G1 X144.416 Y155.525 E0.01673
G1 X177.476 Y188.585 E1.46618
G1 X176.943 Y188.585 E0.01673
G1 X143.883 Y155.525 E1.46618
G1 X143.349 Y155.525 E0.01673
G1 X176.410 Y188.585 E1.46618
G1 X175.876 Y188.585 E0.01673
G1 X142.816 Y155.525 E1.46618
G1 X142.283 Y155.525 E0.01673
G1 X175.343 Y188.585 E1.46618
G1 X174.809 Y188.585 E0.01673
G1 X141.749 Y155.525 E1.46618
G1 X141.216 Y155.525 E0.01673
G1 X174.276 Y188.585 E1.46618
G1 X173.743 Y188.585 E0.01673
G1 X140.682 Y155.525 E1.46618
G1 X140.149 Y155.525 E0.01673
G1 X173.209 Y188.585 E1.46618
G1 X172.676 Y188.585 E0.01673
G1 X139.616 Y155.525 E1.46618
G1 X139.082 Y155.525 E0.01673
G1 X172.143 Y188.585 E1.46618
G1 X171.609 Y188.585 E0.01673
G1 X138.549 Y155.525 E1.46618
G1 X138.016 Y155.525 E0.01673
G1 X171.076 Y188.585 E1.46618
G1 X170.543 Y188.585 E0.01673
G1 X137.482 Y155.525 E1.46618
G1 X136.949 Y155.525 E0.01673
G1 X170.009 Y188.585 E1.46618
G1 X169.476 Y188.585 E0.01673
G1 X136.416 Y155.525 E1.46618
G1 X135.882 Y155.525 E0.01673
G1 X168.943 Y188.585 E1.46618
G1 X168.409 Y188.585 E0.01673
G1 X135.349 Y155.525 E1.46618
G1 X134.816 Y155.525 E0.01673
G1 X167.876 Y188.585 E1.46618
G1 X167.342 Y188.585 E0.01673
G1 X134.282 Y155.525 E1.46618
G1 X133.749 Y155.525 E0.01673
G1 X166.809 Y188.585 E1.46618
G1 X166.276 Y188.585 E0.01673
G1 X133.215 Y155.525 E1.46618
G1 X132.682 Y155.525 E0.01673
G1 X165.742 Y188.585 E1.46618
G1 X165.209 Y188.585 E0.01673
G1 X132.149 Y155.525 E1.46618
G1 X131.615 Y155.525 E0.01673
G1 X164.676 Y188.585 E1.46618
G1 X164.142 Y188.585 E0.01673
G1 X131.082 Y155.525 E1.46618
G1 X130.549 Y155.525 E0.01673
G1 X163.609 Y188.585 E1.46618
G1 X163.076 Y188.585 E0.01673
G1 X130.015 Y155.525 E1.46618
G1 X129.482 Y155.525 E0.01673
G1 X162.542 Y188.585 E1.46618
G1 X162.009 Y188.585 E0.01673
G1 X128.949 Y155.525 E1.46618
G1 X128.415 Y155.525 E0.01673
G1 X161.476 Y188.585 E1.46618
G1 X160.942 Y188.585 E0.01673
G1 X127.882 Y155.525 E1.46618
G1 X127.349 Y155.525 E0.01673
G1 X160.409 Y188.585 E1.46618
G1 X159.875 Y188.585 E0.01673
G1 X126.815 Y155.525 E1.46618
G1 X126.282 Y155.525 E0.01673
G1 X159.342 Y188.585 E1.46618
G1 X158.809 Y188.585 E0.01673
G1 X125.748 Y155.525 E1.46618
G1 X125.215 Y155.525 E0.01673
G1 X158.275 Y188.585 E1.46618
G1 X157.742 Y188.585 E0.01673
G1 X124.682 Y155.525 E1.46618
G1 X124.148 Y155.525 E0.01673
G1 X157.209 Y188.585 E1.46618
G1 X156.675 Y188.585 E0.01673
G1 X123.615 Y155.525 E1.46618
G1 X123.082 Y155.525 E0.01673
G1 X156.142 Y188.585 E1.46618
G1 X155.609 Y188.585 E0.01673
G1 X122.548 Y155.525 E1.46618
G1 X122.015 Y155.525 E0.01673
G1 X155.075 Y188.585 E1.46618
G1 X154.542 Y188.585 E0.01673
G1 X121.482 Y155.525 E1.46618
G1 X120.948 Y155.525 E0.01673
G1 X154.009 Y188.585 E1.46618
G1 X153.475 Y188.585 E0.01673
G1 X120.415 Y155.525 E1.46618
G1 X119.882 Y155.525 E0.01673
G1 X152.942 Y188.585 E1.46618
G1 X152.408 Y188.585 E0.01673
G1 X119.348 Y155.525 E1.46618
G1 X118.815 Y155.525 E0.01673
G1 X151.875 Y188.585 E1.46618
G1 X151.342 Y188.585 E0.01673
G1 X118.281 Y155.525 E1.46618
G1 X117.748 Y155.525 E0.01673
G1 X150.808 Y188.585 E1.46618
G1 X150.275 Y188.585 E0.01673
G1 X117.215 Y155.525 E1.46618
G1 X116.681 Y155.525 E0.01673
G1 X149.742 Y188.585 E1.46618
G1 X149.208 Y188.585 E0.01673
G1 X116.148 Y155.525 E1.46618
G1 X115.615 Y155.525 E0.01673
G1 X148.675 Y188.585 E1.46618
G1 X148.142 Y188.585 E0.01673
G1 X115.081 Y155.525 E1.46618
G1 X114.548 Y155.525 E0.01673
G1 X147.608 Y188.585 E1.46618
G1 X147.075 Y188.585 E0.01673
G1 X114.015 Y155.525 E1.46618
G1 X113.481 Y155.525 E0.01673
G1 X146.542 Y188.585 E1.46618
G1 X146.008 Y188.585 E0.01673
G1 X112.948 Y155.525 E1.46618
G1 X112.415 Y155.525 E0.01673
G1 X145.475 Y188.585 E1.46618
G1 X144.941 Y188.585 E0.01673
G1 X111.881 Y155.525 E1.46618
G1 X111.348 Y155.525 E0.01673
G1 X144.408 Y188.585 E1.46618
G1 X143.875 Y188.585 E0.01673
G1 X110.814 Y155.525 E1.46618
G1 X110.281 Y155.525 E0.01673
G1 X143.341 Y188.585 E1.46618
G1 X142.808 Y188.585 E0.01673
G1 X109.748 Y155.525 E1.46618
G1 X109.214 Y155.525 E0.01673
G1 X142.275 Y188.585 E1.46618
G1 X141.741 Y188.585 E0.01673
G1 X108.681 Y155.525 E1.46618
G1 X108.148 Y155.525 E0.01673
G1 X141.208 Y188.585 E1.46618
G1 X140.675 Y188.585 E0.01673
G1 X107.614 Y155.525 E1.46618
G1 X107.081 Y155.525 E0.01673
G1 X140.141 Y188.585 E1.46618
G1 X139.608 Y188.585 E0.01673
G1 X106.548 Y155.525 E1.46618
G1 X106.014 Y155.525 E0.01673
G1 X139.075 Y188.585 E1.46618
G1 X138.541 Y188.585 E0.01673
G1 X105.481 Y155.525 E1.46618
G1 X104.948 Y155.525 E0.01673
G1 X138.008 Y188.585 E1.46618
G1 X137.475 Y188.585 E0.01673
G1 X104.414 Y155.525 E1.46618
G1 X103.881 Y155.525 E0.01673
G1 X136.941 Y188.585 E1.46618
G1 X136.408 Y188.585 E0.01673
G1 X103.348 Y155.525 E1.46618
G1 X102.814 Y155.525 E0.01673
G1 X135.874 Y188.585 E1.46618
G1 X135.341 Y188.585 E0.01673
G1 X102.281 Y155.525 E1.46618
G1 X101.747 Y155.525 E0.01673
G1 X134.808 Y188.585 E1.46618
G1 X134.274 Y188.585 E0.01673
G1 X101.214 Y155.525 E1.46618
G1 X100.681 Y155.525 E0.01673
G1 X133.741 Y188.585 E1.46618
G1 X133.208 Y188.585 E0.01673
G1 X100.147 Y155.525 E1.46618
G1 X99.614 Y155.525 E0.01673
G1 X132.674 Y188.585 E1.46618
G1 X132.141 Y188.585 E0.01673
G1 X99.081 Y155.525 E1.46618
G1 X98.547 Y155.525 E0.01673
G1 X131.608 Y188.585 E1.46618
G1 X131.074 Y188.585 E0.01673
G1 X98.014 Y155.525 E1.46618
G1 X97.481 Y155.525 E0.01673
G1 X130.541 Y188.585 E1.46618
G1 X130.008 Y188.585 E0.01673
G1 X96.947 Y155.525 E1.46618
G1 X96.414 Y155.525 E0.01673
G1 X129.474 Y188.585 E1.46618
G1 X128.941 Y188.585 E0.01673
G1 X95.881 Y155.525 E1.46618
G1 X95.347 Y155.525 E0.01673
G1 X128.407 Y188.585 E1.46618
G1 X127.874 Y188.585 E0.01673
G1 X94.814 Y155.525 E1.46618
G1 X94.280 Y155.525 E0.01673
G1 X127.341 Y188.585 E1.46618
G1 X126.807 Y188.585 E0.01673
G1 X93.747 Y155.525 E1.46618
G1 X93.214 Y155.525 E0.01673
G1 X126.274 Y188.585 E1.46618
G1 X125.741 Y188.585 E0.01673
G1 X92.680 Y155.525 E1.46618
G1 X92.147 Y155.525 E0.01673
G1 X125.207 Y188.585 E1.46618
G1 X124.674 Y188.585 E0.01673
G1 X91.614 Y155.525 E1.46618
G1 X91.080 Y155.525 E0.01673
G1 X124.141 Y188.585 E1.46618
G1 X123.607 Y188.585 E0.01673
G1 X90.547 Y155.525 E1.46618
G1 X90.014 Y155.525 E0.01673
G1 X123.074 Y188.585 E1.46618
G1 X122.541 Y188.585 E0.01673
G1 X89.480 Y155.525 E1.46618
G1 X88.947 Y155.525 E0.01673
G1 X122.007 Y188.585 E1.46618
G1 X121.474 Y188.585 E0.01673
G1 X88.414 Y155.525 E1.46618
G1 X87.880 Y155.525 E0.01673
G1 X120.940 Y188.585 E1.46618
G1 X120.407 Y188.585 E0.01673
G1 X87.347 Y155.525 E1.46618
G1 X86.813 Y155.525 E0.01673
G1 X119.874 Y188.585 E1.46618
G1 X119.340 Y188.585 E0.01673
G1 X86.280 Y155.525 E1.46618
G1 X85.747 Y155.525 E0.01673
G1 X118.807 Y188.585 E1.46618
G1 X118.274 Y188.585 E0.01673
G1 X85.213 Y155.525 E1.46618
G1 X84.680 Y155.525 E0.01673
G1 X117.740 Y188.585 E1.46618
G1 X117.207 Y188.585 E0.01673
G1 X84.147 Y155.525 E1.46618
G1 X83.613 Y155.525 E0.01673
G1 X116.674 Y188.585 E1.46618
G1 X116.140 Y188.585 E0.01673
G1 X83.080 Y155.525 E1.46618
G1 X82.547 Y155.525 E0.01673
G1 X115.607 Y188.585 E1.46618
G1 X115.074 Y188.585 E0.01673
G1 X82.013 Y155.525 E1.46618
G1 X81.480 Y155.525 E0.01673
G1 X114.540 Y188.585 E1.46618
G1 X114.007 Y188.585 E0.01673
G1 X80.947 Y155.525 E1.46618
G1 X80.413 Y155.525 E0.01673
G1 X113.473 Y188.585 E1.46618
G1 X112.940 Y188.585 E0.01673
G1 X79.880 Y155.525 E1.46618
G1 X79.346 Y155.525 E0.01673
G1 X112.407 Y188.585 E1.46618
G1 X111.873 Y188.585 E0.01673
G1 X78.813 Y155.525 E1.46618
G1 X78.280 Y155.525 E0.01673
G1 X111.340 Y188.585 E1.46618
G1 X110.807 Y188.585 E0.01673
G1 X77.746 Y155.525 E1.46618
