; generated by PrusaSlicer 2.3.3+x64 on 2021-10-31 at 12:35:44 UTC

; 

; external perimeters extrusion width = 0.45mm
; perimeters extrusion width = 0.45mm
; infill extrusion width = 0.45mm
; solid infill extrusion width = 0.45mm
; top infill extrusion width = 0.40mm
; support material extrusion width = 0.38mm
; first layer extrusion width = 0.42mm

M201 X500 Y500 Z100 E5000 ; sets maximum accelerations, mm/sec^2
M203 X500 Y500 Z10 E60 ; sets maximum feedrates, mm/sec
M204 P500 R1000 T500 ; sets acceleration (P, T) and retract acceleration (R), mm/sec^2
M205 X8.00 Y8.00 Z0.40 E5.00 ; sets the jerk limits, mm/sec
M205 S0 T0 ; sets the minimum extruding and travel feed rate, mm/sec
M107
;TYPE:Custom
G90 ; use absolute coordinates
M83 ; extruder relative mode
M104 S200 ; set extruder temp
M140 S60 ; set bed temp
M190 S60 ; wait for bed temp
M109 S200 ; wait for extruder temp
G28 ; home all
G1 Z2 F240
G1 X2 Y10 F3000
G1 Z0.28 F240
G92 E0
G1 Y190 E15 F1500 ; intro line
G1 X2.3 F5000
G92 E0
G1 Y10 E15 F1200 ; intro line
G92 E0
G21 ; set units to millimeters
G90 ; use absolute coordinates
M83 ; use relative distances for extrusion
; Filament gcode
;LAYER_CHANGE
;Z:0.2
;HEIGHT:0.2
;BEFORE_LAYER_CHANGE
G92 E0
;0.2


G1 E-6.50000 F3000.000
G1 Z0.200 F9000.000
;AFTER_LAYER_CHANGE
;0.2
G1 X161.963 Y78.480
G1 E6.50000 F2400.000
;TYPE:Skirt
;WIDTH:0.42
G1 F1200.000
G1 X161.271 Y79.146 E0.03013
G1 X160.665 Y79.418 E0.02083
G1 X160.003 Y79.512 E0.02095
G1 X84.741 Y79.159 E2.35981
G1 X66.073 Y78.858 E0.58541
G1 X65.524 Y78.754 E0.01752
G1 X65.018 Y78.527 E0.01740
G1 X64.575 Y78.187 E0.01752
G1 X64.224 Y77.752 E0.01752
G1 X63.991 Y77.265 E0.01692
G1 X63.873 Y76.735 E0.01704
G1 X61.870 Y56.200 E0.64692
G1 X61.862 Y55.373 E0.02592
G1 X65.838 Y20.546 E1.09908
G1 X65.965 Y20.044 E0.01621
G1 X66.196 Y19.582 E0.01621
G1 X66.522 Y19.181 E0.01621
G1 X66.928 Y18.860 E0.01621
G1 X67.527 Y18.590 E0.02060
G1 X68.179 Y18.495 E0.02068
G1 X98.353 Y18.326 E0.94610
G1 X158.696 Y18.326 E1.89199
G1 X166.302 Y18.496 E0.23856
G1 X166.803 Y18.564 E0.01585
G1 X167.504 Y18.863 E0.02390
G1 X168.072 Y19.366 E0.02378
G1 X168.455 Y20.026 E0.02390
G1 X168.608 Y20.772 E0.02390
G1 X168.599 Y27.495 E0.21080
G1 X164.636 Y62.175 E1.09443
G1 X162.335 Y77.597 E0.48892
G1 X161.987 Y78.424 E0.02813
G1 E-4.55000 F3000.000
;WIPE_START
G1 F7200.000
G1 X161.271 Y79.146 E-0.40225
G1 X160.665 Y79.418 E-0.26299
G1 X160.003 Y79.512 E-0.26448
G1 X157.672 Y79.501 E-0.92278
;WIPE_END
G1 E-0.09750 F3000.000
G1 X162.277 Y61.878 F9000.000
G1 E6.50000 F2400.000
;TYPE:Support material
G1 F1200.000
G1 X162.277 Y55.483 E0.20051
G1 X161.523 Y55.483 E0.02365
G1 X161.523 Y61.697 E0.19483
G1 X160.769 Y61.686 E0.02365
G1 X160.769 Y55.483 E0.19447
G1 X160.015 Y55.483 E0.02365
G1 X160.015 Y58.674 E0.10004
G1 X159.260 Y58.663 E0.02365
G1 X159.260 Y55.483 E0.09968
G1 X158.506 Y55.483 E0.02365
G1 X158.506 Y58.651 E0.09932
G1 X157.752 Y58.640 E0.02365
G1 X157.752 Y55.483 E0.09896
G1 X156.998 Y55.483 E0.02365
G1 X156.998 Y58.628 E0.09860
G1 X156.244 Y58.617 E0.02365
G1 X156.244 Y55.483 E0.09824
G1 X155.490 Y55.483 E0.02365
G1 X155.490 Y61.606 E0.19195
G1 X154.735 Y61.594 E0.02365
G1 X154.735 Y55.314 E0.19692
G1 E-4.55000 F3000.000
;WIPE_START
G1 F7200.000
G1 X154.735 Y59.994 E-1.85250
;WIPE_END
G1 E-0.09750 F3000.000
G1 X148.702 Y61.824 F9000.000
G1 E6.50000 F2400.000
G1 F1200.000
G1 X148.702 Y55.483 E0.19880
G1 X147.948 Y55.483 E0.02365
G1 X147.948 Y61.643 E0.19312
G1 X147.194 Y61.631 E0.02365
G1 X147.194 Y55.483 E0.19276
G1 X146.440 Y55.483 E0.02365
G1 X146.440 Y58.678 E0.10017
G1 X146.382 Y58.619 E0.00259
G1 X145.686 Y58.608 E0.02184
G1 X145.686 Y55.483 E0.09797
G1 X144.931 Y55.483 E0.02365
G1 X144.931 Y58.597 E0.09762
G1 X144.177 Y58.585 E0.02365
G1 X144.177 Y55.483 E0.09726
G1 X143.423 Y55.483 E0.02365
G1 X143.423 Y58.574 E0.09690
G1 X142.669 Y58.562 E0.02365
G1 X142.669 Y55.483 E0.09654
G1 X141.915 Y55.483 E0.02365
G1 X141.915 Y58.638 E0.09890
G1 X141.730 Y58.817 E0.00807
G1 X141.689 Y61.548 E0.08564
G1 X141.161 Y61.540 E0.01656
G1 X141.161 Y55.314 E0.19521
G1 E-4.55000 F3000.000
;WIPE_START
G1 F7200.000
G1 X141.161 Y59.994 E-1.85250
;WIPE_END
G1 E-0.09750 F3000.000
G1 X132.111 Y63.950 F9000.000
G1 E6.50000 F2400.000
G1 F1200.000
G1 X132.111 Y55.483 E0.26546
G1 X131.357 Y55.483 E0.02365
G1 X131.357 Y63.780 E0.26014
G1 X130.602 Y63.780 E0.02365
G1 X130.602 Y55.483 E0.26014
G1 X129.848 Y55.483 E0.02365
G1 X129.848 Y63.780 E0.26014
G1 X129.469 Y63.780 E0.01189
G1 X129.545 Y58.745 E0.15789
G1 X129.281 Y58.473 E0.01191
G1 X129.094 Y58.470 E0.00586
G1 X129.094 Y55.483 E0.09363
G1 X128.340 Y55.483 E0.02365
G1 X128.340 Y58.458 E0.09327
G1 X127.586 Y58.447 E0.02365
G1 X127.586 Y55.483 E0.09291
G1 X126.832 Y55.483 E0.02365
G1 X126.832 Y58.435 E0.09255
G1 X126.077 Y58.424 E0.02365
G1 X126.077 Y55.483 E0.09219
G1 X125.323 Y55.483 E0.02365
G1 X125.323 Y58.412 E0.09184
G1 X124.902 Y58.406 E0.01323
G1 X124.629 Y58.671 E0.01191
G1 X124.569 Y62.604 E0.12335
G1 X124.569 Y55.483 E0.22327
G1 X123.815 Y55.483 E0.02365
G1 X123.815 Y64.363 E0.27842
G1 X123.061 Y64.358 E0.02365
G1 X123.061 Y55.483 E0.27824
G1 X122.307 Y55.483 E0.02365
G1 X122.307 Y64.522 E0.28338
G1 E-4.55000 F3000.000
;WIPE_START
G1 F7200.000
G1 X122.307 Y59.842 E-1.85250
;WIPE_END
G1 E-0.09750 F3000.000
G1 X118.536 Y63.950 F9000.000
G1 E6.50000 F2400.000
G1 F1200.000
G1 X118.536 Y55.483 E0.26546
G1 X117.782 Y55.483 E0.02365
G1 X117.782 Y63.780 E0.26014
G1 X117.028 Y63.780 E0.02365
G1 X117.028 Y55.483 E0.26014
G1 X116.273 Y55.483 E0.02365
G1 X116.273 Y63.780 E0.26014
G1 X115.519 Y63.780 E0.02365
G1 X115.519 Y55.483 E0.26014
G1 X114.765 Y55.483 E0.02365
G1 X114.765 Y58.278 E0.08763
G1 X114.011 Y58.267 E0.02365
G1 X114.011 Y55.483 E0.08728
G1 X113.257 Y55.483 E0.02365
G1 X113.257 Y58.256 E0.08692
G1 X112.503 Y58.244 E0.02365
G1 X112.503 Y55.483 E0.08656
G1 X111.748 Y55.483 E0.02365
G1 X111.748 Y58.233 E0.08620
G1 X110.994 Y58.221 E0.02365
G1 X110.994 Y55.483 E0.08584
G1 X110.240 Y55.483 E0.02365
G1 X110.240 Y64.671 E0.28807
G1 X109.486 Y64.665 E0.02365
G1 X109.486 Y55.483 E0.28789
G1 X108.732 Y55.483 E0.02365
G1 X108.732 Y64.659 E0.28771
G1 X107.978 Y64.654 E0.02365
G1 X107.978 Y55.314 E0.29285
G1 E-4.55000 F3000.000
;WIPE_START
G1 F7200.000
G1 X107.978 Y59.994 E-1.85250
;WIPE_END
G1 E-0.09750 F3000.000
G1 X101.944 Y61.480 F9000.000
G1 E6.50000 F2400.000
G1 F1200.000
G1 X101.944 Y55.483 E0.18803
G1 X101.190 Y55.483 E0.02365
G1 X101.190 Y61.299 E0.18235
G1 X100.885 Y61.295 E0.00956
G1 X100.927 Y58.564 E0.08564
G1 X100.662 Y58.291 E0.01191
G1 X100.436 Y58.288 E0.00710
G1 X100.436 Y55.483 E0.08792
G1 X99.682 Y55.483 E0.02365
G1 X99.682 Y58.276 E0.08756
G1 X98.928 Y58.265 E0.02365
G1 X98.928 Y55.483 E0.08721
G1 X98.174 Y55.483 E0.02365
G1 X98.174 Y58.253 E0.08685
G1 X97.419 Y58.242 E0.02365
G1 X97.419 Y55.483 E0.08649
G1 X96.665 Y55.483 E0.02365
G1 X96.665 Y58.230 E0.08613
G1 X96.283 Y58.225 E0.01199
G1 X96.010 Y58.489 E0.01191
G1 X95.969 Y61.220 E0.08564
G1 X95.911 Y61.219 E0.00181
G1 X95.911 Y55.483 E0.17984
G1 X95.157 Y55.483 E0.02365
G1 X95.157 Y61.208 E0.17948
G1 X94.403 Y61.196 E0.02365
G1 X94.403 Y55.314 E0.18444
G1 E-4.55000 F3000.000
;WIPE_START
G1 F7200.000
G1 X94.403 Y59.994 E-1.85250
;WIPE_END
G1 E-0.09750 F3000.000
G1 X87.615 Y66.287 F9000.000
G1 E6.50000 F2400.000
G1 F1200.000
G1 X87.615 Y55.483 E0.33874
G1 X86.861 Y55.483 E0.02365
G1 X86.861 Y66.117 E0.33342
G1 X86.107 Y66.117 E0.02365
G1 X86.107 Y55.483 E0.33342
G1 X85.353 Y55.483 E0.02365
G1 X85.353 Y58.439 E0.09266
G1 X85.246 Y58.328 E0.00483
G1 X84.599 Y58.318 E0.02029
G1 X84.599 Y55.483 E0.08889
G1 X83.845 Y55.483 E0.02365
G1 X83.845 Y58.307 E0.08853
G1 X83.090 Y58.296 E0.02365
G1 X83.090 Y55.483 E0.08817
G1 X82.336 Y55.483 E0.02365
G1 X82.336 Y58.284 E0.08781
G1 X81.582 Y58.273 E0.02365
G1 X81.582 Y55.483 E0.08745
G1 X80.828 Y55.483 E0.02365
G1 X80.828 Y58.299 E0.08828
G1 X80.594 Y58.526 E0.01023
G1 X80.478 Y66.117 E0.23804
G1 X80.074 Y66.117 E0.01269
G1 X80.074 Y55.483 E0.33342
G1 X79.320 Y55.483 E0.02365
G1 X79.320 Y66.117 E0.33342
G1 X78.565 Y66.117 E0.02365
G1 X78.565 Y55.483 E0.33342
G1 X77.811 Y55.483 E0.02365
G1 X77.811 Y66.287 E0.33874
G1 E-4.55000 F3000.000
;WIPE_START
G1 F7200.000
G1 X77.811 Y61.607 E-1.85250
;WIPE_END
G1 E-0.09750 F3000.000
G1 X74.040 Y63.950 F9000.000
G1 E6.50000 F2400.000
G1 F1200.000
G1 X74.040 Y55.483 E0.26546
G1 X73.286 Y55.483 E0.02365
G1 X73.286 Y63.780 E0.26014
G1 X72.532 Y63.780 E0.02365
G1 X72.532 Y55.483 E0.26014
G1 X71.778 Y55.483 E0.02365
G1 X71.778 Y63.780 E0.26014
G1 X71.024 Y63.780 E0.02365
G1 X71.024 Y55.483 E0.26014
G1 X70.270 Y55.483 E0.02365
G1 X70.270 Y58.087 E0.08164
G1 X69.516 Y58.076 E0.02365
G1 X69.516 Y55.483 E0.08129
G1 X68.761 Y55.483 E0.02365
G1 X68.761 Y58.064 E0.08093
G1 X68.007 Y58.053 E0.02365
G1 X68.007 Y55.483 E0.08057
G1 X67.253 Y55.483 E0.02365
G1 X67.253 Y58.042 E0.08021
G1 X66.499 Y58.030 E0.02365
G1 X66.499 Y55.483 E0.07985
G1 X65.745 Y55.483 E0.02365
G1 X65.745 Y57.288 E0.05657
G1 X64.991 Y56.510 E0.03396
G1 X64.991 Y55.483 E0.03220
G1 X64.236 Y55.483 E0.02365
G1 X64.236 Y55.977 E0.01546
G1 E-4.55000 F3000.000
;WIPE_START
G1 F7200.000
G1 X64.236 Y55.483 E-0.19522
G1 X64.991 Y55.483 E-0.29852
G1 X64.991 Y56.510 E-0.40648
G1 X65.745 Y57.288 E-0.42873
G1 X65.745 Y55.965 E-0.52356
;WIPE_END
G1 E-0.09750 F3000.000
G1 X156.954 Y59.773 F9000.000
G1 E6.50000 F2400.000
;TYPE:Perimeter
G1 F1200.000
G1 X159.579 Y59.813 E0.08233
G1 X159.327 Y76.437 E0.52129
G1 X156.701 Y76.397 E0.08233
G1 X156.953 Y59.833 E0.51941
G1 X156.582 Y59.391 F9000.000
;TYPE:External perimeter
G1 F1200.000
G1 X159.962 Y59.442 E0.10598
G1 X159.698 Y76.820 E0.54494
G1 X156.319 Y76.769 E0.10598
G1 X156.582 Y59.451 E0.54306
G1 X156.938 Y59.573 F9000.000
G1 E-4.55000 F3000.000
;WIPE_START
G1 F7200.000
G1 X159.962 Y59.442 E-1.33813
G1 X159.942 Y60.741 E-0.51437
;WIPE_END
G1 E-0.09750 F3000.000
G1 X158.672 Y59.913 F9000.000
G1 E6.50000 F2400.000
;TYPE:Solid infill
;WIDTH:0.428496
G1 F1200.000
G1 X159.286 Y60.526 E0.02782
G1 X159.278 Y61.063 E0.01722
G1 X158.291 Y60.076 E0.04474
G1 X157.737 Y60.068 E0.01775
G1 X159.269 Y61.600 E0.06947
G1 X159.261 Y62.137 E0.01722
G1 X157.232 Y60.108 E0.09203
G1 X157.223 Y60.645 E0.01722
G1 X159.253 Y62.675 E0.09203
G1 X159.245 Y63.212 E0.01722
G1 X157.215 Y61.182 E0.09203
G1 X157.207 Y61.719 E0.01722
G1 X159.237 Y63.749 E0.09203
G1 X159.229 Y64.286 E0.01722
G1 X157.199 Y62.256 E0.09203
G1 X157.191 Y62.793 E0.01722
G1 X159.220 Y64.823 E0.09203
G1 X159.212 Y65.360 E0.01722
G1 X157.183 Y63.330 E0.09203
G1 X157.174 Y63.868 E0.01722
G1 X159.204 Y65.897 E0.09203
G1 X159.196 Y66.434 E0.01722
G1 X157.166 Y64.405 E0.09203
G1 X157.158 Y64.942 E0.01722
G1 X159.188 Y66.972 E0.09203
G1 X159.180 Y67.509 E0.01722
G1 X157.150 Y65.479 E0.09203
G1 X157.142 Y66.016 E0.01722
G1 X159.171 Y68.046 E0.09203
G1 X159.163 Y68.583 E0.01722
G1 X157.134 Y66.553 E0.09203
G1 X157.125 Y67.090 E0.01722
G1 X159.155 Y69.120 E0.09203
G1 X159.147 Y69.657 E0.01722
G1 X157.117 Y67.628 E0.09203
G1 X157.109 Y68.165 E0.01722
G1 X159.139 Y70.194 E0.09203
G1 X159.131 Y70.731 E0.01722
G1 X157.101 Y68.702 E0.09203
G1 X157.093 Y69.239 E0.01722
G1 X159.123 Y71.269 E0.09203
G1 X159.114 Y71.806 E0.01722
G1 X157.085 Y69.776 E0.09203
G1 X157.077 Y70.313 E0.01722
G1 X159.106 Y72.343 E0.09203
G1 X159.098 Y72.880 E0.01722
G1 X157.068 Y70.850 E0.09203
G1 X157.060 Y71.387 E0.01722
G1 X159.090 Y73.417 E0.09203
G1 X159.082 Y73.954 E0.01722
G1 X157.052 Y71.925 E0.09203
G1 X157.044 Y72.462 E0.01722
G1 X159.074 Y74.491 E0.09203
G1 X159.065 Y75.029 E0.01722
G1 X157.036 Y72.999 E0.09203
G1 X157.028 Y73.536 E0.01722
G1 X159.057 Y75.566 E0.09203
G1 X159.049 Y76.103 E0.01722
G1 X157.019 Y74.073 E0.09203
G1 X157.011 Y74.610 E0.01722
G1 X158.543 Y76.142 E0.06947
G1 X157.990 Y76.134 E0.01775
G1 X157.003 Y75.147 E0.04473
G1 X156.995 Y75.685 E0.01722
G1 X157.608 Y76.298 E0.02781
G1 E-4.55000 F3000.000
;WIPE_START
G1 F7200.000
G1 X156.995 Y75.685 E-0.34336
G1 X157.003 Y75.147 E-0.21264
G1 X157.990 Y76.134 E-0.55229
G1 X158.543 Y76.142 E-0.21920
G1 X157.606 Y75.204 E-0.52502
;WIPE_END
G1 E-0.09750 F3000.000
G1 X145.235 Y76.375 F9000.000
G1 E6.50000 F2400.000
;TYPE:Perimeter
;WIDTH:0.42
G1 F1200.000
G1 X142.610 Y76.335 E0.08233
G1 X142.862 Y59.711 E0.52129
G1 X145.488 Y59.751 E0.08233
G1 X145.236 Y76.315 E0.51941
G1 X145.607 Y76.758 F9000.000
;TYPE:External perimeter
G1 F1200.000
G1 X142.227 Y76.706 E0.10598
G1 X142.491 Y59.328 E0.54494
G1 X145.871 Y59.380 E0.10598
G1 X145.608 Y76.698 E0.54306
G1 X145.251 Y76.575 F9000.000
G1 E-4.55000 F3000.000
;WIPE_START
G1 F7200.000
G1 X142.227 Y76.706 E-1.33813
G1 X142.247 Y75.407 E-0.51437
;WIPE_END
G1 E-0.09750 F3000.000
G1 X144.581 Y59.850 F9000.000
G1 E6.50000 F2400.000
;TYPE:Solid infill
;WIDTH:0.428496
G1 F1200.000
G1 X145.194 Y60.464 E0.02782
G1 X145.186 Y61.001 E0.01722
G1 X144.199 Y60.014 E0.04474
G1 X143.646 Y60.006 E0.01775
G1 X145.178 Y61.538 E0.06947
G1 X145.170 Y62.075 E0.01722
G1 X143.140 Y60.045 E0.09203
G1 X143.132 Y60.583 E0.01722
G1 X145.162 Y62.612 E0.09203
G1 X145.153 Y63.149 E0.01722
G1 X143.124 Y61.120 E0.09203
G1 X143.116 Y61.657 E0.01722
G1 X145.145 Y63.687 E0.09203
G1 X145.137 Y64.224 E0.01722
G1 X143.107 Y62.194 E0.09203
G1 X143.099 Y62.731 E0.01722
G1 X145.129 Y64.761 E0.09203
G1 X145.121 Y65.298 E0.01722
G1 X143.091 Y63.268 E0.09203
G1 X143.083 Y63.805 E0.01722
G1 X145.113 Y65.835 E0.09203
G1 X145.105 Y66.372 E0.01722
G1 X143.075 Y64.343 E0.09203
G1 X143.067 Y64.880 E0.01722
G1 X145.096 Y66.909 E0.09203
G1 X145.088 Y67.446 E0.01722
G1 X143.059 Y65.417 E0.09203
G1 X143.050 Y65.954 E0.01722
G1 X145.080 Y67.984 E0.09203
G1 X145.072 Y68.521 E0.01722
G1 X143.042 Y66.491 E0.09203
G1 X143.034 Y67.028 E0.01722
G1 X145.064 Y69.058 E0.09203
G1 X145.056 Y69.595 E0.01722
G1 X143.026 Y67.565 E0.09203
G1 X143.018 Y68.102 E0.01722
G1 X145.047 Y70.132 E0.09203
G1 X145.039 Y70.669 E0.01722
G1 X143.010 Y68.640 E0.09203
G1 X143.001 Y69.177 E0.01722
G1 X145.031 Y71.206 E0.09203
G1 X145.023 Y71.744 E0.01722
G1 X142.993 Y69.714 E0.09203
G1 X142.985 Y70.251 E0.01722
G1 X145.015 Y72.281 E0.09203
G1 X145.007 Y72.818 E0.01722
G1 X142.977 Y70.788 E0.09203
G1 X142.969 Y71.325 E0.01722
G1 X144.998 Y73.355 E0.09203
G1 X144.990 Y73.892 E0.01722
G1 X142.961 Y71.862 E0.09203
G1 X142.952 Y72.400 E0.01722
G1 X144.982 Y74.429 E0.09203
G1 X144.974 Y74.966 E0.01722
G1 X142.944 Y72.937 E0.09203
G1 X142.936 Y73.474 E0.01722
G1 X144.966 Y75.503 E0.09203
G1 X144.958 Y76.041 E0.01722
G1 X142.928 Y74.011 E0.09203
G1 X142.920 Y74.548 E0.01722
G1 X144.452 Y76.080 E0.06947
G1 X143.898 Y76.072 E0.01775
G1 X142.912 Y75.085 E0.04473
G1 X142.904 Y75.622 E0.01722
G1 X143.517 Y76.236 E0.02781
G1 E-4.55000 F3000.000
;WIPE_START
G1 F7200.000
G1 X142.904 Y75.622 E-0.34336
G1 X142.912 Y75.085 E-0.21264
G1 X143.898 Y76.072 E-0.55228
G1 X144.452 Y76.080 E-0.21920
G1 X143.514 Y75.142 E-0.52502
;WIPE_END
G1 E-0.09750 F3000.000
G1 X128.134 Y76.229 F9000.000
G1 E6.50000 F2400.000
;TYPE:Perimeter
;WIDTH:0.42
G1 F1200.000
G1 X125.509 Y76.189 E0.08233
G1 X125.761 Y59.565 E0.52129
G1 X128.387 Y59.605 E0.08233
G1 X128.135 Y76.169 E0.51941
G1 X128.505 Y76.611 F9000.000
;TYPE:External perimeter
G1 F1200.000
G1 X125.126 Y76.560 E0.10598
G1 X125.390 Y59.182 E0.54494
G1 X128.769 Y59.233 E0.10598
G1 X128.506 Y76.551 E0.54306
G1 X128.150 Y76.429 F9000.000
G1 E-4.55000 F3000.000
;WIPE_START
G1 F7200.000
G1 X125.126 Y76.560 E-1.33813
G1 X125.146 Y75.261 E-0.51437
;WIPE_END
G1 E-0.09750 F3000.000
G1 X127.479 Y59.704 F9000.000
G1 E6.50000 F2400.000
;TYPE:Solid infill
;WIDTH:0.428496
G1 F1200.000
G1 X128.093 Y60.318 E0.02782
G1 X128.085 Y60.855 E0.01722
G1 X127.098 Y59.868 E0.04474
G1 X126.544 Y59.860 E0.01775
G1 X128.077 Y61.392 E0.06947
G1 X128.068 Y61.929 E0.01722
G1 X126.039 Y59.899 E0.09203
G1 X126.031 Y60.436 E0.01722
G1 X128.060 Y62.466 E0.09203
G1 X128.052 Y63.003 E0.01722
G1 X126.022 Y60.973 E0.09203
G1 X126.014 Y61.511 E0.01722
G1 X128.044 Y63.540 E0.09203
G1 X128.036 Y64.077 E0.01722
G1 X126.006 Y62.048 E0.09203
G1 X125.998 Y62.585 E0.01722
G1 X128.028 Y64.615 E0.09203
