; generated by PrusaSlicer 2.3.3+x64 on 2021-10-29 at 11:24:28 UTC

; 

; external perimeters extrusion width = 0.45mm
; perimeters extrusion width = 0.45mm
; infill extrusion width = 0.45mm
; solid infill extrusion width = 0.45mm
; top infill extrusion width = 0.40mm
; first layer extrusion width = 0.42mm

M201 X500 Y500 Z100 E5000 ; sets maximum accelerations, mm/sec^2
M203 X500 Y500 Z10 E60 ; sets maximum feedrates, mm/sec
M204 P500 R1000 T500 ; sets acceleration (P, T) and retract acceleration (R), mm/sec^2
M205 X8.00 Y8.00 Z0.40 E5.00 ; sets the jerk limits, mm/sec
M205 S0 T0 ; sets the minimum extruding and travel feed rate, mm/sec
M107
;TYPE:Custom
G90 ; use absolute coordinates
M83 ; extruder relative mode
M104 S200 ; set extruder temp
M140 S60 ; set bed temp
M190 S60 ; wait for bed temp
M109 S200 ; wait for extruder temp
G28 ; home all
G1 Z2 F240
G1 X2 Y10 F3000
G1 Z0.28 F240
G92 E0
G1 Y190 E15 F1500 ; intro line
G1 X2.3 F5000
G92 E0
G1 Y10 E15 F1200 ; intro line
G92 E0
G21 ; set units to millimeters
G90 ; use absolute coordinates
M83 ; use relative distances for extrusion
; Filament gcode
;LAYER_CHANGE
;Z:0.2
;HEIGHT:0.2
;BEFORE_LAYER_CHANGE
G92 E0
;0.2


G1 E-6.50000 F3000.000
G1 Z0.200 F9000.000
;AFTER_LAYER_CHANGE
;0.2
G1 X54.720 Y21.063
G1 E6.50000 F2400.000
;TYPE:Skirt
;WIDTH:0.42
G1 F1200.000
G1 X55.055 Y20.441 E0.02213
G1 X55.428 Y20.047 E0.01704
G1 X55.885 Y19.745 E0.01716
G1 X56.395 Y19.558 E0.01704
G1 X56.938 Y19.490 E0.01716
G1 X181.960 Y19.490 E3.91997
G1 X182.823 Y19.654 E0.02755
G1 X183.565 Y20.118 E0.02743
G1 X184.089 Y20.818 E0.02743
G1 X184.324 Y21.661 E0.02743
G1 X184.333 Y46.898 E0.79129
G1 X180.358 Y143.802 E3.04092
G1 X180.059 Y144.688 E0.02931
G1 X161.906 Y175.804 E1.12951
G1 X161.526 Y176.203 E0.01728
G1 X161.065 Y176.505 E0.01728
G1 X160.547 Y176.692 E0.01728
G1 X160.000 Y176.755 E0.01728
G1 X84.749 Y176.402 E2.35945
G1 X66.145 Y176.106 E0.58339
G1 X65.441 Y175.970 E0.02249
G1 X64.809 Y175.631 E0.02249
G1 X64.376 Y175.210 E0.01894
G1 X64.063 Y174.693 E0.01894
G1 X50.818 Y144.443 E1.03541
G1 X50.628 Y143.651 E0.02555
G1 X50.624 Y118.416 E0.79121
G1 X54.582 Y21.759 E3.03316
G1 X54.708 Y21.122 E0.02037
G1 E-4.55000 F3000.000
;WIPE_START
G1 F7200.000
G1 X55.055 Y20.441 E-0.30218
G1 X55.428 Y20.047 E-0.21513
G1 X55.885 Y19.745 E-0.21663
G1 X56.395 Y19.558 E-0.21513
G1 X56.938 Y19.490 E-0.21663
G1 X58.673 Y19.490 E-0.68679
;WIPE_END
G1 E-0.09750 F3000.000
G1 X156.954 Y157.017 F9000.000
G1 E6.50000 F2400.000
;TYPE:Perimeter
G1 F1200.000
G1 X159.579 Y157.057 E0.08233
G1 X159.327 Y173.681 E0.52129
G1 X156.701 Y173.641 E0.08233
G1 X156.953 Y157.077 E0.51941
G1 X156.582 Y156.634 F9000.000
;TYPE:External perimeter
G1 F1200.000
G1 X159.962 Y156.686 E0.10598
G1 X159.698 Y174.064 E0.54494
G1 X156.319 Y174.012 E0.10598
G1 X156.582 Y156.694 E0.54306
G1 X156.938 Y156.817 F9000.000
G1 E-4.55000 F3000.000
;WIPE_START
G1 F7200.000
G1 X159.962 Y156.686 E-1.33813
G1 X159.942 Y157.985 E-0.51437
;WIPE_END
G1 E-0.09750 F3000.000
G1 X158.672 Y157.156 F9000.000
G1 E6.50000 F2400.000
;TYPE:Solid infill
;WIDTH:0.428496
G1 F1200.000
G1 X159.286 Y157.770 E0.02782
G1 X159.278 Y158.307 E0.01722
G1 X158.291 Y157.320 E0.04474
G1 X157.737 Y157.312 E0.01775
G1 X159.269 Y158.844 E0.06947
G1 X159.261 Y159.381 E0.01722
G1 X157.232 Y157.351 E0.09203
G1 X157.223 Y157.889 E0.01722
G1 X159.253 Y159.918 E0.09203
G1 X159.245 Y160.455 E0.01722
G1 X157.215 Y158.426 E0.09203
G1 X157.207 Y158.963 E0.01722
G1 X159.237 Y160.992 E0.09203
G1 X159.229 Y161.530 E0.01722
G1 X157.199 Y159.500 E0.09203
G1 X157.191 Y160.037 E0.01722
G1 X159.220 Y162.067 E0.09203
G1 X159.212 Y162.604 E0.01722
G1 X157.183 Y160.574 E0.09203
G1 X157.174 Y161.111 E0.01722
G1 X159.204 Y163.141 E0.09203
G1 X159.196 Y163.678 E0.01722
G1 X157.166 Y161.648 E0.09203
G1 X157.158 Y162.186 E0.01722
G1 X159.188 Y164.215 E0.09203
G1 X159.180 Y164.752 E0.01722
G1 X157.150 Y162.723 E0.09203
G1 X157.142 Y163.260 E0.01722
G1 X159.171 Y165.290 E0.09203
G1 X159.163 Y165.827 E0.01722
G1 X157.134 Y163.797 E0.09203
G1 X157.125 Y164.334 E0.01722
G1 X159.155 Y166.364 E0.09203
G1 X159.147 Y166.901 E0.01722
G1 X157.117 Y164.871 E0.09203
G1 X157.109 Y165.408 E0.01722
G1 X159.139 Y167.438 E0.09203
G1 X159.131 Y167.975 E0.01722
G1 X157.101 Y165.945 E0.09203
G1 X157.093 Y166.483 E0.01722
G1 X159.123 Y168.512 E0.09203
G1 X159.114 Y169.049 E0.01722
G1 X157.085 Y167.020 E0.09203
G1 X157.077 Y167.557 E0.01722
G1 X159.106 Y169.587 E0.09203
G1 X159.098 Y170.124 E0.01722
G1 X157.068 Y168.094 E0.09203
G1 X157.060 Y168.631 E0.01722
G1 X159.090 Y170.661 E0.09203
G1 X159.082 Y171.198 E0.01722
G1 X157.052 Y169.168 E0.09203
G1 X157.044 Y169.705 E0.01722
G1 X159.074 Y171.735 E0.09203
G1 X159.065 Y172.272 E0.01722
G1 X157.036 Y170.243 E0.09203
G1 X157.028 Y170.780 E0.01722
G1 X159.057 Y172.809 E0.09203
G1 X159.049 Y173.346 E0.01722
G1 X157.019 Y171.317 E0.09203
G1 X157.011 Y171.854 E0.01722
G1 X158.543 Y173.386 E0.06947
G1 X157.990 Y173.378 E0.01775
G1 X157.003 Y172.391 E0.04473
G1 X156.995 Y172.928 E0.01722
G1 X157.608 Y173.542 E0.02781
G1 E-4.55000 F3000.000
;WIPE_START
G1 F7200.000
G1 X156.995 Y172.928 E-0.34336
G1 X157.003 Y172.391 E-0.21264
G1 X157.990 Y173.378 E-0.55229
G1 X158.543 Y173.386 E-0.21920
G1 X157.606 Y172.448 E-0.52502
;WIPE_END
G1 E-0.09750 F3000.000
G1 X145.235 Y173.619 F9000.000
G1 E6.50000 F2400.000
;TYPE:Perimeter
;WIDTH:0.42
G1 F1200.000
G1 X142.610 Y173.579 E0.08233
G1 X142.862 Y156.955 E0.52129
G1 X145.488 Y156.995 E0.08233
G1 X145.236 Y173.559 E0.51941
G1 X145.607 Y174.001 F9000.000
;TYPE:External perimeter
G1 F1200.000
G1 X142.227 Y173.950 E0.10598
G1 X142.491 Y156.572 E0.54494
G1 X145.871 Y156.623 E0.10598
G1 X145.608 Y173.941 E0.54306
G1 X145.251 Y173.818 F9000.000
G1 E-4.55000 F3000.000
;WIPE_START
G1 F7200.000
G1 X142.227 Y173.950 E-1.33813
G1 X142.247 Y172.651 E-0.51437
;WIPE_END
G1 E-0.09750 F3000.000
G1 X144.581 Y157.094 F9000.000
G1 E6.50000 F2400.000
;TYPE:Solid infill
;WIDTH:0.428496
G1 F1200.000
G1 X145.194 Y157.707 E0.02782
G1 X145.186 Y158.245 E0.01722
G1 X144.199 Y157.258 E0.04474
G1 X143.646 Y157.249 E0.01775
G1 X145.178 Y158.782 E0.06947
G1 X145.170 Y159.319 E0.01722
G1 X143.140 Y157.289 E0.09203
G1 X143.132 Y157.826 E0.01722
G1 X145.162 Y159.856 E0.09203
G1 X145.153 Y160.393 E0.01722
G1 X143.124 Y158.363 E0.09203
G1 X143.116 Y158.901 E0.01722
G1 X145.145 Y160.930 E0.09203
G1 X145.137 Y161.467 E0.01722
G1 X143.107 Y159.438 E0.09203
G1 X143.099 Y159.975 E0.01722
G1 X145.129 Y162.005 E0.09203
G1 X145.121 Y162.542 E0.01722
G1 X143.091 Y160.512 E0.09203
G1 X143.083 Y161.049 E0.01722
G1 X145.113 Y163.079 E0.09203
G1 X145.105 Y163.616 E0.01722
G1 X143.075 Y161.586 E0.09203
G1 X143.067 Y162.123 E0.01722
G1 X145.096 Y164.153 E0.09203
G1 X145.088 Y164.690 E0.01722
G1 X143.059 Y162.660 E0.09203
G1 X143.050 Y163.198 E0.01722
G1 X145.080 Y165.227 E0.09203
G1 X145.072 Y165.764 E0.01722
G1 X143.042 Y163.735 E0.09203
G1 X143.034 Y164.272 E0.01722
G1 X145.064 Y166.302 E0.09203
G1 X145.056 Y166.839 E0.01722
G1 X143.026 Y164.809 E0.09203
G1 X143.018 Y165.346 E0.01722
G1 X145.047 Y167.376 E0.09203
G1 X145.039 Y167.913 E0.01722
G1 X143.010 Y165.883 E0.09203
G1 X143.001 Y166.420 E0.01722
G1 X145.031 Y168.450 E0.09203
G1 X145.023 Y168.987 E0.01722
G1 X142.993 Y166.958 E0.09203
G1 X142.985 Y167.495 E0.01722
G1 X145.015 Y169.524 E0.09203
G1 X145.007 Y170.061 E0.01722
G1 X142.977 Y168.032 E0.09203
G1 X142.969 Y168.569 E0.01722
G1 X144.998 Y170.599 E0.09203
G1 X144.990 Y171.136 E0.01722
G1 X142.961 Y169.106 E0.09203
G1 X142.952 Y169.643 E0.01722
G1 X144.982 Y171.673 E0.09203
G1 X144.974 Y172.210 E0.01722
G1 X142.944 Y170.180 E0.09203
G1 X142.936 Y170.717 E0.01722
G1 X144.966 Y172.747 E0.09203
G1 X144.958 Y173.284 E0.01722
G1 X142.928 Y171.255 E0.09203
G1 X142.920 Y171.792 E0.01722
G1 X144.452 Y173.324 E0.06947
G1 X143.898 Y173.315 E0.01775
G1 X142.912 Y172.329 E0.04473
G1 X142.904 Y172.866 E0.01722
G1 X143.517 Y173.479 E0.02781
G1 E-4.55000 F3000.000
;WIPE_START
G1 F7200.000
G1 X142.904 Y172.866 E-0.34336
G1 X142.912 Y172.329 E-0.21264
G1 X143.898 Y173.315 E-0.55228
G1 X144.452 Y173.324 E-0.21920
G1 X143.514 Y172.386 E-0.52502
;WIPE_END
G1 E-0.09750 F3000.000
G1 X128.134 Y173.472 F9000.000
G1 E6.50000 F2400.000
;TYPE:Perimeter
;WIDTH:0.42
G1 F1200.000
G1 X125.509 Y173.432 E0.08233
G1 X125.761 Y156.808 E0.52129
G1 X128.387 Y156.848 E0.08233
G1 X128.135 Y173.412 E0.51941
G1 X128.505 Y173.855 F9000.000
;TYPE:External perimeter
G1 F1200.000
G1 X125.126 Y173.804 E0.10598
G1 X125.390 Y156.426 E0.54494
G1 X128.769 Y156.477 E0.10598
G1 X128.506 Y173.795 E0.54306
G1 X128.150 Y173.672 F9000.000
G1 E-4.55000 F3000.000
;WIPE_START
G1 F7200.000
G1 X125.126 Y173.804 E-1.33813
G1 X125.146 Y172.504 E-0.51437
;WIPE_END
G1 E-0.09750 F3000.000
G1 X127.479 Y156.948 F9000.000
G1 E6.50000 F2400.000
;TYPE:Solid infill
;WIDTH:0.428496
G1 F1200.000
G1 X128.093 Y157.561 E0.02782
G1 X128.085 Y158.098 E0.01722
G1 X127.098 Y157.112 E0.04474
G1 X126.544 Y157.103 E0.01775
G1 X128.077 Y158.635 E0.06947
G1 X128.068 Y159.173 E0.01722
G1 X126.039 Y157.143 E0.09203
G1 X126.031 Y157.680 E0.01722
G1 X128.060 Y159.710 E0.09203
G1 X128.052 Y160.247 E0.01722
G1 X126.022 Y158.217 E0.09203
G1 X126.014 Y158.754 E0.01722
G1 X128.044 Y160.784 E0.09203
G1 X128.036 Y161.321 E0.01722
G1 X126.006 Y159.291 E0.09203
G1 X125.998 Y159.829 E0.01722
G1 X128.028 Y161.858 E0.09203
G1 X128.020 Y162.395 E0.01722
G1 X125.990 Y160.366 E0.09203
G1 X125.982 Y160.903 E0.01722
G1 X128.011 Y162.932 E0.09203
G1 X128.003 Y163.470 E0.01722
G1 X125.974 Y161.440 E0.09203
G1 X125.965 Y161.977 E0.01722
G1 X127.995 Y164.007 E0.09203
G1 X127.987 Y164.544 E0.01722
G1 X125.957 Y162.514 E0.09203
G1 X125.949 Y163.051 E0.01722
G1 X127.979 Y165.081 E0.09203
G1 X127.971 Y165.618 E0.01722
G1 X125.941 Y163.588 E0.09203
G1 X125.933 Y164.126 E0.01722
G1 X127.962 Y166.155 E0.09203
G1 X127.954 Y166.692 E0.01722
G1 X125.925 Y164.663 E0.09203
G1 X125.916 Y165.200 E0.01722
G1 X127.946 Y167.230 E0.09203
G1 X127.938 Y167.767 E0.01722
G1 X125.908 Y165.737 E0.09203
G1 X125.900 Y166.274 E0.01722
G1 X127.930 Y168.304 E0.09203
G1 X127.922 Y168.841 E0.01722
G1 X125.892 Y166.811 E0.09203
G1 X125.884 Y167.348 E0.01722
G1 X127.913 Y169.378 E0.09203
G1 X127.905 Y169.915 E0.01722
G1 X125.876 Y167.886 E0.09203
G1 X125.867 Y168.423 E0.01722
G1 X127.897 Y170.452 E0.09203
G1 X127.889 Y170.989 E0.01722
G1 X125.859 Y168.960 E0.09203
G1 X125.851 Y169.497 E0.01722
G1 X127.881 Y171.527 E0.09203
G1 X127.873 Y172.064 E0.01722
G1 X125.843 Y170.034 E0.09203
G1 X125.835 Y170.571 E0.01722
G1 X127.865 Y172.601 E0.09203
G1 X127.856 Y173.138 E0.01722
G1 X125.827 Y171.108 E0.09203
G1 X125.819 Y171.645 E0.01722
G1 X127.351 Y173.178 E0.06947
G1 X126.797 Y173.169 E0.01775
G1 X125.810 Y172.183 E0.04473
G1 X125.802 Y172.720 E0.01722
G1 X126.416 Y173.333 E0.02781
G1 E-4.55000 F3000.000
;WIPE_START
G1 F7200.000
G1 X125.802 Y172.720 E-0.34336
G1 X125.810 Y172.183 E-0.21264
G1 X126.797 Y173.169 E-0.55228
G1 X127.351 Y173.178 E-0.21920
G1 X126.413 Y172.240 E-0.52502
;WIPE_END
G1 E-0.09750 F3000.000
G1 X84.099 Y173.328 F9000.000
G1 E6.50000 F2400.000
;TYPE:Perimeter
;WIDTH:0.42
G1 F1200.000
G1 X81.473 Y173.288 E0.08233
G1 X81.726 Y156.664 E0.52129
G1 X84.351 Y156.704 E0.08233
G1 X84.100 Y173.268 E0.51941
G1 X84.470 Y173.711 F9000.000
;TYPE:External perimeter
G1 F1200.000
G1 X81.091 Y173.660 E0.10598
G1 X81.355 Y156.282 E0.54494
G1 X84.734 Y156.333 E0.10598
G1 X84.471 Y173.651 E0.54306
G1 X84.115 Y173.528 F9000.000
G1 E-4.55000 F3000.000
;WIPE_START
G1 F7200.000
G1 X81.091 Y173.660 E-1.33813
G1 X81.110 Y172.360 E-0.51437
;WIPE_END
G1 E-0.09750 F3000.000
G1 X83.444 Y156.803 F9000.000
G1 E6.50000 F2400.000
;TYPE:Solid infill
;WIDTH:0.428496
G1 F1200.000
G1 X84.058 Y157.417 E0.02782
G1 X84.050 Y157.954 E0.01722
G1 X83.063 Y156.967 E0.04474
G1 X82.509 Y156.959 E0.01775
G1 X84.041 Y158.491 E0.06947
G1 X84.033 Y159.028 E0.01722
G1 X82.004 Y156.999 E0.09203
G1 X81.995 Y157.536 E0.01722
G1 X84.025 Y159.566 E0.09203
G1 X84.017 Y160.103 E0.01722
G1 X81.987 Y158.073 E0.09203
G1 X81.979 Y158.610 E0.01722
G1 X84.009 Y160.640 E0.09203
G1 X84.001 Y161.177 E0.01722
G1 X81.971 Y159.147 E0.09203
G1 X81.963 Y159.684 E0.01722
G1 X83.993 Y161.714 E0.09203
G1 X83.984 Y162.251 E0.01722
G1 X81.955 Y160.221 E0.09203
G1 X81.947 Y160.759 E0.01722
G1 X83.976 Y162.788 E0.09203
G1 X83.968 Y163.325 E0.01722
G1 X81.938 Y161.296 E0.09203
G1 X81.930 Y161.833 E0.01722
G1 X83.960 Y163.863 E0.09203
G1 X83.952 Y164.400 E0.01722
G1 X81.922 Y162.370 E0.09203
G1 X81.914 Y162.907 E0.01722
G1 X83.944 Y164.937 E0.09203
G1 X83.935 Y165.474 E0.01722
G1 X81.906 Y163.444 E0.09203
G1 X81.898 Y163.981 E0.01722
G1 X83.927 Y166.011 E0.09203
G1 X83.919 Y166.548 E0.01722
G1 X81.889 Y164.519 E0.09203
G1 X81.881 Y165.056 E0.01722
G1 X83.911 Y167.085 E0.09203
G1 X83.903 Y167.622 E0.01722
G1 X81.873 Y165.593 E0.09203
G1 X81.865 Y166.130 E0.01722
G1 X83.895 Y168.160 E0.09203
G1 X83.886 Y168.697 E0.01722
G1 X81.857 Y166.667 E0.09203
G1 X81.849 Y167.204 E0.01722
G1 X83.878 Y169.234 E0.09203
G1 X83.870 Y169.771 E0.01722
G1 X81.840 Y167.741 E0.09203
G1 X81.832 Y168.278 E0.01722
G1 X83.862 Y170.308 E0.09203
G1 X83.854 Y170.845 E0.01722
G1 X81.824 Y168.816 E0.09203
G1 X81.816 Y169.353 E0.01722
G1 X83.846 Y171.382 E0.09203
G1 X83.838 Y171.920 E0.01722
G1 X81.808 Y169.890 E0.09203
G1 X81.800 Y170.427 E0.01722
G1 X83.829 Y172.457 E0.09203
G1 X83.821 Y172.994 E0.01722
G1 X81.792 Y170.964 E0.09203
G1 X81.783 Y171.501 E0.01722
G1 X83.316 Y173.033 E0.06947
G1 X82.762 Y173.025 E0.01775
G1 X81.775 Y172.038 E0.04473
G1 X81.767 Y172.576 E0.01722
G1 X82.380 Y173.189 E0.02781
G1 E-4.55000 F3000.000
;WIPE_START
G1 F7200.000
G1 X81.767 Y172.576 E-0.34336
G1 X81.775 Y172.038 E-0.21264
G1 X82.762 Y173.025 E-0.55228
G1 X83.316 Y173.033 E-0.21920
G1 X82.378 Y172.095 E-0.52502
;WIPE_END
G1 E-0.09750 F3000.000
G1 X96.890 Y173.251 F9000.000
G1 E6.50000 F2400.000
;TYPE:Perimeter
;WIDTH:0.42
G1 F1200.000
G1 X97.143 Y156.627 E0.52129
G1 X99.768 Y156.667 E0.08233
G1 X99.516 Y173.291 E0.52129
G1 X96.950 Y173.252 E0.08045
G1 X96.507 Y173.622 F9000.000
;TYPE:External perimeter
G1 F1200.000
G1 X96.771 Y156.244 E0.54494
G1 X100.151 Y156.296 E0.10598
G1 X99.887 Y173.674 E0.54494
G1 X96.567 Y173.623 E0.10410
G1 X96.539 Y173.224 F9000.000
G1 E-4.55000 F3000.000
;WIPE_START
G1 F7200.000
G1 X96.622 Y168.944 E-1.85250
;WIPE_END
G1 E-0.09750 F3000.000
G1 X98.861 Y156.766 F9000.000
G1 E6.50000 F2400.000
;TYPE:Solid infill
;WIDTH:0.428496
G1 F1200.000
G1 X99.474 Y157.380 E0.02782
G1 X99.466 Y157.917 E0.01722
G1 X98.480 Y156.930 E0.04474
G1 X97.926 Y156.922 E0.01775
G1 X99.458 Y158.454 E0.06947
G1 X99.450 Y158.991 E0.01722
G1 X97.420 Y156.961 E0.09203
G1 X97.412 Y157.499 E0.01722
G1 X99.442 Y159.528 E0.09203
G1 X99.434 Y160.065 E0.01722
G1 X97.404 Y158.036 E0.09203
G1 X97.396 Y158.573 E0.01722
G1 X99.426 Y160.603 E0.09203
G1 X99.417 Y161.140 E0.01722
G1 X97.388 Y159.110 E0.09203
G1 X97.380 Y159.647 E0.01722
G1 X99.409 Y161.677 E0.09203
G1 X99.401 Y162.214 E0.01722
G1 X97.371 Y160.184 E0.09203
G1 X97.363 Y160.721 E0.01722
G1 X99.393 Y162.751 E0.09203
G1 X99.385 Y163.288 E0.01722
G1 X97.355 Y161.259 E0.09203
G1 X97.347 Y161.796 E0.01722
G1 X99.377 Y163.825 E0.09203
G1 X99.368 Y164.362 E0.01722
G1 X97.339 Y162.333 E0.09203
G1 X97.331 Y162.870 E0.01722
G1 X99.360 Y164.900 E0.09203
G1 X99.352 Y165.437 E0.01722
G1 X97.322 Y163.407 E0.09203
G1 X97.314 Y163.944 E0.01722
G1 X99.344 Y165.974 E0.09203
G1 X99.336 Y166.511 E0.01722
G1 X97.306 Y164.481 E0.09203
G1 X97.298 Y165.018 E0.01722
G1 X99.328 Y167.048 E0.09203
G1 X99.319 Y167.585 E0.01722
G1 X97.290 Y165.556 E0.09203
G1 X97.282 Y166.093 E0.01722
G1 X99.311 Y168.122 E0.09203
G1 X99.303 Y168.659 E0.01722
G1 X97.273 Y166.630 E0.09203
G1 X97.265 Y167.167 E0.01722
G1 X99.295 Y169.197 E0.09203
G1 X99.287 Y169.734 E0.01722
G1 X97.257 Y167.704 E0.09203
G1 X97.249 Y168.241 E0.01722
G1 X99.279 Y170.271 E0.09203
G1 X99.271 Y170.808 E0.01722
G1 X97.241 Y168.778 E0.09203
G1 X97.233 Y169.315 E0.01722
G1 X99.262 Y171.345 E0.09203
G1 X99.254 Y171.882 E0.01722
