; generated by PrusaSlicer 2.3.3+x64 on 2021-09-28 at 11:33:25 UTC

; 

; external perimeters extrusion width = 0.45mm
; perimeters extrusion width = 0.45mm
; infill extrusion width = 0.45mm
; solid infill extrusion width = 0.45mm
; top infill extrusion width = 0.40mm
; first layer extrusion width = 0.42mm

M201 X500 Y500 Z100 E5000 ; sets maximum accelerations, mm/sec^2
M203 X500 Y500 Z10 E60 ; sets maximum feedrates, mm/sec
M204 P500 R1000 T500 ; sets acceleration (P, T) and retract acceleration (R), mm/sec^2
M205 X8.00 Y8.00 Z0.40 E5.00 ; sets the jerk limits, mm/sec
M205 S0 T0 ; sets the minimum extruding and travel feed rate, mm/sec
M107
;TYPE:Custom
G90 ; use absolute coordinates
M83 ; extruder relative mode
M104 S200 ; set extruder temp
M140 S60 ; set bed temp
M190 S60 ; wait for bed temp
M109 S200 ; wait for extruder temp
G28 ; home all
G29 ; Level Bed
G1 Z2 F240
G1 X2 Y10 F3000
G1 Z0.28 F240
G92 E0
G1 Y190 E15 F1500 ; intro line
G1 X2.3 F5000
G92 E0
G1 Y10 E15 F1200 ; intro line
G92 E0
G21 ; set units to millimeters
G90 ; use absolute coordinates
M83 ; use relative distances for extrusion
; Filament gcode
;LAYER_CHANGE
;Z:0.2
;HEIGHT:0.2
;BEFORE_LAYER_CHANGE
G92 E0
;0.2


G1 E-6.50000 F3000.000
G1 Z0.200 F9000.000
;AFTER_LAYER_CHANGE
;0.2
G1 X82.976 Y37.862
G1 E6.50000 F2400.000
;TYPE:Skirt
;WIDTH:0.42
G1 F1200.000
G1 X84.119 Y35.703 E0.07658
G1 X84.957 Y34.473 E0.04668
G1 X85.913 Y33.318 E0.04699
G1 X86.976 Y32.266 E0.04688
G1 X88.078 Y31.382 E0.04431
G1 X90.009 Y30.236 E0.07040
G1 X91.319 Y29.706 E0.04431
G1 X92.628 Y29.355 E0.04250
G1 X93.465 Y29.217 E0.02661
G1 X94.813 Y29.133 E0.04233
G1 X146.758 Y29.899 E1.62889
G1 X148.812 Y30.107 E0.06472
G1 X150.856 Y30.720 E0.06691
G1 X152.153 Y31.339 E0.04505
G1 X153.423 Y32.145 E0.04718
G1 X155.022 Y33.494 E0.06558
G1 X156.067 Y34.630 E0.04840
G1 X156.996 Y35.867 E0.04851
G1 X157.829 Y37.226 E0.04996
G1 X158.802 Y39.275 E0.07114
G1 X159.347 Y40.800 E0.05077
G1 X159.776 Y42.394 E0.05176
G1 X160.084 Y44.042 E0.05257
G1 X160.303 Y46.412 E0.07462
G1 X160.305 Y48.097 E0.05284
G1 X160.178 Y49.783 E0.05301
G1 X159.786 Y52.113 E0.07408
G1 X159.357 Y53.720 E0.05217
G1 X158.816 Y55.243 E0.05065
G1 X157.829 Y57.324 E0.07224
G1 X156.988 Y58.694 E0.05038
G1 X155.621 Y60.433 E0.06937
G1 X154.499 Y61.544 E0.04950
G1 X152.821 Y62.813 E0.06597
G1 X151.495 Y63.549 E0.04756
G1 X149.562 Y64.266 E0.06464
G1 X148.068 Y64.564 E0.04776
G1 X146.664 Y64.652 E0.04412
G1 X94.749 Y63.886 E1.62794
G1 X92.695 Y63.678 E0.06472
G1 X90.647 Y63.065 E0.06703
G1 X88.681 Y62.047 E0.06942
G1 X87.540 Y61.230 E0.04400
G1 X86.446 Y60.256 E0.04592
G1 X84.921 Y58.498 E0.07299
G1 X84.088 Y57.268 E0.04656
G1 X83.322 Y55.889 E0.04947
G1 X82.684 Y54.468 E0.04884
G1 X82.160 Y52.996 E0.04898
G1 X81.554 Y50.549 E0.07905
G1 X81.320 Y48.972 E0.04998
G1 X81.199 Y47.331 E0.05159
G1 X81.199 Y45.684 E0.05165
G1 X81.323 Y44.018 E0.05239
G1 X81.562 Y42.425 E0.05048
G1 X81.922 Y40.840 E0.05097
G1 X82.400 Y39.303 E0.05046
G1 X82.954 Y37.917 E0.04680
G1 E-4.55000 F3000.000
;WIPE_START
G1 F7200.000
G1 X84.119 Y35.703 E-0.99044
G1 X84.957 Y34.473 E-0.58935
G1 X85.397 Y33.942 E-0.27272
;WIPE_END
G1 E-0.09750 F3000.000
G1 X138.657 Y45.223 F9000.000
G1 E6.50000 F2400.000
;TYPE:Perimeter
G1 F1200.000
G1 X138.845 Y44.220 E0.03200
G1 X139.107 Y43.244 E0.03167
G1 X139.440 Y42.305 E0.03124
G1 X139.842 Y41.411 E0.03073
G1 X140.310 Y40.571 E0.03016
G1 X140.840 Y39.791 E0.02955
G1 X141.427 Y39.081 E0.02891
G1 X142.069 Y38.447 E0.02828
G1 X142.758 Y37.895 E0.02768
G1 X143.490 Y37.434 E0.02713
G1 X144.258 Y37.068 E0.02667
G1 X145.053 Y36.802 E0.02630
G1 X145.868 Y36.641 E0.02603
G1 X146.667 Y36.588 E0.02510
G1 X147.105 Y36.601 E0.01375
G1 X147.527 Y36.643 E0.01329
G1 X148.332 Y36.802 E0.02574
G1 X149.128 Y37.068 E0.02630
G1 X149.895 Y37.434 E0.02667
G1 X150.627 Y37.895 E0.02713
G1 X151.317 Y38.447 E0.02768
G1 X151.958 Y39.081 E0.02828
G1 X152.546 Y39.791 E0.02891
G1 X153.076 Y40.571 E0.02955
G1 X153.543 Y41.411 E0.03016
G1 X153.945 Y42.305 E0.03073
G1 X154.278 Y43.244 E0.03124
G1 X154.540 Y44.220 E0.03167
G1 X154.729 Y45.223 E0.03200
G1 X154.842 Y46.244 E0.03223
G1 X154.880 Y47.275 E0.03234
G1 X154.842 Y48.306 E0.03234
G1 X154.729 Y49.328 E0.03223
G1 X154.540 Y50.331 E0.03200
G1 X154.278 Y51.306 E0.03167
G1 X153.945 Y52.245 E0.03124
G1 X153.543 Y53.139 E0.03073
G1 X153.076 Y53.980 E0.03016
G1 X152.546 Y54.759 E0.02955
G1 X151.958 Y55.470 E0.02891
G1 X151.317 Y56.104 E0.02828
G1 X150.627 Y56.655 E0.02768
G1 X149.895 Y57.117 E0.02713
G1 X149.128 Y57.483 E0.02667
G1 X148.332 Y57.749 E0.02630
G1 X147.517 Y57.910 E0.02604
G1 X146.693 Y57.964 E0.02591
G1 X145.868 Y57.910 E0.02591
G1 X145.053 Y57.749 E0.02604
G1 X144.258 Y57.483 E0.02630
G1 X143.490 Y57.117 E0.02667
G1 X142.758 Y56.655 E0.02713
G1 X142.069 Y56.104 E0.02768
G1 X141.427 Y55.470 E0.02828
G1 X140.840 Y54.759 E0.02891
G1 X140.310 Y53.980 E0.02955
G1 X139.842 Y53.139 E0.03016
G1 X139.440 Y52.245 E0.03073
G1 X139.107 Y51.306 E0.03124
G1 X138.845 Y50.331 E0.03167
G1 X138.657 Y49.328 E0.03200
G1 X138.543 Y48.306 E0.03223
G1 X138.505 Y47.275 E0.03234
G1 X138.543 Y46.244 E0.03234
G1 X138.650 Y45.282 E0.03035
G1 X139.025 Y45.324 F9000.000
;TYPE:External perimeter
G1 F1200.000
G1 X139.213 Y44.304 E0.03254
G1 X139.468 Y43.356 E0.03075
G1 X139.791 Y42.446 E0.03029
G1 X140.180 Y41.580 E0.02975
G1 X140.631 Y40.769 E0.02913
G1 X141.141 Y40.018 E0.02846
G1 X141.706 Y39.336 E0.02776
G1 X142.320 Y38.729 E0.02707
G1 X142.977 Y38.203 E0.02639
G1 X143.673 Y37.765 E0.02578
G1 X144.399 Y37.418 E0.02524
G1 X145.150 Y37.167 E0.02482
G1 X145.917 Y37.016 E0.02452
G1 X146.674 Y36.966 E0.02376
G1 X147.081 Y36.978 E0.01278
G1 X147.472 Y37.016 E0.01231
G1 X148.236 Y37.167 E0.02441
G1 X148.986 Y37.418 E0.02482
G1 X149.713 Y37.765 E0.02524
G1 X150.408 Y38.203 E0.02578
G1 X151.066 Y38.729 E0.02639
G1 X151.680 Y39.336 E0.02707
G1 X152.244 Y40.018 E0.02776
G1 X152.755 Y40.769 E0.02846
G1 X153.206 Y41.580 E0.02913
G1 X153.595 Y42.446 E0.02975
G1 X153.918 Y43.356 E0.03029
G1 X154.172 Y44.304 E0.03075
G1 X154.355 Y45.279 E0.03111
G1 X154.466 Y46.272 E0.03135
G1 X154.503 Y47.275 E0.03147
G1 X154.466 Y48.278 E0.03147
G1 X154.355 Y49.272 E0.03135
G1 X154.172 Y50.247 E0.03111
G1 X153.918 Y51.194 E0.03075
G1 X153.595 Y52.105 E0.03029
G1 X153.206 Y52.970 E0.02975
G1 X152.755 Y53.782 E0.02913
G1 X152.244 Y54.533 E0.02846
G1 X151.680 Y55.215 E0.02776
G1 X151.066 Y55.822 E0.02707
G1 X150.408 Y56.347 E0.02639
G1 X149.713 Y56.786 E0.02578
G1 X148.986 Y57.133 E0.02524
G1 X148.236 Y57.383 E0.02482
G1 X147.468 Y57.535 E0.02452
G1 X146.693 Y57.586 E0.02437
G1 X145.917 Y57.535 E0.02437
G1 X145.150 Y57.383 E0.02452
G1 X144.399 Y57.133 E0.02482
G1 X143.673 Y56.786 E0.02524
G1 X142.977 Y56.347 E0.02578
G1 X142.320 Y55.822 E0.02639
G1 X141.706 Y55.215 E0.02707
G1 X141.141 Y54.533 E0.02776
G1 X140.631 Y53.782 E0.02846
G1 X140.180 Y52.970 E0.02913
G1 X139.791 Y52.105 E0.02975
G1 X139.468 Y51.194 E0.03029
G1 X139.213 Y50.247 E0.03075
G1 X139.030 Y49.272 E0.03111
G1 X138.920 Y48.278 E0.03135
G1 X138.883 Y47.275 E0.03147
G1 X138.920 Y46.272 E0.03147
G1 X139.018 Y45.384 E0.02803
G1 X138.711 Y45.076 F9000.000
G1 E-4.55000 F3000.000
;WIPE_START
G1 F7200.000
G1 X139.213 Y44.304 E-0.43449
G1 X139.468 Y43.356 E-0.38820
G1 X139.791 Y42.446 E-0.38243
G1 X140.180 Y41.580 E-0.37553
G1 X140.513 Y40.980 E-0.27183
;WIPE_END
G1 E-0.09750 F3000.000
G1 X136.264 Y45.025 F9000.000
G1 E6.50000 F2400.000
;TYPE:Perimeter
G1 F1200.000
G1 X136.455 Y43.757 E0.04020
G1 X136.597 Y43.074 E0.02190
G1 X136.764 Y42.400 E0.02175
G1 X136.955 Y41.739 E0.02158
G1 X137.171 Y41.092 E0.02138
G1 X137.409 Y40.460 E0.02117
G1 X137.670 Y39.846 E0.02094
G1 X137.953 Y39.250 E0.02068
G1 X138.257 Y38.674 E0.02042
G1 X138.582 Y38.120 E0.02014
G1 X138.925 Y37.588 E0.01984
G1 X139.288 Y37.081 E0.01954
G1 X139.667 Y36.599 E0.01923
G1 X140.063 Y36.144 E0.01892
G1 X140.474 Y35.716 E0.01861
G1 X140.900 Y35.317 E0.01830
G1 X141.338 Y34.946 E0.01799
G1 X141.788 Y34.606 E0.01769
G1 X142.249 Y34.297 E0.01741
G1 X142.720 Y34.019 E0.01714
G1 X143.199 Y33.773 E0.01688
G1 X143.685 Y33.558 E0.01665
G1 X144.177 Y33.377 E0.01645
G1 X144.674 Y33.228 E0.01627
G1 X145.175 Y33.112 E0.01613
G1 X145.680 Y33.029 E0.01602
G1 X146.185 Y32.979 E0.01593
G1 X146.707 Y32.963 E0.01638
G1 X147.200 Y32.979 E0.01545
G1 X147.706 Y33.029 E0.01594
G1 X148.210 Y33.112 E0.01602
G1 X148.712 Y33.228 E0.01613
G1 X149.209 Y33.377 E0.01627
G1 X149.701 Y33.558 E0.01645
G1 X150.187 Y33.773 E0.01665
G1 X150.666 Y34.019 E0.01688
G1 X151.136 Y34.297 E0.01714
G1 X151.597 Y34.606 E0.01741
G1 X152.047 Y34.946 E0.01769
G1 X152.486 Y35.317 E0.01799
G1 X152.911 Y35.716 E0.01830
G1 X153.323 Y36.144 E0.01861
G1 X153.718 Y36.599 E0.01892
G1 X154.098 Y37.081 E0.01923
G1 X154.460 Y37.588 E0.01954
G1 X154.804 Y38.120 E0.01984
G1 X155.128 Y38.674 E0.02014
G1 X155.433 Y39.250 E0.02042
G1 X155.716 Y39.846 E0.02068
G1 X155.977 Y40.460 E0.02094
G1 X156.215 Y41.092 E0.02117
G1 X156.430 Y41.739 E0.02138
G1 X156.622 Y42.400 E0.02158
G1 X156.788 Y43.074 E0.02175
G1 X156.930 Y43.757 E0.02190
G1 X157.047 Y44.450 E0.02203
G1 X157.138 Y45.150 E0.02213
G1 X157.203 Y45.856 E0.02221
G1 X157.243 Y46.565 E0.02226
G1 X157.256 Y47.275 E0.02229
G1 X157.243 Y47.986 E0.02229
G1 X157.203 Y48.695 E0.02226
G1 X157.138 Y49.400 E0.02221
G1 X157.047 Y50.100 E0.02213
G1 X156.930 Y50.793 E0.02203
G1 X156.788 Y51.477 E0.02190
G1 X156.622 Y52.150 E0.02175
G1 X156.430 Y52.812 E0.02158
G1 X156.215 Y53.459 E0.02138
G1 X155.977 Y54.090 E0.02117
G1 X155.716 Y54.705 E0.02094
G1 X155.433 Y55.301 E0.02068
G1 X155.128 Y55.877 E0.02042
G1 X154.804 Y56.431 E0.02014
G1 X154.460 Y56.962 E0.01984
G1 X154.098 Y57.469 E0.01954
G1 X153.718 Y57.951 E0.01923
G1 X153.323 Y58.407 E0.01892
G1 X152.911 Y58.835 E0.01861
G1 X152.486 Y59.234 E0.01830
G1 X152.047 Y59.604 E0.01799
G1 X151.597 Y59.944 E0.01769
G1 X151.136 Y60.254 E0.01741
G1 X150.666 Y60.532 E0.01714
G1 X150.187 Y60.778 E0.01688
G1 X149.701 Y60.992 E0.01665
G1 X149.209 Y61.174 E0.01645
G1 X148.712 Y61.323 E0.01627
G1 X148.210 Y61.438 E0.01613
G1 X147.706 Y61.521 E0.01602
G1 X147.200 Y61.571 E0.01594
G1 X146.693 Y61.588 E0.01591
G1 X146.186 Y61.571 E0.01591
G1 X145.680 Y61.521 E0.01594
G1 X145.175 Y61.438 E0.01602
G1 X144.674 Y61.323 E0.01613
G1 X144.177 Y61.174 E0.01627
G1 X143.685 Y60.992 E0.01645
G1 X143.199 Y60.778 E0.01665
G1 X142.720 Y60.532 E0.01688
G1 X142.249 Y60.254 E0.01714
G1 X141.788 Y59.944 E0.01741
G1 X141.338 Y59.604 E0.01769
G1 X140.900 Y59.234 E0.01799
G1 X140.474 Y58.835 E0.01830
G1 X140.063 Y58.407 E0.01861
G1 X139.667 Y57.951 E0.01892
G1 X139.288 Y57.469 E0.01923
G1 X138.925 Y56.962 E0.01954
G1 X138.582 Y56.431 E0.01984
G1 X138.257 Y55.877 E0.02014
G1 X137.953 Y55.301 E0.02042
G1 X137.670 Y54.705 E0.02068
G1 X137.409 Y54.090 E0.02094
G1 X137.171 Y53.459 E0.02117
G1 X136.955 Y52.812 E0.02138
G1 X136.764 Y52.150 E0.02158
G1 X136.597 Y51.477 E0.02175
G1 X136.455 Y50.793 E0.02190
G1 X136.339 Y50.100 E0.02203
G1 X136.248 Y49.400 E0.02213
G1 X136.182 Y48.695 E0.02221
G1 X136.143 Y47.986 E0.02226
G1 X136.130 Y47.275 E0.02229
G1 X136.143 Y46.565 E0.02229
G1 X136.182 Y45.856 E0.02226
G1 X136.256 Y45.085 E0.02428
G1 X135.882 Y45.036 F9000.000
;TYPE:External perimeter
G1 F1200.000
G1 X135.966 Y44.395 E0.02028
G1 X136.085 Y43.688 E0.02247
G1 X136.230 Y42.990 E0.02235
G1 X136.400 Y42.302 E0.02221
G1 X136.595 Y41.627 E0.02204
G1 X136.815 Y40.966 E0.02185
G1 X137.059 Y40.320 E0.02165
G1 X137.326 Y39.691 E0.02142
G1 X137.616 Y39.081 E0.02118
G1 X137.928 Y38.491 E0.02093
G1 X138.261 Y37.922 E0.02066
G1 X138.614 Y37.376 E0.02038
G1 X138.986 Y36.855 E0.02009
G1 X139.377 Y36.359 E0.01980
G1 X139.785 Y35.889 E0.01950
G1 X140.209 Y35.448 E0.01920
G1 X140.649 Y35.035 E0.01891
G1 X141.103 Y34.652 E0.01862
G1 X141.570 Y34.299 E0.01834
G1 X142.048 Y33.978 E0.01807
G1 X142.538 Y33.689 E0.01782
G1 X143.036 Y33.432 E0.01759
G1 X143.543 Y33.209 E0.01737
G1 X144.058 Y33.019 E0.01718
G1 X144.578 Y32.863 E0.01702
G1 X145.102 Y32.742 E0.01689
G1 X145.631 Y32.655 E0.01679
G1 X146.161 Y32.603 E0.01671
G1 X146.708 Y32.586 E0.01716
G1 X147.225 Y32.603 E0.01621
G1 X147.755 Y32.655 E0.01672
G1 X148.283 Y32.742 E0.01679
G1 X148.808 Y32.863 E0.01689
G1 X149.328 Y33.019 E0.01702
G1 X149.842 Y33.209 E0.01718
G1 X150.349 Y33.432 E0.01737
G1 X150.848 Y33.689 E0.01759
G1 X151.337 Y33.978 E0.01782
G1 X151.816 Y34.299 E0.01807
G1 X152.283 Y34.652 E0.01834
G1 X152.737 Y35.035 E0.01862
G1 X153.176 Y35.448 E0.01891
G1 X153.601 Y35.889 E0.01920
G1 X154.009 Y36.359 E0.01950
G1 X154.400 Y36.855 E0.01980
G1 X154.772 Y37.376 E0.02009
G1 X155.125 Y37.922 E0.02038
G1 X155.458 Y38.491 E0.02066
G1 X155.770 Y39.081 E0.02093
G1 X156.059 Y39.691 E0.02118
G1 X156.327 Y40.320 E0.02142
G1 X156.571 Y40.966 E0.02165
G1 X156.790 Y41.627 E0.02185
G1 X156.986 Y42.302 E0.02204
G1 X157.156 Y42.990 E0.02221
G1 X157.301 Y43.688 E0.02235
G1 X157.420 Y44.395 E0.02247
G1 X157.513 Y45.109 E0.02257
G1 X157.579 Y45.828 E0.02265
G1 X157.619 Y46.551 E0.02270
G1 X157.633 Y47.275 E0.02272
G1 X157.619 Y48.000 E0.02272
G1 X157.579 Y48.723 E0.02270
G1 X157.513 Y49.442 E0.02265
G1 X157.420 Y50.156 E0.02257
G1 X157.301 Y50.863 E0.02247
G1 X157.156 Y51.561 E0.02235
G1 X156.986 Y52.248 E0.02221
G1 X156.790 Y52.924 E0.02204
G1 X156.571 Y53.585 E0.02185
G1 X156.327 Y54.231 E0.02165
G1 X156.059 Y54.860 E0.02142
G1 X155.770 Y55.470 E0.02118
G1 X155.458 Y56.060 E0.02093
G1 X155.125 Y56.629 E0.02066
G1 X154.772 Y57.174 E0.02038
G1 X154.400 Y57.696 E0.02009
G1 X154.009 Y58.192 E0.01980
G1 X153.601 Y58.661 E0.01950
G1 X153.176 Y59.103 E0.01920
G1 X152.737 Y59.516 E0.01891
G1 X152.283 Y59.899 E0.01862
G1 X151.816 Y60.251 E0.01834
G1 X151.337 Y60.573 E0.01807
G1 X150.848 Y60.862 E0.01782
G1 X150.349 Y61.119 E0.01759
G1 X149.842 Y61.342 E0.01737
G1 X149.328 Y61.532 E0.01718
G1 X148.808 Y61.687 E0.01702
G1 X148.283 Y61.809 E0.01689
G1 X147.755 Y61.896 E0.01679
G1 X147.225 Y61.948 E0.01672
G1 X146.693 Y61.965 E0.01668
G1 X146.161 Y61.948 E0.01668
G1 X145.631 Y61.896 E0.01672
G1 X145.102 Y61.809 E0.01679
G1 X144.578 Y61.687 E0.01689
G1 X144.058 Y61.532 E0.01702
G1 X143.543 Y61.342 E0.01718
G1 X143.036 Y61.119 E0.01737
G1 X142.538 Y60.862 E0.01759
G1 X142.048 Y60.573 E0.01782
G1 X141.570 Y60.251 E0.01807
G1 X141.103 Y59.899 E0.01834
G1 X140.649 Y59.516 E0.01862
G1 X140.209 Y59.103 E0.01891
G1 X139.785 Y58.661 E0.01920
G1 X139.377 Y58.192 E0.01950
G1 X138.986 Y57.696 E0.01980
G1 X138.614 Y57.174 E0.02009
G1 X138.261 Y56.629 E0.02038
G1 X137.928 Y56.060 E0.02066
G1 X137.616 Y55.470 E0.02093
G1 X137.326 Y54.860 E0.02118
G1 X137.059 Y54.231 E0.02142
G1 X136.815 Y53.585 E0.02165
G1 X136.595 Y52.924 E0.02185
G1 X136.400 Y52.248 E0.02204
G1 X136.230 Y51.561 E0.02221
G1 X136.085 Y50.863 E0.02235
G1 X135.966 Y50.156 E0.02247
G1 X135.873 Y49.442 E0.02257
G1 X135.806 Y48.723 E0.02265
G1 X135.766 Y48.000 E0.02270
G1 X135.753 Y47.275 E0.02272
G1 X135.766 Y46.551 E0.02272
G1 X135.806 Y45.828 E0.02270
G1 X135.874 Y45.096 E0.02306
G1 X136.249 Y44.876 F9000.000
G1 E-4.55000 F3000.000
;WIPE_START
G1 F7200.000
G1 X135.966 Y44.395 E-0.27981
G1 X136.085 Y43.688 E-0.28373
G1 X136.230 Y42.990 E-0.28219
G1 X136.400 Y42.302 E-0.28036
G1 X136.595 Y41.627 E-0.27827
G1 X136.815 Y40.966 E-0.27589
G1 X136.969 Y40.559 E-0.17225
;WIPE_END
G1 E-0.09750 F3000.000
G1 X151.414 Y34.620 F9000.000
G1 E6.50000 F2400.000
;TYPE:Solid infill
;WIDTH:0.420994
G1 F1200.000
G1 X152.730 Y35.935 E0.05847
G1 X153.114 Y36.335 E0.01743
G1 X153.501 Y36.780 E0.01853
G1 X153.872 Y37.251 E0.01886
G1 X154.226 Y37.747 E0.01918
G1 X154.613 Y38.353 E0.02259
G1 X150.524 Y34.264 E0.18180
G1 X150.065 Y34.028 E0.01620
G1 X149.517 Y33.792 E0.01875
G1 X155.250 Y39.525 E0.25487
G1 X155.683 Y40.493 E0.03333
G1 X148.715 Y33.524 E0.30981
G1 X148.024 Y33.368 E0.02226
G1 X156.001 Y41.346 E0.35467
G1 X156.248 Y42.127 E0.02576
G1 X147.405 Y33.284 E0.39316
G1 X146.837 Y33.250 E0.01788
G1 X156.443 Y42.857 E0.42709
G1 X156.598 Y43.546 E0.02219
G1 X146.310 Y33.258 E0.45736
G1 X145.817 Y33.300 E0.01556
G1 X149.403 Y36.886 E0.15942
G1 X149.234 Y36.805 E0.00589
