; generated by PrusaSlicer 2.3.3+x64 on 2021-09-27 at 23:01:52 UTC

; 

; external perimeters extrusion width = 0.45mm
; perimeters extrusion width = 0.45mm
; infill extrusion width = 0.45mm
; solid infill extrusion width = 0.45mm
; top infill extrusion width = 0.40mm
; support material extrusion width = 0.38mm
; first layer extrusion width = 0.42mm

M201 X500 Y500 Z100 E5000 ; sets maximum accelerations, mm/sec^2
M203 X500 Y500 Z10 E60 ; sets maximum feedrates, mm/sec
M204 P500 R1000 T500 ; sets acceleration (P, T) and retract acceleration (R), mm/sec^2
M205 X8.00 Y8.00 Z0.40 E5.00 ; sets the jerk limits, mm/sec
M205 S0 T0 ; sets the minimum extruding and travel feed rate, mm/sec
M107
;TYPE:Custom
G90 ; use absolute coordinates
M83 ; extruder relative mode
M104 S200 ; set extruder temp
M140 S60 ; set bed temp
M190 S60 ; wait for bed temp
M109 S200 ; wait for extruder temp
G28 ; home all
G29 ; Level Bed
G1 Z2 F240
G1 X2 Y10 F3000
G1 Z0.28 F240
G92 E0
G1 Y190 E15 F1500 ; intro line
G1 X2.3 F5000
G92 E0
G1 Y10 E15 F1200 ; intro line
G92 E0
G21 ; set units to millimeters
G90 ; use absolute coordinates
M83 ; use relative distances for extrusion
; Filament gcode
;LAYER_CHANGE
;Z:0.2
;HEIGHT:0.2
;BEFORE_LAYER_CHANGE
G92 E0
;0.2


G1 E-6.50000 F3000.000
G1 Z0.200 F9000.000
;AFTER_LAYER_CHANGE
;0.2
G1 X34.735 Y48.686
G1 E6.50000 F2400.000
;TYPE:Skirt
;WIDTH:0.42
G1 F1200.000
G1 X35.502 Y48.179 E0.02884
G1 X36.408 Y48.000 E0.02895
G1 X196.620 Y48.193 E5.02334
G1 X197.375 Y48.433 E0.02484
G1 X198.012 Y48.911 E0.02496
G1 X198.454 Y49.569 E0.02484
G1 X198.655 Y50.339 E0.02496
G1 X198.641 Y71.033 E0.64884
G1 X198.379 Y71.828 E0.02626
G1 X197.855 Y72.486 E0.02637
G1 X197.138 Y72.919 E0.02626
G1 X196.315 Y73.076 E0.02626
G1 X36.073 Y72.883 E5.02429
G1 X35.318 Y72.643 E0.02484
G1 X34.684 Y72.168 E0.02484
G1 X34.241 Y71.511 E0.02484
G1 X34.038 Y70.745 E0.02484
G1 X34.029 Y50.347 E0.63956
G1 X34.218 Y49.447 E0.02884
G1 X34.702 Y48.736 E0.02696
G1 E-4.55000 F3000.000
;WIPE_START
G1 F7200.000
G1 X35.502 Y48.179 E-0.38615
G1 X36.408 Y48.000 E-0.36547
G1 X39.189 Y48.004 E-1.10089
;WIPE_END
G1 E-0.09750 F3000.000
G1 X36.406 Y50.377 F9000.000
G1 E6.50000 F2400.000
;TYPE:Support material
G1 F1200.000
G1 X36.406 Y70.529 E0.63185
G1 X37.160 Y70.529 E0.02365
G1 X37.160 Y50.547 E0.62653
G1 X37.914 Y50.547 E0.02365
G1 X37.914 Y70.529 E0.62653
G1 X38.668 Y70.529 E0.02365
G1 X38.668 Y50.547 E0.62653
G1 X39.422 Y50.547 E0.02365
G1 X39.422 Y55.507 E0.15551
G1 X40.177 Y55.507 E0.02365
G1 X40.177 Y50.547 E0.15551
G1 X40.931 Y50.547 E0.02365
G1 X40.931 Y55.507 E0.15551
G1 X41.685 Y55.507 E0.02365
G1 X41.685 Y50.547 E0.15551
G1 X42.439 Y50.547 E0.02365
G1 X42.439 Y55.507 E0.15551
G1 X43.193 Y55.507 E0.02365
G1 X43.193 Y50.547 E0.15551
G1 X43.947 Y50.547 E0.02365
G1 X43.947 Y55.507 E0.15551
G1 X44.701 Y55.507 E0.02365
G1 X44.701 Y50.547 E0.15551
G1 X45.456 Y50.547 E0.02365
G1 X45.456 Y55.507 E0.15551
G1 X46.210 Y55.507 E0.02365
G1 X46.210 Y50.547 E0.15551
G1 X46.964 Y50.547 E0.02365
G1 X46.964 Y55.507 E0.15551
G1 X47.718 Y55.507 E0.02365
G1 X47.718 Y50.547 E0.15551
G1 X48.472 Y50.547 E0.02365
G1 X48.472 Y55.507 E0.15551
G1 X49.226 Y55.507 E0.02365
G1 X49.226 Y50.547 E0.15551
G1 X49.981 Y50.547 E0.02365
G1 X49.981 Y55.507 E0.15551
G1 X50.735 Y55.507 E0.02365
G1 X50.735 Y50.547 E0.15551
G1 X51.489 Y50.547 E0.02365
G1 X51.489 Y55.507 E0.15551
G1 X52.243 Y55.507 E0.02365
G1 X52.243 Y50.547 E0.15551
G1 X52.997 Y50.547 E0.02365
G1 X52.997 Y55.507 E0.15551
G1 X53.751 Y55.507 E0.02365
G1 X53.751 Y50.547 E0.15551
G1 X54.506 Y50.547 E0.02365
G1 X54.506 Y55.507 E0.15551
G1 X55.260 Y55.507 E0.02365
G1 X55.260 Y50.547 E0.15551
G1 X56.014 Y50.547 E0.02365
G1 X56.014 Y55.507 E0.15551
G1 X56.768 Y55.507 E0.02365
G1 X56.768 Y50.547 E0.15551
G1 X57.522 Y50.547 E0.02365
G1 X57.522 Y55.507 E0.15551
G1 X58.276 Y55.507 E0.02365
G1 X58.276 Y50.547 E0.15551
G1 X59.030 Y50.547 E0.02365
G1 X59.030 Y55.507 E0.15551
G1 X59.785 Y55.507 E0.02365
G1 X59.785 Y50.547 E0.15551
G1 X60.539 Y50.547 E0.02365
G1 X60.539 Y55.507 E0.15551
G1 X61.293 Y55.507 E0.02365
G1 X61.293 Y50.547 E0.15551
G1 X62.047 Y50.547 E0.02365
G1 X62.047 Y55.507 E0.15551
G1 X62.801 Y55.507 E0.02365
G1 X62.801 Y50.547 E0.15551
G1 X63.555 Y50.547 E0.02365
G1 X63.555 Y55.507 E0.15551
G1 X64.310 Y55.507 E0.02365
G1 X64.310 Y50.547 E0.15551
G1 X65.064 Y50.547 E0.02365
G1 X65.064 Y55.507 E0.15551
G1 X65.818 Y55.507 E0.02365
G1 X65.818 Y50.547 E0.15551
G1 X66.572 Y50.547 E0.02365
G1 X66.572 Y55.507 E0.15551
G1 X67.326 Y55.507 E0.02365
G1 X67.326 Y50.547 E0.15551
G1 X68.080 Y50.547 E0.02365
G1 X68.080 Y55.507 E0.15551
G1 X68.835 Y55.507 E0.02365
G1 X68.835 Y50.547 E0.15551
G1 X69.589 Y50.547 E0.02365
G1 X69.589 Y55.507 E0.15551
G1 X70.343 Y55.507 E0.02365
G1 X70.343 Y50.547 E0.15551
G1 X71.097 Y50.547 E0.02365
G1 X71.097 Y55.507 E0.15551
G1 X71.851 Y55.507 E0.02365
G1 X71.851 Y50.547 E0.15551
G1 X72.605 Y50.547 E0.02365
G1 X72.605 Y55.507 E0.15551
G1 X73.360 Y55.507 E0.02365
G1 X73.360 Y50.547 E0.15551
G1 X74.114 Y50.547 E0.02365
G1 X74.114 Y55.507 E0.15551
G1 X74.868 Y55.507 E0.02365
G1 X74.868 Y50.547 E0.15551
G1 X75.622 Y50.547 E0.02365
G1 X75.622 Y55.507 E0.15551
G1 X76.376 Y55.507 E0.02365
G1 X76.376 Y50.547 E0.15551
G1 X77.130 Y50.547 E0.02365
G1 X77.130 Y55.507 E0.15551
G1 X77.884 Y55.507 E0.02365
G1 X77.884 Y50.547 E0.15551
G1 X78.639 Y50.547 E0.02365
G1 X78.639 Y55.507 E0.15551
G1 X79.393 Y55.507 E0.02365
G1 X79.393 Y50.547 E0.15551
G1 X80.147 Y50.547 E0.02365
G1 X80.147 Y55.507 E0.15551
G1 X80.901 Y55.507 E0.02365
G1 X80.901 Y50.547 E0.15551
G1 X81.655 Y50.547 E0.02365
G1 X81.655 Y55.507 E0.15551
G1 X82.409 Y55.507 E0.02365
G1 X82.409 Y50.547 E0.15551
G1 X83.164 Y50.547 E0.02365
G1 X83.164 Y55.507 E0.15551
G1 X83.918 Y55.507 E0.02365
G1 X83.918 Y50.547 E0.15551
G1 X84.672 Y50.547 E0.02365
G1 X84.672 Y55.507 E0.15551
G1 X85.426 Y55.507 E0.02365
G1 X85.426 Y50.547 E0.15551
G1 X86.180 Y50.547 E0.02365
G1 X86.180 Y55.507 E0.15551
G1 X86.934 Y55.507 E0.02365
G1 X86.934 Y50.547 E0.15551
G1 X87.689 Y50.547 E0.02365
G1 X87.689 Y55.507 E0.15551
G1 X88.443 Y55.507 E0.02365
G1 X88.443 Y50.547 E0.15551
G1 X89.197 Y50.547 E0.02365
G1 X89.197 Y55.507 E0.15551
G1 X89.951 Y55.507 E0.02365
G1 X89.951 Y50.547 E0.15551
G1 X90.705 Y50.547 E0.02365
G1 X90.705 Y55.507 E0.15551
G1 X91.459 Y55.507 E0.02365
G1 X91.459 Y50.547 E0.15551
G1 X92.213 Y50.547 E0.02365
G1 X92.213 Y55.507 E0.15551
G1 X92.968 Y55.507 E0.02365
G1 X92.968 Y50.547 E0.15551
G1 X93.722 Y50.547 E0.02365
G1 X93.722 Y55.507 E0.15551
G1 X94.476 Y55.507 E0.02365
G1 X94.476 Y50.547 E0.15551
G1 X95.230 Y50.547 E0.02365
G1 X95.230 Y55.507 E0.15551
G1 X95.984 Y55.507 E0.02365
G1 X95.984 Y50.547 E0.15551
G1 X96.738 Y50.547 E0.02365
G1 X96.738 Y55.507 E0.15551
G1 X97.493 Y55.507 E0.02365
G1 X97.493 Y50.547 E0.15551
G1 X98.247 Y50.547 E0.02365
G1 X98.247 Y55.507 E0.15551
G1 X99.001 Y55.507 E0.02365
G1 X99.001 Y50.547 E0.15551
G1 X99.755 Y50.547 E0.02365
G1 X99.755 Y55.507 E0.15551
G1 X100.509 Y55.507 E0.02365
G1 X100.509 Y50.547 E0.15551
G1 X101.263 Y50.547 E0.02365
G1 X101.263 Y55.507 E0.15551
G1 X102.018 Y55.507 E0.02365
G1 X102.018 Y50.547 E0.15551
G1 X102.772 Y50.547 E0.02365
G1 X102.772 Y55.507 E0.15551
G1 X103.526 Y55.507 E0.02365
G1 X103.526 Y50.547 E0.15551
G1 X104.280 Y50.547 E0.02365
G1 X104.280 Y55.507 E0.15551
G1 X105.034 Y55.507 E0.02365
G1 X105.034 Y50.547 E0.15551
G1 X105.788 Y50.547 E0.02365
G1 X105.788 Y55.507 E0.15551
G1 X106.543 Y55.507 E0.02365
G1 X106.543 Y50.547 E0.15551
G1 X107.297 Y50.547 E0.02365
G1 X107.297 Y55.507 E0.15551
G1 X108.051 Y55.507 E0.02365
G1 X108.051 Y50.547 E0.15551
G1 X108.805 Y50.547 E0.02365
G1 X108.805 Y55.507 E0.15551
G1 X109.559 Y55.507 E0.02365
G1 X109.559 Y50.547 E0.15551
G1 X110.313 Y50.547 E0.02365
G1 X110.313 Y55.507 E0.15551
G1 X111.067 Y55.507 E0.02365
G1 X111.067 Y50.547 E0.15551
G1 X111.822 Y50.547 E0.02365
G1 X111.822 Y55.507 E0.15551
G1 X112.576 Y55.507 E0.02365
G1 X112.576 Y50.547 E0.15551
G1 X113.330 Y50.547 E0.02365
G1 X113.330 Y55.507 E0.15551
G1 X114.084 Y55.507 E0.02365
G1 X114.084 Y50.547 E0.15551
G1 X114.838 Y50.547 E0.02365
G1 X114.838 Y55.507 E0.15551
G1 X115.592 Y55.507 E0.02365
G1 X115.592 Y50.547 E0.15551
G1 X116.347 Y50.547 E0.02365
G1 X116.347 Y55.507 E0.15551
G1 X117.101 Y55.507 E0.02365
G1 X117.101 Y50.547 E0.15551
G1 X117.855 Y50.547 E0.02365
G1 X117.855 Y55.507 E0.15551
G1 X118.609 Y55.507 E0.02365
G1 X118.609 Y50.547 E0.15551
G1 X119.363 Y50.547 E0.02365
G1 X119.363 Y55.507 E0.15551
G1 X120.117 Y55.507 E0.02365
G1 X120.117 Y50.547 E0.15551
G1 X120.872 Y50.547 E0.02365
G1 X120.872 Y55.507 E0.15551
G1 X121.626 Y55.507 E0.02365
G1 X121.626 Y50.547 E0.15551
G1 X122.380 Y50.547 E0.02365
G1 X122.380 Y55.507 E0.15551
G1 X123.134 Y55.507 E0.02365
G1 X123.134 Y50.547 E0.15551
G1 X123.888 Y50.547 E0.02365
G1 X123.888 Y55.507 E0.15551
G1 X124.642 Y55.507 E0.02365
G1 X124.642 Y50.547 E0.15551
G1 X125.396 Y50.547 E0.02365
G1 X125.396 Y55.507 E0.15551
G1 X126.151 Y55.507 E0.02365
G1 X126.151 Y50.547 E0.15551
G1 X126.905 Y50.547 E0.02365
G1 X126.905 Y55.507 E0.15551
G1 X127.659 Y55.507 E0.02365
G1 X127.659 Y50.547 E0.15551
G1 X128.413 Y50.547 E0.02365
G1 X128.413 Y55.507 E0.15551
G1 X129.167 Y55.507 E0.02365
G1 X129.167 Y50.547 E0.15551
G1 X129.921 Y50.547 E0.02365
G1 X129.921 Y55.507 E0.15551
G1 X130.676 Y55.507 E0.02365
G1 X130.676 Y50.547 E0.15551
G1 X131.430 Y50.547 E0.02365
G1 X131.430 Y55.507 E0.15551
G1 X132.184 Y55.507 E0.02365
G1 X132.184 Y50.547 E0.15551
G1 X132.938 Y50.547 E0.02365
G1 X132.938 Y55.507 E0.15551
G1 X133.692 Y55.507 E0.02365
G1 X133.692 Y50.547 E0.15551
G1 X134.446 Y50.547 E0.02365
G1 X134.446 Y55.507 E0.15551
G1 X135.201 Y55.507 E0.02365
G1 X135.201 Y50.547 E0.15551
G1 X135.955 Y50.547 E0.02365
G1 X135.955 Y55.507 E0.15551
G1 X136.709 Y55.507 E0.02365
G1 X136.709 Y50.547 E0.15551
G1 X137.463 Y50.547 E0.02365
G1 X137.463 Y55.507 E0.15551
G1 X138.217 Y55.507 E0.02365
G1 X138.217 Y50.547 E0.15551
G1 X138.971 Y50.547 E0.02365
G1 X138.971 Y55.507 E0.15551
G1 X139.726 Y55.507 E0.02365
G1 X139.726 Y50.547 E0.15551
G1 X140.480 Y50.547 E0.02365
G1 X140.480 Y55.507 E0.15551
G1 X141.234 Y55.507 E0.02365
G1 X141.234 Y50.547 E0.15551
G1 X141.988 Y50.547 E0.02365
G1 X141.988 Y55.507 E0.15551
G1 X142.742 Y55.507 E0.02365
G1 X142.742 Y50.547 E0.15551
G1 X143.496 Y50.547 E0.02365
G1 X143.496 Y55.507 E0.15551
G1 X144.250 Y55.507 E0.02365
G1 X144.250 Y50.547 E0.15551
G1 X145.005 Y50.547 E0.02365
G1 X145.005 Y55.507 E0.15551
G1 X145.759 Y55.507 E0.02365
G1 X145.759 Y50.547 E0.15551
G1 X146.513 Y50.547 E0.02365
G1 X146.513 Y55.507 E0.15551
G1 X147.267 Y55.507 E0.02365
G1 X147.267 Y50.547 E0.15551
G1 X148.021 Y50.547 E0.02365
G1 X148.021 Y55.507 E0.15551
G1 X148.775 Y55.507 E0.02365
G1 X148.775 Y50.547 E0.15551
G1 X149.530 Y50.547 E0.02365
G1 X149.530 Y55.507 E0.15551
G1 X150.284 Y55.507 E0.02365
G1 X150.284 Y50.547 E0.15551
G1 X151.038 Y50.547 E0.02365
G1 X151.038 Y55.507 E0.15551
G1 X151.792 Y55.507 E0.02365
G1 X151.792 Y50.547 E0.15551
G1 X152.546 Y50.547 E0.02365
G1 X152.546 Y55.507 E0.15551
G1 X153.300 Y55.507 E0.02365
G1 X153.300 Y50.547 E0.15551
G1 X154.055 Y50.547 E0.02365
G1 X154.055 Y55.507 E0.15551
G1 X154.809 Y55.507 E0.02365
G1 X154.809 Y50.547 E0.15551
G1 X155.563 Y50.547 E0.02365
G1 X155.563 Y55.507 E0.15551
G1 X156.317 Y55.507 E0.02365
G1 X156.317 Y50.547 E0.15551
G1 X157.071 Y50.547 E0.02365
G1 X157.071 Y55.507 E0.15551
G1 X157.825 Y55.507 E0.02365
G1 X157.825 Y50.547 E0.15551
G1 X158.579 Y50.547 E0.02365
G1 X158.579 Y55.507 E0.15551
G1 X159.334 Y55.507 E0.02365
G1 X159.334 Y50.547 E0.15551
G1 X160.088 Y50.547 E0.02365
G1 X160.088 Y55.507 E0.15551
G1 X160.842 Y55.507 E0.02365
G1 X160.842 Y50.547 E0.15551
G1 X161.596 Y50.547 E0.02365
G1 X161.596 Y55.507 E0.15551
G1 X162.350 Y55.507 E0.02365
G1 X162.350 Y50.547 E0.15551
G1 X163.104 Y50.547 E0.02365
G1 X163.104 Y55.507 E0.15551
G1 X163.859 Y55.507 E0.02365
G1 X163.859 Y50.547 E0.15551
G1 X164.613 Y50.547 E0.02365
G1 X164.613 Y55.507 E0.15551
G1 X165.367 Y55.507 E0.02365
G1 X165.367 Y50.547 E0.15551
G1 X166.121 Y50.547 E0.02365
G1 X166.121 Y55.507 E0.15551
G1 X166.875 Y55.507 E0.02365
G1 X166.875 Y50.547 E0.15551
G1 X167.629 Y50.547 E0.02365
G1 X167.629 Y55.507 E0.15551
G1 X168.384 Y55.507 E0.02365
G1 X168.384 Y50.547 E0.15551
G1 X169.138 Y50.547 E0.02365
G1 X169.138 Y55.507 E0.15551
G1 X169.892 Y55.507 E0.02365
G1 X169.892 Y50.547 E0.15551
G1 X170.646 Y50.547 E0.02365
G1 X170.646 Y55.507 E0.15551
G1 X171.400 Y55.507 E0.02365
G1 X171.400 Y50.547 E0.15551
G1 X172.154 Y50.547 E0.02365
G1 X172.154 Y55.507 E0.15551
G1 X172.908 Y55.507 E0.02365
G1 X172.908 Y50.547 E0.15551
G1 X173.663 Y50.547 E0.02365
G1 X173.663 Y55.507 E0.15551
G1 X174.417 Y55.507 E0.02365
G1 X174.417 Y50.547 E0.15551
G1 X175.171 Y50.547 E0.02365
G1 X175.171 Y55.507 E0.15551
G1 X175.925 Y55.507 E0.02365
G1 X175.925 Y50.547 E0.15551
G1 X176.679 Y50.547 E0.02365
G1 X176.679 Y55.507 E0.15551
G1 X177.433 Y55.507 E0.02365
G1 X177.433 Y50.547 E0.15551
G1 X178.188 Y50.547 E0.02365
G1 X178.188 Y55.507 E0.15551
G1 X178.942 Y55.507 E0.02365
G1 X178.942 Y50.547 E0.15551
G1 X179.696 Y50.547 E0.02365
G1 X179.696 Y55.507 E0.15551
G1 X180.450 Y55.507 E0.02365
G1 X180.450 Y50.547 E0.15551
G1 X181.204 Y50.547 E0.02365
G1 X181.204 Y55.507 E0.15551
G1 X181.958 Y55.507 E0.02365
G1 X181.958 Y50.547 E0.15551
G1 X182.713 Y50.547 E0.02365
G1 X182.713 Y55.507 E0.15551
G1 X183.467 Y55.507 E0.02365
G1 X183.467 Y50.547 E0.15551
G1 X184.221 Y50.547 E0.02365
G1 X184.221 Y55.507 E0.15551
G1 X184.975 Y55.507 E0.02365
G1 X184.975 Y50.547 E0.15551
G1 X185.729 Y50.547 E0.02365
G1 X185.729 Y55.507 E0.15551
G1 X186.483 Y55.507 E0.02365
G1 X186.483 Y50.547 E0.15551
G1 X187.238 Y50.547 E0.02365
G1 X187.238 Y55.507 E0.15551
G1 X187.992 Y55.507 E0.02365
G1 X187.992 Y50.547 E0.15551
G1 X188.746 Y50.547 E0.02365
G1 X188.746 Y55.507 E0.15551
G1 X189.500 Y55.507 E0.02365
G1 X189.500 Y50.547 E0.15551
G1 X190.254 Y50.547 E0.02365
G1 X190.254 Y55.507 E0.15551
G1 X191.008 Y55.507 E0.02365
G1 X191.008 Y50.547 E0.15551
G1 X191.762 Y50.547 E0.02365
G1 X191.762 Y55.507 E0.15551
G1 X192.517 Y55.507 E0.02365
G1 X192.517 Y50.547 E0.15551
G1 X193.271 Y50.547 E0.02365
G1 X193.271 Y55.676 E0.16083
G1 E-4.55000 F3000.000
;WIPE_START
G1 F7200.000
G1 X193.271 Y50.996 E-1.85250
;WIPE_END
G1 E-0.09750 F3000.000
G1 X193.149 Y58.353 F9000.000
G1 E6.50000 F2400.000
;TYPE:Support material interface
;WIDTH:0.38
G1 F1200.000
G1 X193.149 Y55.864 E0.06976
G1 X192.612 Y55.864 E0.01505
G1 X192.612 Y58.201 E0.06551
G1 X192.075 Y58.201 E0.01505
G1 X192.075 Y55.864 E0.06551
G1 X191.538 Y55.864 E0.01505
G1 X191.538 Y57.317 E0.04072
G1 X191.001 Y57.307 E0.01506
G1 X191.001 Y55.864 E0.04046
G1 X190.463 Y55.864 E0.01505
G1 X190.463 Y57.252 E0.03890
G1 X189.926 Y57.252 E0.01505
G1 X189.926 Y55.864 E0.03890
G1 X189.389 Y55.864 E0.01505
G1 X189.389 Y57.252 E0.03890
G1 X188.852 Y57.252 E0.01505
G1 X188.852 Y55.864 E0.03890
G1 X188.315 Y55.864 E0.01505
G1 X188.315 Y57.252 E0.03890
G1 X187.778 Y57.252 E0.01505
G1 X187.778 Y55.864 E0.03890
G1 X187.241 Y55.864 E0.01505
G1 X187.241 Y57.252 E0.03890
G1 X186.704 Y57.252 E0.01505
G1 X186.704 Y55.864 E0.03890
G1 X186.167 Y55.864 E0.01505
G1 X186.167 Y57.252 E0.03890
G1 X185.630 Y57.252 E0.01505
G1 X185.630 Y55.864 E0.03890
G1 X185.093 Y55.864 E0.01505
G1 X185.093 Y57.252 E0.03890
G1 X184.556 Y57.252 E0.01505
G1 X184.556 Y55.864 E0.03890
G1 X184.019 Y55.864 E0.01505
G1 X184.019 Y57.252 E0.03890
G1 X183.481 Y57.252 E0.01505
G1 X183.481 Y55.864 E0.03890
G1 X182.944 Y55.864 E0.01505
G1 X182.944 Y57.252 E0.03890
G1 X182.407 Y57.252 E0.01505
G1 X182.407 Y55.864 E0.03890
G1 X181.870 Y55.864 E0.01505
G1 X181.870 Y57.252 E0.03890
G1 X181.333 Y57.252 E0.01505
G1 X181.333 Y55.864 E0.03890
G1 X180.796 Y55.864 E0.01505
G1 X180.796 Y57.252 E0.03890
G1 X180.259 Y57.252 E0.01505
G1 X180.259 Y55.864 E0.03890
G1 X179.722 Y55.864 E0.01505
G1 X179.722 Y57.252 E0.03890
G1 X179.185 Y57.252 E0.01505
G1 X179.185 Y55.864 E0.03890
G1 X178.648 Y55.864 E0.01505
G1 X178.648 Y57.252 E0.03890
G1 X178.111 Y57.252 E0.01505
