; generated by PrusaSlicer 2.3.3+x64 on 2021-09-27 at 11:16:21 UTC

; 

; external perimeters extrusion width = 0.45mm
; perimeters extrusion width = 0.45mm
; infill extrusion width = 0.45mm
; solid infill extrusion width = 0.45mm
; top infill extrusion width = 0.40mm
; first layer extrusion width = 0.42mm

M201 X500 Y500 Z100 E5000 ; sets maximum accelerations, mm/sec^2
M203 X500 Y500 Z10 E60 ; sets maximum feedrates, mm/sec
M204 P500 R1000 T500 ; sets acceleration (P, T) and retract acceleration (R), mm/sec^2
M205 X8.00 Y8.00 Z0.40 E5.00 ; sets the jerk limits, mm/sec
M205 S0 T0 ; sets the minimum extruding and travel feed rate, mm/sec
M107
;TYPE:Custom
G90 ; use absolute coordinates
M83 ; extruder relative mode
M104 S200 ; set extruder temp
M140 S60 ; set bed temp
M190 S60 ; wait for bed temp
M109 S200 ; wait for extruder temp
G28 ; home all
G29 ; Level Bed
G1 Z2 F240
G1 X2 Y10 F3000
G1 Z0.28 F240
G92 E0
G1 Y190 E15 F1500 ; intro line
G1 X2.3 F5000
G92 E0
G1 Y10 E15 F1200 ; intro line
G92 E0
G21 ; set units to millimeters
G90 ; use absolute coordinates
M83 ; use relative distances for extrusion
; Filament gcode
;LAYER_CHANGE
;Z:0.2
;HEIGHT:0.2
;BEFORE_LAYER_CHANGE
G92 E0
;0.2


G1 E-6.50000 F3000.000
G1 Z0.200 F9000.000
;AFTER_LAYER_CHANGE
;0.2
G1 X45.530 Y36.600
G1 E6.50000 F2400.000
;TYPE:Skirt
;WIDTH:0.42
G1 F1200.000
G1 X46.109 Y36.109 E0.02378
G1 X46.816 Y35.825 E0.02390
G1 X47.314 Y35.767 E0.01574
G1 X78.331 Y35.517 E0.97252
G1 X169.842 Y35.517 E2.86928
G1 X177.814 Y35.815 E0.25013
G1 X178.430 Y36.032 E0.02048
G1 X178.963 Y36.409 E0.02048
G1 X179.376 Y36.920 E0.02060
G1 X179.632 Y37.521 E0.02048
G1 X179.715 Y38.138 E0.01953
G1 X179.711 Y63.285 E0.78845
G1 X179.554 Y64.004 E0.02308
G1 X179.183 Y64.643 E0.02319
G1 X178.636 Y65.136 E0.02308
G1 X177.961 Y65.438 E0.02319
G1 X177.435 Y65.519 E0.01669
G1 X169.838 Y65.771 E0.23831
G1 X78.334 Y65.771 E2.86904
G1 X47.308 Y65.521 E0.97285
G1 X46.528 Y65.378 E0.02484
G1 X45.842 Y64.990 E0.02473
G1 X45.320 Y64.399 E0.02473
G1 X45.019 Y63.666 E0.02484
G1 X44.961 Y63.148 E0.01633
G1 X44.966 Y37.991 E0.78878
G1 X45.135 Y37.252 E0.02378
G1 X45.499 Y36.652 E0.02202
G1 E-4.55000 F3000.000
;WIPE_START
G1 F7200.000
G1 X46.109 Y36.109 E-0.32288
G1 X46.816 Y35.825 E-0.30175
G1 X47.314 Y35.767 E-0.19865
G1 X49.914 Y35.746 E-1.02922
;WIPE_END
G1 E-0.09750 F3000.000
G1 X48.025 Y58.831 F9000.000
G1 E6.50000 F2400.000
;TYPE:Perimeter
G1 F1200.000
G1 X79.025 Y58.831 E0.97198
G1 X79.025 Y58.581 E0.00784
G1 X110.151 Y58.581 E0.97593
G1 X110.151 Y58.831 E0.00784
G1 X151.025 Y58.831 E1.28158
G1 X151.025 Y58.581 E0.00784
G1 X169.151 Y58.581 E0.56832
G1 X169.151 Y58.831 E0.00784
G1 X176.651 Y58.831 E0.23516
G1 X176.651 Y62.457 E0.11369
G1 X169.151 Y62.457 E0.23516
G1 X169.151 Y62.707 E0.00784
G1 X151.025 Y62.707 E0.56832
G1 X151.025 Y62.457 E0.00784
G1 X110.151 Y62.457 E1.28158
G1 X110.151 Y62.707 E0.00784
G1 X79.025 Y62.707 E0.97593
G1 X79.025 Y62.457 E0.00784
G1 X48.025 Y62.457 E0.97198
G1 X48.025 Y58.891 E0.11180
G1 E-4.55000 F3000.000
;WIPE_START
G1 F7200.000
G1 X52.705 Y58.882 E-1.85250
;WIPE_END
G1 E-0.09750 F3000.000
G1 X110.528 Y58.454 F9000.000
G1 E6.50000 F2400.000
;TYPE:External perimeter
G1 F1200.000
G1 X150.648 Y58.454 E1.25793
G1 X150.648 Y58.204 E0.00784
G1 X169.528 Y58.204 E0.59197
G1 X169.528 Y58.454 E0.00784
G1 X177.028 Y58.454 E0.23516
G1 X177.028 Y62.834 E0.13733
G1 X169.528 Y62.834 E0.23516
G1 X169.528 Y63.084 E0.00784
G1 X150.648 Y63.084 E0.59197
G1 X150.648 Y62.834 E0.00784
G1 X110.528 Y62.834 E1.25793
G1 X110.528 Y63.084 E0.00784
G1 X78.648 Y63.084 E0.99958
G1 X78.648 Y62.834 E0.00784
G1 X47.648 Y62.834 E0.97198
G1 X47.648 Y58.454 E0.13733
G1 X78.648 Y58.454 E0.97198
G1 X78.648 Y58.204 E0.00784
G1 X110.528 Y58.204 E0.99958
G1 X110.528 Y58.394 E0.00596
G1 X110.727 Y58.801 F9000.000
G1 E-4.55000 F3000.000
;WIPE_START
G1 F7200.000
G1 X115.208 Y58.401 E-1.85250
;WIPE_END
G1 E-0.09750 F3000.000
G1 X175.775 Y58.944 F9000.000
G1 E6.50000 F2400.000
;TYPE:Solid infill
;WIDTH:0.420448
G1 F1200.000
G1 X176.368 Y59.537 E0.02635
G1 X176.368 Y60.071 E0.01676
G1 X175.411 Y59.114 E0.04252
G1 X174.877 Y59.114 E0.01676
G1 X176.368 Y60.605 E0.06622
G1 X176.368 Y61.139 E0.01676
G1 X174.343 Y59.114 E0.08992
G1 X173.809 Y59.114 E0.01676
G1 X176.368 Y61.673 E0.11363
G1 X176.368 Y62.174 E0.01572
G1 X176.335 Y62.174 E0.00104
G1 X173.275 Y59.114 E0.13586
G1 X172.741 Y59.114 E0.01676
G1 X175.801 Y62.174 E0.13586
G1 X175.267 Y62.174 E0.01676
G1 X172.207 Y59.114 E0.13586
G1 X171.673 Y59.114 E0.01676
G1 X174.734 Y62.174 E0.13586
G1 X174.200 Y62.174 E0.01676
G1 X171.139 Y59.114 E0.13586
G1 X170.606 Y59.114 E0.01676
G1 X173.666 Y62.174 E0.13586
G1 X173.132 Y62.174 E0.01676
G1 X170.072 Y59.114 E0.13586
G1 X169.538 Y59.114 E0.01676
G1 X172.598 Y62.174 E0.13586
G1 X172.064 Y62.174 E0.01676
G1 X168.754 Y58.864 E0.14696
G1 X168.220 Y58.864 E0.01676
G1 X171.530 Y62.174 E0.14696
G1 X170.996 Y62.174 E0.01676
G1 X167.686 Y58.864 E0.14696
G1 X167.152 Y58.864 E0.01676
G1 X170.462 Y62.174 E0.14696
G1 X169.928 Y62.174 E0.01676
G1 X166.618 Y58.864 E0.14696
G1 X166.084 Y58.864 E0.01676
G1 X169.395 Y62.174 E0.14696
G1 X168.868 Y62.182 E0.01652
G1 X165.550 Y58.864 E0.14730
G1 X165.016 Y58.864 E0.01676
G1 X168.577 Y62.424 E0.15806
G1 X168.043 Y62.424 E0.01676
G1 X164.483 Y58.864 E0.15806
G1 X163.949 Y58.864 E0.01676
G1 X167.509 Y62.424 E0.15806
G1 X166.975 Y62.424 E0.01676
G1 X163.415 Y58.864 E0.15806
G1 X162.881 Y58.864 E0.01676
G1 X166.441 Y62.424 E0.15806
G1 X165.907 Y62.424 E0.01676
G1 X162.347 Y58.864 E0.15806
G1 X161.813 Y58.864 E0.01676
G1 X165.373 Y62.424 E0.15806
G1 X164.839 Y62.424 E0.01676
G1 X161.279 Y58.864 E0.15806
G1 X160.745 Y58.864 E0.01676
G1 X164.305 Y62.424 E0.15806
G1 X163.772 Y62.424 E0.01676
G1 X160.211 Y58.864 E0.15806
G1 X159.677 Y58.864 E0.01676
G1 X163.238 Y62.424 E0.15806
G1 X162.704 Y62.424 E0.01676
G1 X159.143 Y58.864 E0.15806
G1 X158.610 Y58.864 E0.01676
G1 X162.170 Y62.424 E0.15806
G1 X161.636 Y62.424 E0.01676
G1 X158.076 Y58.864 E0.15806
G1 X157.542 Y58.864 E0.01676
G1 X161.102 Y62.424 E0.15806
G1 X160.568 Y62.424 E0.01676
G1 X157.008 Y58.864 E0.15806
G1 X156.474 Y58.864 E0.01676
G1 X160.034 Y62.424 E0.15806
G1 X159.500 Y62.424 E0.01676
G1 X155.940 Y58.864 E0.15806
G1 X155.406 Y58.864 E0.01676
G1 X158.966 Y62.424 E0.15806
G1 X158.433 Y62.424 E0.01676
G1 X154.872 Y58.864 E0.15806
G1 X154.338 Y58.864 E0.01676
G1 X157.899 Y62.424 E0.15806
G1 X157.365 Y62.424 E0.01676
G1 X153.804 Y58.864 E0.15806
G1 X153.271 Y58.864 E0.01676
G1 X156.831 Y62.424 E0.15806
G1 X156.297 Y62.424 E0.01676
G1 X152.737 Y58.864 E0.15806
G1 X152.203 Y58.864 E0.01676
G1 X155.763 Y62.424 E0.15806
G1 X155.229 Y62.424 E0.01676
G1 X151.669 Y58.864 E0.15806
G1 X151.308 Y58.864 E0.01132
G1 X151.308 Y59.037 E0.00544
G1 X154.695 Y62.424 E0.15037
G1 X154.161 Y62.424 E0.01676
G1 X150.851 Y59.114 E0.14696
G1 X150.317 Y59.114 E0.01676
G1 X153.627 Y62.424 E0.14696
G1 X153.093 Y62.424 E0.01676
G1 X149.783 Y59.114 E0.14696
G1 X149.249 Y59.114 E0.01676
G1 X152.560 Y62.424 E0.14696
G1 X152.026 Y62.424 E0.01676
G1 X148.715 Y59.114 E0.14696
G1 X148.181 Y59.114 E0.01676
G1 X151.661 Y62.594 E0.15449
G1 X150.878 Y62.344 F9000.000
G1 F1200.000
G1 X147.648 Y59.114 E0.14339
G1 X147.114 Y59.114 E0.01676
G1 X150.174 Y62.174 E0.13586
G1 X149.640 Y62.174 E0.01676
G1 X146.580 Y59.114 E0.13586
G1 X146.046 Y59.114 E0.01676
G1 X149.106 Y62.174 E0.13586
G1 X148.572 Y62.174 E0.01676
G1 X145.512 Y59.114 E0.13586
G1 X144.978 Y59.114 E0.01676
G1 X148.038 Y62.174 E0.13586
G1 X147.504 Y62.174 E0.01676
G1 X144.444 Y59.114 E0.13586
G1 X143.910 Y59.114 E0.01676
G1 X146.971 Y62.174 E0.13586
G1 X146.437 Y62.174 E0.01676
G1 X143.376 Y59.114 E0.13586
G1 X142.842 Y59.114 E0.01676
G1 X145.903 Y62.174 E0.13586
G1 X145.369 Y62.174 E0.01676
G1 X142.309 Y59.114 E0.13586
G1 X141.775 Y59.114 E0.01676
G1 X144.835 Y62.174 E0.13586
G1 X144.301 Y62.174 E0.01676
G1 X141.241 Y59.114 E0.13586
G1 X140.707 Y59.114 E0.01676
G1 X143.767 Y62.174 E0.13586
G1 X143.233 Y62.174 E0.01676
G1 X140.173 Y59.114 E0.13586
G1 X139.639 Y59.114 E0.01676
G1 X142.699 Y62.174 E0.13586
G1 X142.165 Y62.174 E0.01676
G1 X139.105 Y59.114 E0.13586
G1 X138.571 Y59.114 E0.01676
G1 X141.631 Y62.174 E0.13586
G1 X141.098 Y62.174 E0.01676
G1 X138.037 Y59.114 E0.13586
G1 X137.503 Y59.114 E0.01676
G1 X140.564 Y62.174 E0.13586
G1 X140.030 Y62.174 E0.01676
G1 X136.969 Y59.114 E0.13586
G1 X136.436 Y59.114 E0.01676
G1 X139.496 Y62.174 E0.13586
G1 X138.962 Y62.174 E0.01676
G1 X135.902 Y59.114 E0.13586
G1 X135.368 Y59.114 E0.01676
G1 X138.428 Y62.174 E0.13586
G1 X137.894 Y62.174 E0.01676
G1 X134.834 Y59.114 E0.13586
G1 X134.300 Y59.114 E0.01676
G1 X137.360 Y62.174 E0.13586
G1 X136.826 Y62.174 E0.01676
G1 X133.766 Y59.114 E0.13586
G1 X133.232 Y59.114 E0.01676
G1 X136.292 Y62.174 E0.13586
G1 X135.758 Y62.174 E0.01676
G1 X132.698 Y59.114 E0.13586
G1 X132.164 Y59.114 E0.01676
G1 X135.225 Y62.174 E0.13586
G1 X134.691 Y62.174 E0.01676
G1 X131.630 Y59.114 E0.13586
G1 X131.097 Y59.114 E0.01676
G1 X134.157 Y62.174 E0.13586
G1 X133.623 Y62.174 E0.01676
G1 X130.563 Y59.114 E0.13586
G1 X130.029 Y59.114 E0.01676
G1 X133.089 Y62.174 E0.13586
G1 X132.555 Y62.174 E0.01676
G1 X129.495 Y59.114 E0.13586
G1 X128.961 Y59.114 E0.01676
G1 X132.021 Y62.174 E0.13586
G1 X131.487 Y62.174 E0.01676
G1 X128.427 Y59.114 E0.13586
G1 X127.893 Y59.114 E0.01676
G1 X130.953 Y62.174 E0.13586
G1 X130.419 Y62.174 E0.01676
G1 X127.359 Y59.114 E0.13586
G1 X126.825 Y59.114 E0.01676
G1 X129.886 Y62.174 E0.13586
G1 X129.352 Y62.174 E0.01676
G1 X126.291 Y59.114 E0.13586
G1 X125.757 Y59.114 E0.01676
G1 X128.818 Y62.174 E0.13586
G1 X128.284 Y62.174 E0.01676
G1 X125.224 Y59.114 E0.13586
G1 X124.690 Y59.114 E0.01676
G1 X127.750 Y62.174 E0.13586
G1 X127.216 Y62.174 E0.01676
G1 X124.156 Y59.114 E0.13586
G1 X123.622 Y59.114 E0.01676
G1 X126.682 Y62.174 E0.13586
G1 X126.148 Y62.174 E0.01676
G1 X123.088 Y59.114 E0.13586
G1 X122.554 Y59.114 E0.01676
G1 X125.614 Y62.174 E0.13586
G1 X125.080 Y62.174 E0.01676
G1 X122.020 Y59.114 E0.13586
G1 X121.486 Y59.114 E0.01676
G1 X124.546 Y62.174 E0.13586
G1 X124.013 Y62.174 E0.01676
G1 X120.952 Y59.114 E0.13586
G1 X120.418 Y59.114 E0.01676
G1 X123.479 Y62.174 E0.13586
G1 X122.945 Y62.174 E0.01676
G1 X119.885 Y59.114 E0.13586
G1 X119.351 Y59.114 E0.01676
G1 X122.411 Y62.174 E0.13586
G1 X121.877 Y62.174 E0.01676
G1 X118.817 Y59.114 E0.13586
G1 X118.283 Y59.114 E0.01676
G1 X121.343 Y62.174 E0.13586
G1 X120.809 Y62.174 E0.01676
G1 X117.749 Y59.114 E0.13586
G1 X117.215 Y59.114 E0.01676
G1 X120.275 Y62.174 E0.13586
G1 X119.741 Y62.174 E0.01676
G1 X116.681 Y59.114 E0.13586
G1 X116.147 Y59.114 E0.01676
G1 X119.207 Y62.174 E0.13586
G1 X118.674 Y62.174 E0.01676
G1 X115.613 Y59.114 E0.13586
G1 X115.079 Y59.114 E0.01676
G1 X118.140 Y62.174 E0.13586
G1 X117.606 Y62.174 E0.01676
G1 X114.545 Y59.114 E0.13586
G1 X114.012 Y59.114 E0.01676
G1 X117.072 Y62.174 E0.13586
G1 X116.538 Y62.174 E0.01676
G1 X113.478 Y59.114 E0.13586
G1 X112.944 Y59.114 E0.01676
G1 X116.004 Y62.174 E0.13586
G1 X115.470 Y62.174 E0.01676
G1 X112.410 Y59.114 E0.13586
G1 X111.876 Y59.114 E0.01676
G1 X114.936 Y62.174 E0.13586
G1 X114.402 Y62.174 E0.01676
G1 X111.342 Y59.114 E0.13586
G1 X110.808 Y59.114 E0.01676
G1 X113.868 Y62.174 E0.13586
G1 X113.334 Y62.174 E0.01676
G1 X110.274 Y59.114 E0.13586
G1 X109.868 Y59.114 E0.01274
G1 X109.868 Y58.864 E0.00785
G1 X109.490 Y58.864 E0.01187
G1 X112.801 Y62.174 E0.14696
G1 X112.267 Y62.174 E0.01676
G1 X108.956 Y58.864 E0.14696
G1 X108.422 Y58.864 E0.01676
G1 X111.733 Y62.174 E0.14696
G1 X111.199 Y62.174 E0.01676
G1 X107.889 Y58.864 E0.14696
G1 X107.355 Y58.864 E0.01676
G1 X110.665 Y62.174 E0.14696
G1 X110.131 Y62.174 E0.01676
G1 X106.821 Y58.864 E0.14696
G1 X106.287 Y58.864 E0.01676
G1 X109.847 Y62.424 E0.15806
G1 X109.313 Y62.424 E0.01676
G1 X105.753 Y58.864 E0.15806
G1 X105.219 Y58.864 E0.01676
G1 X108.779 Y62.424 E0.15806
G1 X108.245 Y62.424 E0.01676
G1 X104.685 Y58.864 E0.15806
G1 X104.151 Y58.864 E0.01676
G1 X107.712 Y62.424 E0.15806
G1 X107.178 Y62.424 E0.01676
G1 X103.617 Y58.864 E0.15806
G1 X103.083 Y58.864 E0.01676
G1 X106.644 Y62.424 E0.15806
G1 X106.110 Y62.424 E0.01676
G1 X102.550 Y58.864 E0.15806
G1 X102.016 Y58.864 E0.01676
G1 X105.576 Y62.424 E0.15806
G1 X105.042 Y62.424 E0.01676
G1 X101.482 Y58.864 E0.15806
G1 X100.948 Y58.864 E0.01676
G1 X104.508 Y62.424 E0.15806
G1 X103.974 Y62.424 E0.01676
G1 X100.414 Y58.864 E0.15806
G1 X99.880 Y58.864 E0.01676
G1 X103.440 Y62.424 E0.15806
G1 X102.906 Y62.424 E0.01676
G1 X99.346 Y58.864 E0.15806
G1 X98.812 Y58.864 E0.01676
G1 X102.372 Y62.424 E0.15806
G1 X101.839 Y62.424 E0.01676
G1 X98.278 Y58.864 E0.15806
G1 X97.744 Y58.864 E0.01676
G1 X101.305 Y62.424 E0.15806
G1 X100.771 Y62.424 E0.01676
G1 X97.210 Y58.864 E0.15806
G1 X96.677 Y58.864 E0.01676
G1 X100.237 Y62.424 E0.15806
G1 X99.703 Y62.424 E0.01676
G1 X96.143 Y58.864 E0.15806
G1 X95.609 Y58.864 E0.01676
G1 X99.169 Y62.424 E0.15806
G1 X98.635 Y62.424 E0.01676
G1 X95.075 Y58.864 E0.15806
G1 X94.541 Y58.864 E0.01676
G1 X98.101 Y62.424 E0.15806
G1 X97.567 Y62.424 E0.01676
G1 X94.007 Y58.864 E0.15806
G1 X93.473 Y58.864 E0.01676
G1 X97.033 Y62.424 E0.15806
G1 X96.500 Y62.424 E0.01676
G1 X92.939 Y58.864 E0.15806
G1 X92.405 Y58.864 E0.01676
G1 X95.966 Y62.424 E0.15806
G1 X95.432 Y62.424 E0.01676
G1 X91.871 Y58.864 E0.15806
G1 X91.338 Y58.864 E0.01676
G1 X94.898 Y62.424 E0.15806
G1 X94.364 Y62.424 E0.01676
G1 X90.804 Y58.864 E0.15806
G1 X90.270 Y58.864 E0.01676
G1 X93.830 Y62.424 E0.15806
G1 X93.296 Y62.424 E0.01676
G1 X89.736 Y58.864 E0.15806
G1 X89.202 Y58.864 E0.01676
G1 X92.762 Y62.424 E0.15806
G1 X92.228 Y62.424 E0.01676
G1 X88.668 Y58.864 E0.15806
G1 X88.134 Y58.864 E0.01676
G1 X91.694 Y62.424 E0.15806
G1 X91.160 Y62.424 E0.01676
G1 X87.600 Y58.864 E0.15806
G1 X87.066 Y58.864 E0.01676
G1 X90.627 Y62.424 E0.15806
G1 X90.093 Y62.424 E0.01676
G1 X86.532 Y58.864 E0.15806
G1 X85.998 Y58.864 E0.01676
G1 X89.559 Y62.424 E0.15806
G1 X89.025 Y62.424 E0.01676
G1 X85.465 Y58.864 E0.15806
G1 X84.931 Y58.864 E0.01676
G1 X88.491 Y62.424 E0.15806
G1 X87.957 Y62.424 E0.01676
G1 X84.397 Y58.864 E0.15806
G1 X83.863 Y58.864 E0.01676
G1 X87.423 Y62.424 E0.15806
G1 X86.889 Y62.424 E0.01676
G1 X83.329 Y58.864 E0.15806
G1 X82.795 Y58.864 E0.01676
G1 X86.355 Y62.424 E0.15806
G1 X85.821 Y62.424 E0.01676
G1 X82.261 Y58.864 E0.15806
G1 X81.727 Y58.864 E0.01676
G1 X85.288 Y62.424 E0.15806
G1 X84.754 Y62.424 E0.01676
G1 X81.193 Y58.864 E0.15806
G1 X80.659 Y58.864 E0.01676
G1 X84.220 Y62.424 E0.15806
G1 X83.686 Y62.424 E0.01676
G1 X80.126 Y58.864 E0.15806
G1 X79.592 Y58.864 E0.01676
G1 X83.152 Y62.424 E0.15806
G1 X82.618 Y62.424 E0.01676
G1 X79.308 Y59.114 E0.14696
G1 X78.774 Y59.114 E0.01676
G1 X82.084 Y62.424 E0.14696
G1 X81.550 Y62.424 E0.01676
G1 X78.240 Y59.114 E0.14696
G1 X77.706 Y59.114 E0.01676
G1 X81.016 Y62.424 E0.14696
G1 X80.482 Y62.424 E0.01676
G1 X77.172 Y59.114 E0.14696
G1 X76.638 Y59.114 E0.01676
G1 X79.948 Y62.424 E0.14696
G1 X79.415 Y62.424 E0.01676
G1 X76.104 Y59.114 E0.14696
G1 X75.570 Y59.114 E0.01676
G1 X78.631 Y62.174 E0.13586
G1 X78.097 Y62.174 E0.01676
G1 X75.036 Y59.114 E0.13586
G1 X74.503 Y59.114 E0.01676
G1 X77.563 Y62.174 E0.13586
G1 X77.029 Y62.174 E0.01676
G1 X73.969 Y59.114 E0.13586
G1 X73.435 Y59.114 E0.01676
G1 X76.495 Y62.174 E0.13586
G1 X75.961 Y62.174 E0.01676
G1 X72.901 Y59.114 E0.13586
G1 X72.367 Y59.114 E0.01676
G1 X75.427 Y62.174 E0.13586
G1 X74.893 Y62.174 E0.01676
G1 X71.833 Y59.114 E0.13586
G1 X71.299 Y59.114 E0.01676
G1 X74.359 Y62.174 E0.13586
G1 X73.825 Y62.174 E0.01676
G1 X70.765 Y59.114 E0.13586
G1 X70.231 Y59.114 E0.01676
G1 X73.292 Y62.174 E0.13586
G1 X72.758 Y62.174 E0.01676
G1 X69.697 Y59.114 E0.13586
G1 X69.164 Y59.114 E0.01676
G1 X72.224 Y62.174 E0.13586
G1 X71.690 Y62.174 E0.01676
G1 X68.630 Y59.114 E0.13586
G1 X68.096 Y59.114 E0.01676
G1 X71.156 Y62.174 E0.13586
G1 X70.622 Y62.174 E0.01676
G1 X67.562 Y59.114 E0.13586
G1 X67.028 Y59.114 E0.01676
G1 X70.088 Y62.174 E0.13586
G1 X69.554 Y62.174 E0.01676
G1 X66.494 Y59.114 E0.13586
G1 X65.960 Y59.114 E0.01676
G1 X69.020 Y62.174 E0.13586
