; generated by PrusaSlicer 2.3.3+x64 on 2021-09-23 at 10:12:05 UTC

; 

; external perimeters extrusion width = 0.45mm
; perimeters extrusion width = 0.45mm
; infill extrusion width = 0.45mm
; solid infill extrusion width = 0.45mm
; top infill extrusion width = 0.40mm
; first layer extrusion width = 0.42mm

M201 X500 Y500 Z100 E5000 ; sets maximum accelerations, mm/sec^2
M203 X500 Y500 Z10 E60 ; sets maximum feedrates, mm/sec
M204 P500 R1000 T500 ; sets acceleration (P, T) and retract acceleration (R), mm/sec^2
M205 X8.00 Y8.00 Z0.40 E5.00 ; sets the jerk limits, mm/sec
M205 S0 T0 ; sets the minimum extruding and travel feed rate, mm/sec
M107
;TYPE:Custom
G90 ; use absolute coordinates
M83 ; extruder relative mode
M104 S200 ; set extruder temp
M140 S60 ; set bed temp
M190 S60 ; wait for bed temp
M109 S200 ; wait for extruder temp
G28 ; home all
G29 ; Level Bed
G1 Z2 F240
G1 X2 Y10 F3000
G1 Z0.28 F240
G92 E0
G1 Y190 E15 F1500 ; intro line
G1 X2.3 F5000
G92 E0
G1 Y10 E15 F1200 ; intro line
G92 E0
G21 ; set units to millimeters
G90 ; use absolute coordinates
M83 ; use relative distances for extrusion
; Filament gcode
;LAYER_CHANGE
;Z:0.2
;HEIGHT:0.2
;BEFORE_LAYER_CHANGE
G92 E0
;0.2


G1 E-6.50000 F3000.000
G1 Z0.200 F9000.000
;AFTER_LAYER_CHANGE
;0.2
G1 X37.223 Y14.023
G1 E6.50000 F2400.000
;TYPE:Skirt
;WIDTH:0.42
G1 F1200.000
G1 X37.949 Y14.455 E0.02649
G1 X105.572 Y73.866 E2.82232
G1 X199.255 Y156.637 E3.91961
G1 X225.610 Y180.306 E1.11068
G1 X225.991 Y181.006 E0.02496
G1 X226.119 Y181.795 E0.02508
G1 X225.980 Y182.579 E0.02496
G1 X225.587 Y183.276 E0.02508
G1 X196.081 Y216.617 E1.39598
G1 X195.361 Y217.006 E0.02567
G1 X194.551 Y217.127 E0.02567
G1 X193.748 Y216.966 E0.02567
G1 X193.048 Y216.543 E0.02565
G1 X166.645 Y193.549 E1.09779
G1 X72.965 Y110.782 E3.91946
G1 X5.389 Y50.693 E2.83529
G1 X5.005 Y49.983 E0.02532
G1 X4.881 Y49.181 E0.02543
G1 X5.032 Y48.388 E0.02532
G1 X5.440 Y47.691 E0.02532
G1 X34.637 Y14.644 E1.38264
G1 X35.007 Y14.316 E0.01550
G1 X35.437 Y14.072 E0.01550
G1 X35.908 Y13.922 E0.01550
G1 X36.396 Y13.872 E0.01538
G1 X37.164 Y14.012 E0.02449
G1 E-4.55000 F3000.000
;WIPE_START
G1 F7200.000
G1 X37.949 Y14.455 E-0.35679
G1 X40.788 Y16.949 E-1.49571
;WIPE_END
G1 E-0.09750 F3000.000
G1 X10.628 Y46.446 F9000.000
G1 E6.50000 F2400.000
;TYPE:Perimeter
G1 F1200.000
G1 X78.075 Y106.036 E2.82189
G1 X78.240 Y105.849 E0.00784
G1 X78.475 Y106.056 E0.00981
G1 X114.681 Y138.044 E1.51482
G1 X114.515 Y138.232 E0.00784
G1 X153.015 Y172.247 E1.61080
G1 X153.181 Y172.060 E0.00784
G1 X170.886 Y187.702 E0.74077
G1 X170.721 Y187.890 E0.00784
G1 X196.950 Y211.064 E1.09740
G1 X194.549 Y213.781 E0.11369
G1 X168.320 Y190.607 E1.09740
G1 X168.155 Y190.794 E0.00784
G1 X150.449 Y175.152 E0.74077
G1 X150.615 Y174.964 E0.00784
G1 X147.125 Y171.881 E0.14601
G1 X112.115 Y140.949 E1.46479
G1 X111.949 Y141.136 E0.00784
G1 X78.333 Y111.436 E1.40647
G1 X75.509 Y108.940 E0.11815
G1 X75.674 Y108.753 E0.00784
G1 X8.228 Y49.163 E2.82189
G1 X10.589 Y46.491 E0.11180
G1 E-4.55000 F3000.000
;WIPE_START
G1 F7200.000
G1 X14.098 Y49.587 E-1.85250
;WIPE_END
G1 E-0.09750 F3000.000
G1 X78.042 Y105.504 F9000.000
G1 E6.50000 F2400.000
;TYPE:External perimeter
G1 F1200.000
G1 X78.207 Y105.316 E0.00784
G1 X78.725 Y105.773 E0.02163
G1 X115.213 Y138.011 E1.52664
G1 X115.048 Y138.199 E0.00784
G1 X152.983 Y171.715 E1.58715
G1 X153.148 Y171.527 E0.00784
G1 X171.419 Y187.670 E0.76442
G1 X171.253 Y187.857 E0.00784
G1 X197.482 Y211.031 E1.09740
G1 X194.582 Y214.313 E0.13733
G1 X168.353 Y191.139 E1.09740
G1 X168.188 Y191.327 E0.00784
G1 X149.917 Y175.184 E0.76442
G1 X150.083 Y174.997 E0.00784
G1 X146.875 Y172.163 E0.13419
G1 X112.148 Y141.481 E1.45297
G1 X111.982 Y141.668 E0.00784
G1 X78.083 Y111.718 E1.41830
G1 X74.976 Y108.973 E0.12998
G1 X75.142 Y108.786 E0.00784
G1 X7.695 Y49.196 E2.82189
G1 X10.595 Y45.914 E0.13733
G1 X77.997 Y105.464 E2.82001
G1 X78.232 Y105.666 F9000.000
G1 E-4.55000 F3000.000
;WIPE_START
G1 F7200.000
G1 X78.207 Y105.316 E-0.10177
G1 X78.725 Y105.773 E-0.27313
G1 X81.522 Y108.245 E-1.47761
;WIPE_END
G1 E-0.09750 F3000.000
G1 X190.058 Y205.125 F9000.000
G1 E6.50000 F2400.000
;TYPE:Solid infill
;WIDTH:0.425902
G1 F1200.000
G1 X196.302 Y211.370 E0.28122
G1 X196.048 Y211.657 E0.01222
G1 X187.352 Y202.961 E0.39164
G1 X182.702 Y198.853 E0.19758
G1 X195.794 Y211.945 E0.58960
G1 X195.540 Y212.232 E0.01222
G1 X178.053 Y194.745 E0.78755
G1 X173.403 Y190.637 E0.19758
G1 X195.286 Y212.520 E0.98551
G1 X195.032 Y212.808 E0.01222
G1 X165.890 Y183.665 E1.31244
G1 X161.240 Y179.557 E0.19758
G1 X194.778 Y213.095 E1.51040
G1 X194.525 Y213.382 E0.01218
G1 X156.590 Y175.449 E1.70836
G1 X153.206 Y172.459 E0.14383
G1 X153.137 Y172.537 E0.00332
G1 X189.861 Y209.261 E1.65392
G1 X185.211 Y205.153 E0.19758
G1 X150.155 Y170.097 E1.57879
G1 X145.505 Y165.989 E0.19758
G1 X180.562 Y201.045 E1.57879
G1 X175.912 Y196.937 E0.19758
G1 X140.856 Y161.881 E1.57879
G1 X136.206 Y157.773 E0.19758
G1 X171.263 Y192.829 E1.57879
G1 X168.295 Y190.208 E0.12608
G1 X168.204 Y190.312 E0.00442
G1 X131.556 Y153.665 E1.65043
G1 X126.907 Y149.557 E0.19758
G1 X164.827 Y187.477 E1.70777
G1 X160.177 Y183.369 E0.19758
G1 X122.257 Y145.449 E1.70777
G1 X117.608 Y141.341 E0.19758
G1 X155.528 Y179.261 E1.70777
G1 X150.878 Y175.153 E0.19758
G1 X150.850 Y175.125 E0.00127
G1 X151.014 Y174.939 E0.00788
G1 X148.014 Y172.289 E0.12746
G1 X110.094 Y134.369 E1.70777
G1 X105.444 Y130.261 E0.19758
G1 X143.365 Y168.181 E1.70777
G1 X138.715 Y164.073 E0.19758
G1 X100.795 Y126.153 E1.70777
G1 X96.145 Y122.045 E0.19758
G1 X134.065 Y159.965 E1.70777
G1 X129.416 Y155.857 E0.19758
G1 X91.495 Y117.937 E1.70777
G1 X86.846 Y113.829 E0.19758
G1 X124.766 Y151.749 E1.70777
G1 X120.117 Y147.641 E0.19758
G1 X82.196 Y109.721 E1.70777
G1 X78.265 Y106.248 E0.16705
G1 X78.226 Y106.292 E0.00189
G1 X115.467 Y143.533 E1.67718
G1 X112.090 Y140.550 E0.14350
G1 X112.020 Y140.628 E0.00334
G1 X75.761 Y104.369 E1.63298
G1 X71.111 Y100.261 E0.19758
G1 X109.031 Y138.181 E1.70777
G1 X104.382 Y134.073 E0.19758
G1 X66.462 Y96.153 E1.70777
G1 X61.812 Y92.045 E0.19758
G1 X99.732 Y129.965 E1.70777
G1 X95.083 Y125.857 E0.19758
G1 X57.162 Y87.937 E1.70777
G1 X52.513 Y83.829 E0.19758
G1 X90.433 Y121.749 E1.70777
G1 X85.783 Y117.641 E0.19758
G1 X47.863 Y79.721 E1.70777
G1 X43.213 Y75.613 E0.19758
G1 X81.134 Y113.533 E1.70777
G1 X76.484 Y109.425 E0.19758
G1 X75.939 Y108.880 E0.02453
G1 X76.073 Y108.728 E0.00645
G1 X73.620 Y106.561 E0.10425
G1 X38.564 Y71.504 E1.57879
G1 X33.914 Y67.396 E0.19758
G1 X68.970 Y102.453 E1.57879
G1 X64.321 Y98.345 E0.19758
G1 X29.264 Y63.288 E1.57879
G1 X24.615 Y59.180 E0.19758
G1 X59.671 Y94.237 E1.57879
G1 X55.022 Y90.129 E0.19758
G1 X19.965 Y55.072 E1.57879
G1 X15.315 Y50.964 E0.19758
G1 X50.372 Y86.021 E1.57879
G1 X45.722 Y81.913 E0.19758
G1 X10.653 Y46.845 E1.57934
G1 X10.400 Y47.132 E0.01219
G1 X41.073 Y77.805 E1.38138
G1 X36.423 Y73.697 E0.19758
G1 X10.146 Y47.419 E1.18342
G1 X9.892 Y47.707 E0.01222
G1 X31.773 Y69.589 E0.98546
G1 X27.124 Y65.481 E0.19758
G1 X9.637 Y47.994 E0.78751
G1 X9.383 Y48.282 E0.01222
G1 X22.474 Y61.373 E0.58955
G1 X17.824 Y57.265 E0.19758
G1 X9.129 Y48.570 E0.39159
G1 X8.875 Y48.857 E0.01222
G1 X15.119 Y55.100 E0.28117
G1 E-4.55000 F3000.000
;WIPE_START
G1 F7200.000
G1 X11.809 Y51.791 E-1.85250
;WIPE_END
G1 E-0.09750 F3000.000
G1 X103.897 Y76.809 F9000.000
G1 E6.50000 F2400.000
;TYPE:Perimeter
;WIDTH:0.42
G1 F1200.000
G1 X104.063 Y76.622 E0.00784
G1 X140.503 Y108.817 E1.52463
G1 X140.338 Y109.005 E0.00784
G1 X141.227 Y109.791 E0.03722
G1 X178.838 Y143.020 E1.57358
G1 X179.003 Y142.833 E0.00784
G1 X196.709 Y158.476 E0.74077
G1 X196.543 Y158.663 E0.00784
G1 X222.772 Y181.837 E1.09740
G1 X220.372 Y184.554 E0.11369
G1 X194.142 Y161.380 E1.09740
G1 X193.977 Y161.568 E0.00784
G1 X176.272 Y145.925 E0.74077
G1 X176.437 Y145.737 E0.00784
G1 X137.937 Y111.722 E1.61080
G1 X137.771 Y111.909 E0.00784
G1 X137.162 Y111.371 E0.02549
G1 X101.331 Y79.714 E1.49914
G1 X101.496 Y79.526 E0.00784
G1 X34.050 Y19.936 E2.82189
G1 X36.451 Y17.219 E0.11369
G1 X103.852 Y76.769 E2.82001
G1 X103.864 Y76.277 F9000.000
;TYPE:External perimeter
G1 F1200.000
G1 X104.030 Y76.089 E0.00784
G1 X141.035 Y108.784 E1.54828
G1 X140.870 Y108.972 E0.00784
G1 X141.477 Y109.508 E0.02540
G1 X178.805 Y142.488 E1.56176
G1 X178.970 Y142.300 E0.00784
G1 X197.241 Y158.443 E0.76442
G1 X197.075 Y158.630 E0.00784
G1 X223.305 Y181.804 E1.09740
G1 X220.405 Y185.086 E0.13733
G1 X194.175 Y161.912 E1.09740
G1 X194.010 Y162.100 E0.00784
G1 X175.739 Y145.958 E0.76442
G1 X175.905 Y145.770 E0.00784
G1 X137.970 Y112.254 E1.58715
G1 X137.804 Y112.442 E0.00784
G1 X136.913 Y111.654 E0.03731
G1 X100.799 Y79.747 E1.51096
G1 X100.964 Y79.559 E0.00784
G1 X33.518 Y19.969 E2.82189
G1 X36.418 Y16.687 E0.13733
G1 X103.819 Y76.237 E2.82001
G1 X104.054 Y76.439 F9000.000
G1 E-4.55000 F3000.000
;WIPE_START
G1 F7200.000
G1 X104.030 Y76.089 E-0.10177
G1 X107.344 Y79.018 E-1.75073
;WIPE_END
G1 E-0.09750 F3000.000
G1 X215.880 Y175.899 F9000.000
G1 E6.50000 F2400.000
;TYPE:Solid infill
;WIDTH:0.425902
G1 F1200.000
G1 X222.125 Y182.143 E0.28122
G1 X221.871 Y182.430 E0.01222
G1 X213.174 Y173.734 E0.39164
G1 X208.525 Y169.626 E0.19758
G1 X221.617 Y182.718 E0.58960
G1 X221.362 Y183.006 E0.01222
G1 X203.875 Y165.518 E0.78755
G1 X199.226 Y161.410 E0.19758
G1 X221.108 Y183.293 E0.98551
G1 X220.854 Y183.581 E0.01222
G1 X191.712 Y154.438 E1.31244
G1 X187.062 Y150.330 E0.19758
G1 X220.600 Y183.868 E1.51040
G1 X220.347 Y184.155 E0.01218
G1 X182.413 Y146.222 E1.70836
G1 X179.028 Y143.232 E0.14383
G1 X178.959 Y143.310 E0.00332
G1 X215.683 Y180.035 E1.65392
G1 X211.034 Y175.927 E0.19758
G1 X175.977 Y140.870 E1.57879
G1 X171.328 Y136.762 E0.19758
G1 X206.384 Y171.819 E1.57879
G1 X201.734 Y167.711 E0.19758
G1 X166.678 Y132.654 E1.57879
G1 X162.028 Y128.546 E0.19758
G1 X197.085 Y163.603 E1.57879
G1 X194.118 Y160.981 E0.12608
G1 X194.026 Y161.085 E0.00442
G1 X157.379 Y124.438 E1.65043
G1 X152.729 Y120.330 E0.19758
G1 X190.649 Y158.250 E1.70777
G1 X186.000 Y154.142 E0.19758
G1 X148.079 Y116.222 E1.70777
G1 X143.430 Y112.114 E0.19758
G1 X181.350 Y150.034 E1.70777
G1 X176.700 Y145.926 E0.19758
G1 X176.672 Y145.898 E0.00126
G1 X176.836 Y145.713 E0.00788
G1 X173.837 Y143.062 E0.12747
G1 X135.916 Y105.142 E1.70777
G1 X131.267 Y101.034 E0.19758
G1 X169.187 Y138.954 E1.70777
G1 X164.537 Y134.846 E0.19758
G1 X126.617 Y96.926 E1.70777
G1 X121.967 Y92.818 E0.19758
G1 X159.888 Y130.738 E1.70777
G1 X155.238 Y126.630 E0.19758
G1 X117.318 Y88.710 E1.70777
G1 X112.668 Y84.602 E0.19758
G1 X150.588 Y122.522 E1.70777
G1 X145.939 Y118.414 E0.19758
G1 X108.018 Y80.494 E1.70777
G1 X104.087 Y77.021 E0.16705
G1 X104.048 Y77.065 E0.00189
G1 X141.289 Y114.306 E1.67718
G1 X137.912 Y111.323 E0.14349
G1 X137.843 Y111.401 E0.00335
G1 X101.583 Y75.142 E1.63298
G1 X96.933 Y71.034 E0.19758
G1 X134.854 Y108.954 E1.70777
G1 X130.204 Y104.846 E0.19758
G1 X92.284 Y66.926 E1.70777
G1 X87.634 Y62.818 E0.19758
G1 X125.554 Y100.738 E1.70777
G1 X120.905 Y96.630 E0.19758
G1 X82.984 Y58.710 E1.70777
G1 X78.335 Y54.602 E0.19758
G1 X116.255 Y92.522 E1.70777
G1 X111.606 Y88.414 E0.19758
G1 X73.685 Y50.494 E1.70777
G1 X69.036 Y46.386 E0.19758
G1 X106.956 Y84.306 E1.70777
G1 X102.306 Y80.198 E0.19758
G1 X101.762 Y79.653 E0.02453
G1 X101.896 Y79.502 E0.00645
G1 X99.442 Y77.334 E0.10425
G1 X64.386 Y42.278 E1.57879
G1 X59.736 Y38.170 E0.19758
G1 X94.793 Y73.226 E1.57879
G1 X90.143 Y69.118 E0.19758
G1 X55.087 Y34.062 E1.57879
G1 X50.437 Y29.954 E0.19758
G1 X85.493 Y65.010 E1.57879
G1 X80.844 Y60.902 E0.19758
G1 X45.787 Y25.846 E1.57879
G1 X41.138 Y21.738 E0.19758
G1 X76.194 Y56.794 E1.57879
G1 X71.545 Y52.686 E0.19758
G1 X36.475 Y17.618 E1.57934
G1 X36.222 Y17.905 E0.01219
G1 X66.895 Y48.578 E1.38138
G1 X62.245 Y44.470 E0.19758
G1 X35.968 Y18.193 E1.18342
G1 X35.714 Y18.480 E0.01222
G1 X57.596 Y40.362 E0.98546
G1 X52.946 Y36.254 E0.19758
G1 X35.460 Y18.768 E0.78751
G1 X35.206 Y19.055 E0.01222
G1 X48.296 Y32.146 E0.58955
G1 X43.647 Y28.038 E0.19758
G1 X34.952 Y19.343 E0.39159
G1 X34.698 Y19.630 E0.01222
G1 X40.941 Y25.874 E0.28117
M106 S255
;LAYER_CHANGE
;Z:0.4
;HEIGHT:0.2
;BEFORE_LAYER_CHANGE
G92 E0
;0.4


G1 E-4.55000 F3000.000
;WIPE_START
G1 F7200.000
G1 X37.632 Y22.564 E-1.85250
;WIPE_END
G1 E-0.09750 F3000.000
G1 Z0.400 F9000.000
;AFTER_LAYER_CHANGE
;0.4
M104 S190 ; set temperature
G1 X37.223 Y14.023
G1 E6.50000 F2400.000
;TYPE:Skirt
;WIDTH:0.42
G1 X37.949 Y14.455 E0.02649
G1 X105.572 Y73.866 E2.82232
G1 X199.255 Y156.637 E3.91961
G1 X225.610 Y180.306 E1.11068
G1 X225.991 Y181.006 E0.02496
G1 X226.119 Y181.795 E0.02508
G1 X225.980 Y182.579 E0.02496
G1 X225.587 Y183.276 E0.02508
G1 X196.081 Y216.617 E1.39598
G1 X195.361 Y217.006 E0.02567
G1 X194.551 Y217.127 E0.02567
G1 X193.748 Y216.966 E0.02567
G1 X193.048 Y216.543 E0.02565
G1 X166.645 Y193.549 E1.09779
G1 X72.965 Y110.782 E3.91946
G1 X5.389 Y50.693 E2.83529
G1 X5.005 Y49.983 E0.02532
G1 X4.881 Y49.181 E0.02543
G1 X5.032 Y48.388 E0.02532
G1 X5.440 Y47.691 E0.02532
G1 X34.637 Y14.644 E1.38264
G1 X35.007 Y14.316 E0.01550
G1 X35.437 Y14.072 E0.01550
G1 X35.908 Y13.922 E0.01550
G1 X36.396 Y13.872 E0.01538
G1 X37.164 Y14.012 E0.02449
G1 E-4.55000 F3000.000
;WIPE_START
G1 F7200.000
G1 X37.949 Y14.455 E-0.35679
G1 X40.788 Y16.949 E-1.49571
;WIPE_END
G1 E-0.09750 F3000.000
G1 X36.446 Y17.141 F9000.000
G1 E6.50000 F2400.000
;TYPE:Perimeter
;WIDTH:0.45
G1 X103.892 Y76.731 E3.04639
G1 X104.058 Y76.544 E0.00846
G1 X105.628 Y77.931 E0.07092
G1 X140.581 Y108.813 E1.57873
G1 X140.415 Y109.000 E0.00846
G1 X178.833 Y142.942 E1.73523
G1 X178.999 Y142.755 E0.00846
G1 X196.786 Y158.471 E0.80343
G1 X196.621 Y158.658 E0.00846
G1 X222.850 Y181.832 E1.18471
G1 X220.376 Y184.632 E0.12645
G1 X194.147 Y161.458 E1.18471
G1 X193.982 Y161.645 E0.00846
G1 X176.194 Y145.929 E0.80343
G1 X176.359 Y145.742 E0.00846
G1 X137.942 Y111.800 E1.73523
G1 X137.776 Y111.987 E0.00846
G1 X101.253 Y79.718 E1.64965
G1 X101.419 Y79.531 E0.00846
G1 X33.972 Y19.941 E3.04639
G1 X36.406 Y17.186 E0.12442
G1 E-4.55000 F3000.000
;WIPE_START
G1 F7200.000
G1 X39.915 Y20.283 E-1.85250
;WIPE_END
G1 E-0.09750 F3000.000
G1 X103.857 Y76.157 F9000.000
G1 E6.50000 F2400.000
;TYPE:External perimeter
G1 F1500.000
G1 X104.022 Y75.969 E0.00846
G1 X105.898 Y77.626 E0.08470
G1 X141.155 Y108.777 E1.59251
G1 X140.990 Y108.964 E0.00846
G1 X143.407 Y111.100 E0.10916
G1 X178.797 Y142.368 E1.59851
G1 X178.963 Y142.180 E0.00846
G1 X197.361 Y158.435 E0.83099
G1 X197.195 Y158.623 E0.00846
G1 X223.425 Y181.797 E1.18471
G1 X220.412 Y185.206 E0.15401
G1 X194.183 Y162.032 E1.18471
G1 X194.017 Y162.220 E0.00846
G1 X175.619 Y145.965 E0.83099
G1 X175.785 Y145.778 E0.00846
G1 X137.977 Y112.374 E1.70767
G1 X137.812 Y112.562 E0.00846
G1 X100.679 Y79.754 E1.67721
G1 X100.844 Y79.567 E0.00846
G1 X33.398 Y19.977 E3.04639
G1 X36.410 Y16.567 E0.15401
G1 X103.812 Y76.117 E3.04436
G1 X104.047 Y76.319 F9000.000
G1 E-4.55000 F3000.000
;WIPE_START
G1 F7200.000
G1 X104.022 Y75.969 E-0.10177
G1 X105.898 Y77.626 E-0.99048
G1 X107.337 Y78.898 E-0.76025
;WIPE_END
G1 E-0.09750 F3000.000
G1 X219.923 Y184.068 F9000.000
G1 E6.50000 F2400.000
;TYPE:Solid infill
;WIDTH:0.450598
G1 X222.267 Y181.724 E0.11237
G1 X221.961 Y181.454 E0.01385
G1 X219.746 Y183.668 E0.10614
G1 X219.440 Y183.397 E0.01385
G1 X221.654 Y181.183 E0.10614
G1 X221.348 Y180.913 E0.01385
G1 X219.134 Y183.127 E0.10614
G1 X218.828 Y182.856 E0.01385
G1 X221.042 Y180.642 E0.10614
G1 X220.736 Y180.372 E0.01385
G1 X218.522 Y182.586 E0.10614
G1 X218.216 Y182.316 E0.01385
G1 X220.430 Y180.101 E0.10614
G1 X220.124 Y179.831 E0.01385
G1 X217.910 Y182.045 E0.10614
G1 X217.604 Y181.775 E0.01385
G1 X219.818 Y179.561 E0.10614
G1 X219.512 Y179.290 E0.01385
G1 X217.298 Y181.504 E0.10614
G1 X216.992 Y181.234 E0.01385
G1 X219.206 Y179.020 E0.10614
G1 X218.900 Y178.749 E0.01385
G1 X216.685 Y180.963 E0.10614
G1 X216.379 Y180.693 E0.01385
G1 X218.593 Y178.479 E0.10614
G1 X218.287 Y178.208 E0.01385
G1 X216.073 Y180.422 E0.10614
G1 X215.767 Y180.152 E0.01385
G1 X217.981 Y177.938 E0.10614
G1 X217.675 Y177.667 E0.01385
