; generated by PrusaSlicer 2.3.3+x64 on 2021-11-27 at 01:26:20 UTC

; 

; external perimeters extrusion width = 0.45mm
; perimeters extrusion width = 0.45mm
; infill extrusion width = 0.45mm
; solid infill extrusion width = 0.45mm
; top infill extrusion width = 0.40mm
; first layer extrusion width = 0.42mm

M201 X500 Y500 Z100 E5000 ; sets maximum accelerations, mm/sec^2
M203 X500 Y500 Z10 E60 ; sets maximum feedrates, mm/sec
M204 P500 R1000 T500 ; sets acceleration (P, T) and retract acceleration (R), mm/sec^2
M205 X8.00 Y8.00 Z0.40 E5.00 ; sets the jerk limits, mm/sec
M205 S0 T0 ; sets the minimum extruding and travel feed rate, mm/sec
M107
;TYPE:Custom
G90 ; use absolute coordinates
M83 ; extruder relative mode
M104 S200 ; set extruder temp
M140 S60 ; set bed temp
M190 S60 ; wait for bed temp
M109 S200 ; wait for extruder temp
G28 ; home all
G1 Z2 F240
G1 X2 Y10 F3000
G1 Z0.28 F240
G92 E0
G1 Y190 E15 F1500 ; intro line
G1 X2.3 F5000
G92 E0
G1 Y10 E15 F1200 ; intro line
G92 E0
G21 ; set units to millimeters
G90 ; use absolute coordinates
M83 ; use relative distances for extrusion
; Filament gcode
;LAYER_CHANGE
;Z:0.2
;HEIGHT:0.2
;BEFORE_LAYER_CHANGE
G92 E0
;0.2


G1 E-5.00000 F3000.000
G1 Z0.200 F1200.000
;AFTER_LAYER_CHANGE
;0.2
G1 X94.954 Y52.704
G1 E5.00000 F2400.000
;TYPE:Skirt
;WIDTH:0.42
G1 F1200.000
G1 X95.377 Y52.232 E0.01989
G1 X95.913 Y51.886 E0.02000
G1 X96.398 Y51.720 E0.01609
G1 X96.908 Y51.662 E0.01609
G1 X136.925 Y51.662 E1.25468
G1 X137.809 Y51.834 E0.02825
G1 X138.563 Y52.321 E0.02813
G1 X139.083 Y53.052 E0.02813
G1 X139.295 Y53.924 E0.02813
G1 X139.291 Y70.578 E0.52217
G1 X139.163 Y71.191 E0.01965
G1 X138.879 Y71.750 E0.01965
G1 X138.456 Y72.217 E0.01977
G1 X137.929 Y72.555 E0.01965
G1 X137.443 Y72.722 E0.01609
G1 X136.933 Y72.780 E0.01609
G1 X96.856 Y72.779 E1.25659
G1 X96.208 Y72.670 E0.02060
G1 X95.618 Y72.391 E0.02048
G1 X95.124 Y71.958 E0.02060
G1 X94.768 Y71.411 E0.02048
G1 X94.604 Y70.936 E0.01574
G1 X94.544 Y70.434 E0.01585
G1 X94.548 Y53.898 E0.51848
G1 X94.670 Y53.276 E0.01989
G1 X94.927 Y52.758 E0.01812
G1 E-3.50000 F3000.000
;WIPE_START
G1 F960.000
G1 X95.239 Y52.393 E-1.42500
;WIPE_END
G1 E-0.07500 F3000.000
G1 X97.231 Y69.529 F1200.000
G1 E5.00000 F2400.000
;TYPE:External perimeter
G1 F1200.000
G1 X136.611 Y69.529 E1.23473
G1 X136.611 Y69.913 E0.01203
G1 X97.231 Y69.913 E1.23473
G1 X97.231 Y69.589 E0.01015
G1 X97.631 Y69.530
G1 E-3.50000 F3000.000
;WIPE_START
G1 F960.000
G1 X97.711 Y69.588 E-1.42500
;WIPE_END
G1 E-0.07500 F3000.000
G1 X97.231 Y54.913 F1200.000
G1 E5.00000 F2400.000
G1 F1200.000
G1 X97.231 Y54.529 E0.01203
G1 X136.611 Y54.529 E1.23473
G1 X136.611 Y54.913 E0.01203
G1 X97.291 Y54.913 E1.23285
G1 X97.422 Y54.580
M106 S255
;LAYER_CHANGE
;Z:0.36
;HEIGHT:0.16
;BEFORE_LAYER_CHANGE
G92 E0
;0.36


G1 E-3.50000 F3000.000
;WIPE_START
G1 F960.000
G1 X97.231 Y54.529 E-1.15276
G1 X97.322 Y54.529 E-0.27224
;WIPE_END
G1 E-0.07500 F3000.000
G1 Z0.360 F1200.000
;AFTER_LAYER_CHANGE
;0.36
M104 S190 ; set temperature
G1 X94.670 Y53.276
G1 E5.00000 F2400.000
;TYPE:Skirt
G1 F1200.000
G1 X94.954 Y52.704 E0.01637
G1 X95.377 Y52.232 E0.01627
G1 X95.913 Y51.886 E0.01637
G1 X96.398 Y51.720 E0.01317
G1 X96.908 Y51.662 E0.01317
G1 X136.925 Y51.662 E1.02660
G1 X137.809 Y51.834 E0.02312
G1 X138.563 Y52.321 E0.02302
G1 X139.083 Y53.052 E0.02302
G1 X139.295 Y53.924 E0.02302
G1 X139.291 Y70.578 E0.42725
G1 X139.163 Y71.191 E0.01608
G1 X138.879 Y71.750 E0.01608
G1 X138.456 Y72.217 E0.01617
G1 X137.929 Y72.555 E0.01608
G1 X137.443 Y72.722 E0.01317
G1 X136.933 Y72.780 E0.01317
G1 X96.856 Y72.779 E1.02816
G1 X96.208 Y72.670 E0.01685
G1 X95.618 Y72.391 E0.01675
G1 X95.124 Y71.958 E0.01685
G1 X94.768 Y71.411 E0.01675
G1 X94.604 Y70.936 E0.01287
G1 X94.544 Y70.434 E0.01297
G1 X94.548 Y53.898 E0.42422
G1 X94.658 Y53.335 E0.01473
G1 E-3.50000 F3000.000
;WIPE_START
G1 F960.000
G1 X94.862 Y52.900 E-1.42500
;WIPE_END
G1 E-0.07500 F3000.000
G1 X97.561 Y69.680 F1200.000
G1 E5.00000 F2400.000
;TYPE:Perimeter
;WIDTH:0.45
G1 F1200.000
G1 X136.280 Y69.680 E1.07057
G1 X136.280 Y69.762 E0.00228
G1 X97.561 Y69.762 E1.07057
G1 X97.561 Y69.740 E0.00062
G1 X97.146 Y69.740
;TYPE:External perimeter
G1 X97.146 Y69.264 E0.01315
G1 X136.696 Y69.264 E1.09356
G1 X136.696 Y70.178 E0.02526
G1 X97.146 Y70.178 E1.09356
G1 X97.146 Y69.800 E0.01045
G1 X97.347 Y69.394
G1 E-3.50000 F3000.000
;WIPE_START
G1 F960.000
G1 X97.146 Y69.320 E-1.42500
;WIPE_END
G1 E-0.07500 F3000.000
G1 X97.561 Y54.762 F1200.000
G1 E5.00000 F2400.000
;TYPE:Perimeter
G1 F1200.000
G1 X97.561 Y54.680 E0.00228
G1 X136.280 Y54.680 E1.07057
G1 X136.280 Y54.762 E0.00228
G1 X97.621 Y54.762 E1.06891
G1 X97.146 Y55.178
;TYPE:External perimeter
G1 X97.146 Y54.264 E0.02526
G1 X136.696 Y54.264 E1.09356
G1 X136.696 Y55.178 E0.02526
G1 X97.206 Y55.178 E1.09190
G1 X97.343 Y54.830
;LAYER_CHANGE
;Z:0.52
;HEIGHT:0.16
;BEFORE_LAYER_CHANGE
G92 E0
;0.52


G1 E-3.50000 F3000.000
;WIPE_START
G1 F960.000
G1 X97.174 Y54.699 E-1.42500
;WIPE_END
G1 E-0.07500 F3000.000
G1 Z0.520 F1200.000
;AFTER_LAYER_CHANGE
;0.52
G1 X97.561 Y69.922
G1 E5.00000 F2400.000
;TYPE:Perimeter
G1 F1134
G1 X97.561 Y69.520 E0.01112
G1 X136.280 Y69.520 E1.07057
G1 X136.280 Y69.922 E0.01112
G1 X97.621 Y69.922 E1.06891
G1 X97.146 Y70.338 F1200.000
;TYPE:External perimeter
G1 F1134
G1 X97.146 Y69.104 E0.03411
G1 X136.696 Y69.104 E1.09356
G1 X136.696 Y70.338 E0.03411
G1 X97.206 Y70.338 E1.09190
G1 X97.342 Y69.989 F1200.000
G1 E-3.50000 F3000.000
;WIPE_START
G1 F960.000
G1 X97.182 Y69.858 E-1.42500
;WIPE_END
G1 E-0.07500 F3000.000
G1 X97.561 Y54.922 F1200.000
G1 E5.00000 F2400.000
;TYPE:Perimeter
G1 F1134
G1 X97.561 Y54.520 E0.01112
G1 X136.280 Y54.520 E1.07057
G1 X136.280 Y54.922 E0.01112
G1 X97.621 Y54.922 E1.06891
G1 X97.146 Y55.338 F1200.000
;TYPE:External perimeter
G1 F1134
G1 X97.146 Y54.104 E0.03411
G1 X136.696 Y54.104 E1.09356
G1 X136.696 Y55.338 E0.03411
G1 X97.206 Y55.338 E1.09190
G1 X97.342 Y54.989 F1200.000
;LAYER_CHANGE
;Z:0.68
;HEIGHT:0.16
;BEFORE_LAYER_CHANGE
G92 E0
;0.68


G1 E-3.50000 F3000.000
;WIPE_START
G1 F960.000
G1 X97.182 Y54.858 E-1.42500
;WIPE_END
G1 E-0.07500 F3000.000
G1 Z0.680 F1200.000
;AFTER_LAYER_CHANGE
;0.68
G1 X97.561 Y69.391
G1 E5.00000 F2400.000
;TYPE:Perimeter
G1 F1200.000
G1 X136.280 Y69.391 E1.07057
G1 X136.280 Y70.050 E0.01822
G1 X97.561 Y70.050 E1.07057
G1 X97.561 Y69.451 E0.01656
G1 X97.146 Y68.976
;TYPE:External perimeter
G1 X136.696 Y68.976 E1.09356
G1 X136.696 Y70.466 E0.04120
G1 X97.146 Y70.466 E1.09356
G1 X97.146 Y69.036 E0.03954
G1 X97.546 Y68.981
G1 E-3.50000 F3000.000
;WIPE_START
G1 F960.000
G1 X97.626 Y69.035 E-1.42500
;WIPE_END
G1 E-0.07500 F3000.000
G1 X136.072 Y69.721 F1200.000
G1 E5.00000 F2400.000
;TYPE:Gap fill
;WIDTH:0.277494
G1 F1200.000
G1 X97.769 Y69.721 E0.61955
G1 E-3.50000 F3000.000
;WIPE_START
G1 F960.000
G1 X98.249 Y69.721 E-1.42500
;WIPE_END
G1 E-0.07500 F3000.000
G1 X97.561 Y55.050 F1200.000
G1 E5.00000 F2400.000
;TYPE:Perimeter
;WIDTH:0.45
G1 F1200.000
G1 X97.561 Y54.391 E0.01822
G1 X136.280 Y54.391 E1.07057
G1 X136.280 Y55.050 E0.01822
G1 X97.621 Y55.050 E1.06891
G1 X97.146 Y55.466
;TYPE:External perimeter
G1 X97.146 Y53.976 E0.04120
G1 X136.696 Y53.976 E1.09356
G1 X136.696 Y55.466 E0.04120
G1 X97.206 Y55.466 E1.09190
G1 X97.341 Y55.117
G1 E-3.50000 F3000.000
;WIPE_START
G1 F960.000
G1 X97.186 Y54.986 E-1.42500
;WIPE_END
G1 E-0.07500 F3000.000
G1 X136.072 Y54.721 F1200.000
G1 E5.00000 F2400.000
;TYPE:Gap fill
;WIDTH:0.277494
G1 F1200.000
G1 X97.769 Y54.721 E0.61955
;LAYER_CHANGE
;Z:0.84
;HEIGHT:0.16
;BEFORE_LAYER_CHANGE
G92 E0
;0.84


G1 E-3.50000 F3000.000
;WIPE_START
G1 F960.000
G1 X98.249 Y54.721 E-1.42500
;WIPE_END
G1 E-0.07500 F3000.000
G1 Z0.840 F1200.000
;AFTER_LAYER_CHANGE
;0.84
G1 X97.561 Y69.391
G1 E5.00000 F2400.000
;TYPE:Perimeter
;WIDTH:0.45
G1 F1200.000
G1 X136.280 Y69.391 E1.07057
G1 X136.280 Y70.050 E0.01822
G1 X97.561 Y70.050 E1.07057
G1 X97.561 Y69.451 E0.01656
G1 X97.146 Y68.976
;TYPE:External perimeter
G1 X136.696 Y68.976 E1.09356
G1 X136.696 Y70.466 E0.04120
G1 X97.146 Y70.466 E1.09356
G1 X97.146 Y69.036 E0.03954
G1 X97.546 Y68.981
G1 E-3.50000 F3000.000
;WIPE_START
G1 F960.000
G1 X97.626 Y69.035 E-1.42500
;WIPE_END
G1 E-0.07500 F3000.000
G1 X136.072 Y69.721 F1200.000
G1 E5.00000 F2400.000
;TYPE:Gap fill
;WIDTH:0.277494
G1 F1200.000
G1 X97.769 Y69.721 E0.61955
G1 E-3.50000 F3000.000
;WIPE_START
G1 F960.000
G1 X98.249 Y69.721 E-1.42500
;WIPE_END
G1 E-0.07500 F3000.000
G1 X97.561 Y55.050 F1200.000
G1 E5.00000 F2400.000
;TYPE:Perimeter
;WIDTH:0.45
G1 F1200.000
G1 X97.561 Y54.391 E0.01822
G1 X136.280 Y54.391 E1.07057
G1 X136.280 Y55.050 E0.01822
G1 X97.621 Y55.050 E1.06891
G1 X97.146 Y55.466
;TYPE:External perimeter
G1 X97.146 Y53.976 E0.04120
G1 X136.696 Y53.976 E1.09356
G1 X136.696 Y55.466 E0.04120
G1 X97.206 Y55.466 E1.09190
G1 X97.341 Y55.117
G1 E-3.50000 F3000.000
;WIPE_START
G1 F960.000
G1 X97.186 Y54.986 E-1.42500
;WIPE_END
G1 E-0.07500 F3000.000
G1 X136.072 Y54.721 F1200.000
G1 E5.00000 F2400.000
;TYPE:Gap fill
;WIDTH:0.277494
G1 F1200.000
G1 X97.769 Y54.721 E0.61955
;LAYER_CHANGE
;Z:1
;HEIGHT:0.16
;BEFORE_LAYER_CHANGE
G92 E0
;1


G1 E-3.50000 F3000.000
;WIPE_START
G1 F960.000
G1 X98.249 Y54.721 E-1.42500
;WIPE_END
G1 E-0.07500 F3000.000
G1 Z1.000 F1200.000
;AFTER_LAYER_CHANGE
;1
G1 X97.561 Y69.391
G1 E5.00000 F2400.000
;TYPE:Perimeter
;WIDTH:0.45
G1 F1200.000
G1 X136.280 Y69.391 E1.07057
G1 X136.280 Y70.050 E0.01822
G1 X97.561 Y70.050 E1.07057
G1 X97.561 Y69.451 E0.01656
G1 X97.146 Y68.976
;TYPE:External perimeter
G1 X136.696 Y68.976 E1.09356
G1 X136.696 Y70.466 E0.04120
G1 X97.146 Y70.466 E1.09356
G1 X97.146 Y69.036 E0.03954
G1 X97.546 Y68.981
G1 E-3.50000 F3000.000
;WIPE_START
G1 F960.000
G1 X97.626 Y69.035 E-1.42500
;WIPE_END
G1 E-0.07500 F3000.000
G1 X136.072 Y69.721 F1200.000
G1 E5.00000 F2400.000
;TYPE:Gap fill
;WIDTH:0.277494
G1 F1200.000
G1 X97.769 Y69.721 E0.61955
G1 E-3.50000 F3000.000
;WIPE_START
G1 F960.000
G1 X98.249 Y69.721 E-1.42500
;WIPE_END
G1 E-0.07500 F3000.000
G1 X97.561 Y55.050 F1200.000
G1 E5.00000 F2400.000
;TYPE:Perimeter
;WIDTH:0.45
G1 F1200.000
G1 X97.561 Y54.391 E0.01822
G1 X136.280 Y54.391 E1.07057
G1 X136.280 Y55.050 E0.01822
G1 X97.621 Y55.050 E1.06891
G1 X97.146 Y55.466
;TYPE:External perimeter
G1 X97.146 Y53.976 E0.04120
G1 X136.696 Y53.976 E1.09356
G1 X136.696 Y55.466 E0.04120
G1 X97.206 Y55.466 E1.09190
G1 X97.341 Y55.117
G1 E-3.50000 F3000.000
;WIPE_START
G1 F960.000
G1 X97.186 Y54.986 E-1.42500
;WIPE_END
G1 E-0.07500 F3000.000
G1 X136.072 Y54.721 F1200.000
G1 E5.00000 F2400.000
;TYPE:Gap fill
;WIDTH:0.277494
G1 F1200.000
G1 X97.769 Y54.721 E0.61955
;LAYER_CHANGE
;Z:1.16
;HEIGHT:0.16
;BEFORE_LAYER_CHANGE
G92 E0
;1.16


G1 E-3.50000 F3000.000
;WIPE_START
G1 F960.000
G1 X98.249 Y54.721 E-1.42500
;WIPE_END
G1 E-0.07500 F3000.000
G1 Z1.160 F1200.000
;AFTER_LAYER_CHANGE
;1.16
G1 X97.561 Y69.391
G1 E5.00000 F2400.000
;TYPE:Perimeter
;WIDTH:0.45
G1 F1200.000
G1 X136.280 Y69.391 E1.07057
G1 X136.280 Y70.050 E0.01822
G1 X97.561 Y70.050 E1.07057
G1 X97.561 Y69.451 E0.01656
G1 X97.146 Y68.976
;TYPE:External perimeter
G1 X136.696 Y68.976 E1.09356
G1 X136.696 Y70.466 E0.04120
G1 X97.146 Y70.466 E1.09356
G1 X97.146 Y69.036 E0.03954
G1 X97.546 Y68.981
G1 E-3.50000 F3000.000
;WIPE_START
G1 F960.000
G1 X97.626 Y69.035 E-1.42500
;WIPE_END
G1 E-0.07500 F3000.000
G1 X136.072 Y69.721 F1200.000
G1 E5.00000 F2400.000
;TYPE:Gap fill
;WIDTH:0.277494
G1 F1200.000
G1 X97.769 Y69.721 E0.61955
G1 E-3.50000 F3000.000
;WIPE_START
G1 F960.000
G1 X98.249 Y69.721 E-1.42500
;WIPE_END
G1 E-0.07500 F3000.000
G1 X97.561 Y55.050 F1200.000
G1 E5.00000 F2400.000
;TYPE:Perimeter
;WIDTH:0.45
G1 F1200.000
G1 X97.561 Y54.391 E0.01822
G1 X136.280 Y54.391 E1.07057
G1 X136.280 Y55.050 E0.01822
G1 X97.621 Y55.050 E1.06891
G1 X97.146 Y55.466
;TYPE:External perimeter
G1 X97.146 Y53.976 E0.04120
G1 X136.696 Y53.976 E1.09356
G1 X136.696 Y55.466 E0.04120
G1 X97.206 Y55.466 E1.09190
G1 X97.341 Y55.117
G1 E-3.50000 F3000.000
;WIPE_START
G1 F960.000
G1 X97.186 Y54.986 E-1.42500
;WIPE_END
G1 E-0.07500 F3000.000
G1 X136.072 Y54.721 F1200.000
G1 E5.00000 F2400.000
;TYPE:Gap fill
;WIDTH:0.277494
G1 F1200.000
G1 X97.769 Y54.721 E0.61955
;LAYER_CHANGE
;Z:1.32
;HEIGHT:0.16
;BEFORE_LAYER_CHANGE
G92 E0
;1.32


G1 E-3.50000 F3000.000
;WIPE_START
G1 F960.000
G1 X98.249 Y54.721 E-1.42500
;WIPE_END
G1 E-0.07500 F3000.000
G1 Z1.320 F1200.000
;AFTER_LAYER_CHANGE
;1.32
G1 X97.561 Y69.391
G1 E5.00000 F2400.000
;TYPE:Perimeter
;WIDTH:0.45
G1 F1200.000
G1 X136.280 Y69.391 E1.07057
G1 X136.280 Y70.050 E0.01822
G1 X97.561 Y70.050 E1.07057
G1 X97.561 Y69.451 E0.01656
G1 X97.146 Y68.976
;TYPE:External perimeter
G1 X136.696 Y68.976 E1.09356
G1 X136.696 Y70.466 E0.04120
G1 X97.146 Y70.466 E1.09356
G1 X97.146 Y69.036 E0.03954
G1 X97.546 Y68.981
G1 E-3.50000 F3000.000
;WIPE_START
G1 F960.000
G1 X97.626 Y69.035 E-1.42500
;WIPE_END
G1 E-0.07500 F3000.000
G1 X136.072 Y69.721 F1200.000
G1 E5.00000 F2400.000
;TYPE:Gap fill
;WIDTH:0.277494
G1 F1200.000
G1 X97.769 Y69.721 E0.61955
G1 E-3.50000 F3000.000
;WIPE_START
G1 F960.000
G1 X98.249 Y69.721 E-1.42500
;WIPE_END
G1 E-0.07500 F3000.000
G1 X97.561 Y55.050 F1200.000
G1 E5.00000 F2400.000
;TYPE:Perimeter
;WIDTH:0.45
G1 F1200.000
G1 X97.561 Y54.391 E0.01822
G1 X136.280 Y54.391 E1.07057
G1 X136.280 Y55.050 E0.01822
G1 X97.621 Y55.050 E1.06891
G1 X97.146 Y55.466
;TYPE:External perimeter
G1 X97.146 Y53.976 E0.04120
G1 X136.696 Y53.976 E1.09356
G1 X136.696 Y55.466 E0.04120
G1 X97.206 Y55.466 E1.09190
G1 X97.341 Y55.117
G1 E-3.50000 F3000.000
;WIPE_START
G1 F960.000
G1 X97.186 Y54.986 E-1.42500
;WIPE_END
G1 E-0.07500 F3000.000
G1 X136.072 Y54.721 F1200.000
G1 E5.00000 F2400.000
;TYPE:Gap fill
;WIDTH:0.277494
G1 F1200.000
G1 X97.769 Y54.721 E0.61955
;LAYER_CHANGE
;Z:1.48
;HEIGHT:0.16
;BEFORE_LAYER_CHANGE
G92 E0
;1.48


G1 E-3.50000 F3000.000
;WIPE_START
G1 F960.000
G1 X98.249 Y54.721 E-1.42500
;WIPE_END
G1 E-0.07500 F3000.000
G1 Z1.480 F1200.000
;AFTER_LAYER_CHANGE
;1.48
G1 X97.561 Y69.420
G1 E5.00000 F2400.000
;TYPE:Perimeter
;WIDTH:0.45
G1 F1200.000
G1 X136.280 Y69.420 E1.07057
G1 X136.280 Y70.022 E0.01666
G1 X97.561 Y70.022 E1.07057
G1 X97.561 Y69.480 E0.01500
G1 X97.146 Y69.004
;TYPE:External perimeter
G1 X136.696 Y69.004 E1.09356
G1 X136.696 Y70.438 E0.03965
G1 X97.146 Y70.438 E1.09356
G1 X97.146 Y69.064 E0.03799
G1 X97.546 Y69.009
G1 E-3.50000 F3000.000
;WIPE_START
G1 F960.000
G1 X97.626 Y69.063 E-1.42500
;WIPE_END
G1 E-0.07500 F3000.000
G1 X136.072 Y69.721 F1200.000
G1 E5.00000 F2400.000
;TYPE:Gap fill
;WIDTH:0.221274
G1 F1200.000
G1 X97.769 Y69.721 E0.47630
G1 E-3.50000 F3000.000
;WIPE_START
G1 F960.000
G1 X98.249 Y69.721 E-1.42500
;WIPE_END
G1 E-0.07500 F3000.000
G1 X97.561 Y55.022 F1200.000
G1 E5.00000 F2400.000
;TYPE:Perimeter
;WIDTH:0.45
G1 F1200.000
G1 X97.561 Y54.420 E0.01666
G1 X136.280 Y54.420 E1.07057
G1 X136.280 Y55.022 E0.01666
G1 X97.621 Y55.022 E1.06891
G1 X97.146 Y55.438
;TYPE:External perimeter
G1 X97.146 Y54.004 E0.03965
G1 X136.696 Y54.004 E1.09356
G1 X136.696 Y55.438 E0.03965
G1 X97.206 Y55.438 E1.09190
G1 X97.342 Y55.089
G1 E-3.50000 F3000.000
;WIPE_START
G1 F960.000
G1 X97.186 Y54.958 E-1.42500
;WIPE_END
G1 E-0.07500 F3000.000
G1 X136.072 Y54.721 F1200.000
G1 E5.00000 F2400.000
;TYPE:Gap fill
;WIDTH:0.221274
G1 F1200.000
G1 X97.769 Y54.721 E0.47630
;LAYER_CHANGE
;Z:1.64
;HEIGHT:0.16
;BEFORE_LAYER_CHANGE
G92 E0
;1.64


G1 E-3.50000 F3000.000
;WIPE_START
G1 F960.000
G1 X98.249 Y54.721 E-1.42500
;WIPE_END
G1 E-0.07500 F3000.000
G1 Z1.640 F1200.000
;AFTER_LAYER_CHANGE
;1.64
G1 X97.561 Y69.580
G1 E5.00000 F2400.000
;TYPE:Perimeter
;WIDTH:0.45
G1 F1124
G1 X136.280 Y69.580 E1.07057
G1 X136.280 Y69.862 E0.00781
G1 X97.561 Y69.862 E1.07057
G1 X97.561 Y69.640 E0.00615
G1 X97.146 Y69.164 F1200.000
;TYPE:External perimeter
G1 F1124
G1 X136.696 Y69.164 E1.09356
G1 X136.696 Y70.278 E0.03080
G1 X97.146 Y70.278 E1.09356
G1 X97.146 Y69.224 E0.02914
G1 X97.546 Y69.168 F1200.000
G1 E-3.50000 F3000.000
;WIPE_START
G1 F960.000
G1 X97.626 Y69.223 E-1.42500
;WIPE_END
G1 E-0.07500 F3000.000
