; generated by PrusaSlicer 2.3.3+x64 on 2021-09-09 at 02:41:49 UTC

; 

; external perimeters extrusion width = 0.45mm
; perimeters extrusion width = 0.45mm
; infill extrusion width = 0.45mm
; solid infill extrusion width = 0.45mm
; top infill extrusion width = 0.40mm
; first layer extrusion width = 0.42mm

M201 X500 Y500 Z100 E5000 ; sets maximum accelerations, mm/sec^2
M203 X500 Y500 Z10 E60 ; sets maximum feedrates, mm/sec
M204 P500 R1000 T500 ; sets acceleration (P, T) and retract acceleration (R), mm/sec^2
M205 X8.00 Y8.00 Z0.40 E5.00 ; sets the jerk limits, mm/sec
M205 S0 T0 ; sets the minimum extruding and travel feed rate, mm/sec
M107
;TYPE:Custom
G90 ; use absolute coordinates
M83 ; extruder relative mode
M104 S200 ; set extruder temp
M140 S60 ; set bed temp
M190 S60 ; wait for bed temp
M109 S200 ; wait for extruder temp
G28 ; home all
G29 ; Level Bed
G1 Z2 F240
G1 X2 Y10 F3000
G1 Z0.28 F240
G92 E0
G1 Y190 E15 F1500 ; intro line
G1 X2.3 F5000
G92 E0
G1 Y10 E15 F1200 ; intro line
G92 E0
G21 ; set units to millimeters
G90 ; use absolute coordinates
M83 ; use relative distances for extrusion
; Filament gcode
;LAYER_CHANGE
;Z:0.2
;HEIGHT:0.2
;BEFORE_LAYER_CHANGE
G92 E0
;0.2


G1 E-6.50000 F3000.000
G1 Z0.200 F9000.000
;AFTER_LAYER_CHANGE
;0.2
G1 X131.969 Y150.683
G1 E6.50000 F2400.000
;TYPE:Skirt
;WIDTH:0.42
G1 F1200.000
G1 X112.173 Y154.148 E0.63012
G1 X111.654 Y154.180 E0.01633
G1 X107.973 Y153.641 E0.11664
G1 X106.010 Y153.201 E0.06306
G1 X102.411 Y152.108 E0.11794
G1 X99.306 Y150.828 E0.10530
G1 X86.939 Y141.818 E0.47977
G1 X85.485 Y140.208 E0.06800
G1 X83.179 Y137.105 E0.12123
G1 X81.242 Y133.878 E0.11802
G1 X80.328 Y132.061 E0.06375
G1 X78.877 Y128.542 E0.11936
G1 X77.787 Y124.944 E0.11788
G1 X77.043 Y121.202 E0.11962
G1 X76.670 Y117.406 E0.11961
G1 X76.670 Y113.590 E0.11964
G1 X77.043 Y109.799 E0.11943
G1 X77.790 Y106.045 E0.12002
G1 X78.895 Y102.404 E0.11930
G1 X80.353 Y98.884 E0.11946
G1 X82.153 Y95.514 E0.11979
G1 X84.273 Y92.342 E0.11962
G1 X86.693 Y89.393 E0.11963
G1 X89.343 Y86.739 E0.11759
G1 X90.882 Y85.411 E0.06373
G1 X93.950 Y83.143 E0.11962
G1 X97.176 Y81.212 E0.11787
G1 X100.677 Y79.561 E0.12137
G1 X104.217 Y78.296 E0.11788
G1 X107.918 Y77.369 E0.11962
G1 X111.688 Y76.810 E0.11951
G1 X115.503 Y76.623 E0.11974
G1 X119.309 Y76.810 E0.11950
G1 X123.083 Y77.370 E0.11962
G1 X126.784 Y78.297 E0.11962
G1 X130.380 Y79.583 E0.11974
G1 X133.825 Y81.213 E0.11950
G1 X137.101 Y83.176 E0.11974
G1 X140.165 Y85.449 E0.11962
G1 X143.031 Y88.051 E0.12137
G1 X145.589 Y90.882 E0.11962
G1 X146.761 Y92.388 E0.05983
G1 X148.794 Y95.429 E0.11469
G1 X150.642 Y98.873 E0.12256
G1 X152.084 Y102.348 E0.11795
G1 X153.212 Y106.053 E0.12142
G1 X153.956 Y109.794 E0.11962
G1 X154.330 Y113.591 E0.11962
G1 X154.330 Y117.400 E0.11942
G1 X153.957 Y121.198 E0.11966
G1 X153.210 Y124.954 E0.12009
G1 X152.104 Y128.599 E0.11944
G1 X150.620 Y132.172 E0.12130
G1 X148.806 Y135.551 E0.12024
G1 X146.763 Y138.608 E0.11528
G1 X145.589 Y140.118 E0.05996
G1 X142.994 Y142.987 E0.12130
G1 X140.208 Y145.515 E0.11795
G1 X138.614 Y146.759 E0.06342
G1 X135.527 Y148.821 E0.11639
G1 X133.807 Y149.797 E0.06199
G1 X132.023 Y150.657 E0.06211
G1 E-4.55000 F3000.000
;WIPE_START
G1 F7200.000
G1 X127.414 Y151.468 E-1.85250
;WIPE_END
G1 E-0.09750 F3000.000
G1 X131.374 Y147.592 F9000.000
G1 E6.50000 F2400.000
;TYPE:Perimeter
G1 F1200.000
G1 X125.647 Y142.786 E0.23441
G1 X124.169 Y144.547 E0.07209
G1 X123.706 Y144.159 E0.01893
G1 X123.456 Y144.457 E0.01219
G1 X120.539 Y142.009 E0.11939
G1 X119.635 Y143.087 E0.04411
G1 X118.701 Y142.303 E0.03823
G1 X117.357 Y143.904 E0.06552
G1 X117.165 Y143.743 E0.00786
G1 X115.809 Y145.359 E0.06615
G1 X115.315 Y144.944 E0.02024
G1 X111.409 Y149.600 E0.19055
G1 X110.780 Y150.402 E0.03194
G1 X110.398 Y151.009 E0.02249
G1 X109.845 Y150.865 E0.01792
G1 X108.515 Y150.625 E0.04236
G1 X106.798 Y150.239 E0.05518
G1 X105.104 Y149.771 E0.05511
G1 X103.434 Y149.219 E0.05516
G1 X102.235 Y148.781 E0.04001
G1 X104.059 Y148.141 E0.06060
G1 X100.332 Y137.901 E0.34170
G1 X98.171 Y138.687 E0.07208
G1 X97.633 Y137.208 E0.04933
G1 X95.945 Y137.823 E0.05631
G1 X95.587 Y136.839 E0.03283
G1 X89.620 Y139.011 E0.19911
G1 X89.537 Y138.783 E0.00760
G1 X88.598 Y139.125 E0.03135
G1 X87.816 Y138.219 E0.03750
G1 X86.735 Y136.834 E0.05512
G1 X85.723 Y135.396 E0.05511
G1 X84.782 Y133.911 E0.05512
G1 X83.916 Y132.382 E0.05511
G1 X83.126 Y130.812 E0.05511
G1 X82.413 Y129.205 E0.05512
G1 X81.781 Y127.565 E0.05511
G1 X81.229 Y125.896 E0.05511
G1 X80.761 Y124.202 E0.05511
G1 X80.375 Y122.487 E0.05511
G1 X80.075 Y120.755 E0.05511
G1 X79.860 Y119.010 E0.05512
G1 X79.730 Y117.257 E0.05511
G1 X79.687 Y115.500 E0.05511
G1 X79.730 Y113.743 E0.05511
G1 X79.860 Y111.990 E0.05511
G1 X80.075 Y110.245 E0.05512
G1 X80.375 Y108.513 E0.05511
G1 X80.761 Y106.798 E0.05511
G1 X81.229 Y105.104 E0.05511
G1 X81.781 Y103.435 E0.05511
G1 X82.413 Y101.795 E0.05511
G1 X83.126 Y100.188 E0.05512
G1 X83.916 Y98.618 E0.05511
G1 X84.782 Y97.089 E0.05511
G1 X85.723 Y95.604 E0.05512
G1 X86.735 Y94.166 E0.05511
G1 X87.816 Y92.781 E0.05512
G1 X88.965 Y91.450 E0.05511
G1 X90.177 Y90.177 E0.05511
G1 X91.450 Y88.965 E0.05511
G1 X92.781 Y87.816 E0.05511
G1 X94.166 Y86.735 E0.05512
G1 X95.604 Y85.723 E0.05511
G1 X97.089 Y84.782 E0.05512
G1 X98.618 Y83.916 E0.05511
G1 X100.188 Y83.126 E0.05511
G1 X101.795 Y82.413 E0.05512
G1 X103.435 Y81.781 E0.05511
G1 X105.104 Y81.229 E0.05511
G1 X106.798 Y80.761 E0.05511
G1 X108.513 Y80.375 E0.05511
G1 X110.245 Y80.075 E0.05511
G1 X111.990 Y79.860 E0.05512
G1 X113.742 Y79.730 E0.05510
G1 X115.556 Y79.689 E0.05689
G1 X117.257 Y79.730 E0.05335
G1 X119.010 Y79.860 E0.05511
G1 X120.755 Y80.075 E0.05512
G1 X122.487 Y80.375 E0.05511
G1 X124.202 Y80.761 E0.05511
G1 X125.896 Y81.229 E0.05511
G1 X127.565 Y81.781 E0.05511
G1 X129.205 Y82.413 E0.05511
G1 X130.812 Y83.126 E0.05512
G1 X132.382 Y83.916 E0.05511
G1 X133.911 Y84.782 E0.05511
G1 X135.396 Y85.723 E0.05512
G1 X136.834 Y86.735 E0.05511
G1 X138.219 Y87.816 E0.05512
G1 X139.550 Y88.965 E0.05511
G1 X140.823 Y90.177 E0.05511
G1 X142.035 Y91.450 E0.05511
G1 X143.184 Y92.781 E0.05511
G1 X144.265 Y94.166 E0.05512
G1 X145.277 Y95.604 E0.05511
G1 X146.218 Y97.089 E0.05512
G1 X147.084 Y98.618 E0.05511
G1 X147.874 Y100.188 E0.05511
G1 X148.587 Y101.795 E0.05512
G1 X149.219 Y103.435 E0.05511
G1 X149.771 Y105.104 E0.05511
G1 X150.239 Y106.798 E0.05511
G1 X150.625 Y108.513 E0.05511
G1 X150.925 Y110.245 E0.05511
G1 X151.140 Y111.990 E0.05512
G1 X151.270 Y113.743 E0.05511
G1 X151.313 Y115.500 E0.05511
G1 X151.270 Y117.257 E0.05511
G1 X151.140 Y119.010 E0.05511
G1 X150.925 Y120.755 E0.05512
G1 X150.625 Y122.487 E0.05511
G1 X150.239 Y124.202 E0.05511
G1 X149.771 Y125.896 E0.05511
G1 X149.219 Y127.565 E0.05511
G1 X148.587 Y129.205 E0.05511
G1 X147.874 Y130.812 E0.05512
G1 X147.084 Y132.382 E0.05511
G1 X146.216 Y133.914 E0.05522
G1 X145.277 Y135.396 E0.05501
G1 X144.265 Y136.834 E0.05511
G1 X143.184 Y138.219 E0.05512
G1 X142.035 Y139.550 E0.05511
G1 X140.823 Y140.823 E0.05511
G1 X139.550 Y142.035 E0.05511
G1 X138.219 Y143.184 E0.05511
G1 X136.834 Y144.265 E0.05512
G1 X135.396 Y145.277 E0.05511
G1 X133.911 Y146.218 E0.05512
G1 X132.382 Y147.084 E0.05511
G1 X131.427 Y147.565 E0.03352
G1 E-4.55000 F3000.000
;WIPE_START
G1 F7200.000
G1 X127.820 Y144.583 E-1.85250
;WIPE_END
G1 E-0.09750 F3000.000
G1 X125.693 Y143.317 F9000.000
G1 E6.50000 F2400.000
;TYPE:External perimeter
G1 F1200.000
G1 X124.215 Y145.078 E0.07208
G1 X123.753 Y144.690 E0.01893
G1 X123.503 Y144.988 E0.01219
G1 X120.586 Y142.541 E0.11939
G1 X119.681 Y143.618 E0.04411
G1 X118.747 Y142.835 E0.03823
G1 X117.404 Y144.435 E0.06552
G1 X117.212 Y144.274 E0.00785
G1 X115.856 Y145.891 E0.06615
G1 X115.361 Y145.476 E0.02024
G1 X111.702 Y149.838 E0.17852
G1 X111.089 Y150.619 E0.03114
G1 X110.723 Y151.201 E0.02156
G1 X111.091 Y151.510 E0.01507
G1 X110.590 Y151.448 E0.01582
G1 X109.764 Y151.234 E0.02677
G1 X108.440 Y150.995 E0.04216
G1 X106.707 Y150.605 E0.05572
G1 X104.995 Y150.132 E0.05569
G1 X103.307 Y149.574 E0.05571
G1 X102.473 Y149.257 E0.02800
G1 X102.036 Y149.112 E0.01443
G1 X101.606 Y149.001 E0.01391
G1 X100.989 Y148.748 E0.02092
G1 X101.400 Y148.598 E0.01369
G1 X101.876 Y148.495 E0.01527
G1 X102.357 Y148.350 E0.01577
G1 X103.575 Y147.914 E0.04055
G1 X100.106 Y138.384 E0.31799
G1 X97.946 Y139.170 E0.07208
G1 X97.408 Y137.692 E0.04933
G1 X95.720 Y138.306 E0.05631
G1 X95.362 Y137.322 E0.03283
G1 X89.394 Y139.494 E0.19911
G1 X89.312 Y139.266 E0.00759
G1 X88.482 Y139.568 E0.02768
G1 X87.525 Y138.459 E0.04595
G1 X86.432 Y137.058 E0.05570
G1 X85.409 Y135.606 E0.05569
G1 X84.459 Y134.105 E0.05570
G1 X83.583 Y132.560 E0.05569
G1 X82.785 Y130.973 E0.05569
G1 X82.065 Y129.349 E0.05570
G1 X81.426 Y127.692 E0.05569
G1 X80.868 Y126.005 E0.05569
G1 X80.395 Y124.293 E0.05569
G1 X80.005 Y122.560 E0.05569
G1 X79.702 Y120.810 E0.05569
G1 X79.484 Y119.047 E0.05570
G1 X79.354 Y117.276 E0.05569
G1 X79.310 Y115.500 E0.05570
G1 X79.354 Y113.724 E0.05570
G1 X79.484 Y111.953 E0.05569
G1 X79.702 Y110.190 E0.05570
G1 X80.005 Y108.440 E0.05569
G1 X80.395 Y106.707 E0.05569
G1 X80.868 Y104.995 E0.05569
G1 X81.426 Y103.308 E0.05569
G1 X82.065 Y101.651 E0.05569
G1 X82.785 Y100.027 E0.05570
G1 X83.583 Y98.440 E0.05569
G1 X84.459 Y96.895 E0.05569
G1 X85.409 Y95.394 E0.05570
G1 X86.432 Y93.942 E0.05569
G1 X87.525 Y92.541 E0.05570
G1 X88.685 Y91.196 E0.05569
G1 X89.910 Y89.910 E0.05569
G1 X91.196 Y88.685 E0.05569
G1 X92.541 Y87.525 E0.05569
G1 X93.942 Y86.432 E0.05570
G1 X95.394 Y85.409 E0.05569
G1 X96.895 Y84.459 E0.05570
G1 X98.440 Y83.583 E0.05569
G1 X100.027 Y82.785 E0.05569
G1 X101.651 Y82.065 E0.05570
G1 X103.308 Y81.426 E0.05569
G1 X104.995 Y80.868 E0.05569
G1 X106.707 Y80.395 E0.05569
G1 X108.440 Y80.005 E0.05569
G1 X110.190 Y79.702 E0.05569
G1 X111.953 Y79.484 E0.05570
G1 X113.724 Y79.354 E0.05569
G1 X115.556 Y79.311 E0.05747
G1 X117.276 Y79.354 E0.05392
G1 X119.047 Y79.484 E0.05569
G1 X120.810 Y79.702 E0.05570
G1 X122.560 Y80.005 E0.05569
G1 X124.293 Y80.395 E0.05569
G1 X126.005 Y80.868 E0.05569
G1 X127.692 Y81.426 E0.05569
G1 X129.349 Y82.065 E0.05569
G1 X130.973 Y82.785 E0.05570
G1 X132.560 Y83.583 E0.05569
G1 X134.105 Y84.459 E0.05569
G1 X135.606 Y85.409 E0.05570
G1 X137.058 Y86.432 E0.05569
G1 X138.459 Y87.525 E0.05570
G1 X139.804 Y88.685 E0.05569
G1 X141.090 Y89.910 E0.05569
G1 X142.315 Y91.196 E0.05569
G1 X143.475 Y92.541 E0.05569
G1 X144.568 Y93.942 E0.05570
G1 X145.591 Y95.394 E0.05569
G1 X146.541 Y96.895 E0.05570
G1 X147.417 Y98.440 E0.05569
G1 X148.215 Y100.027 E0.05569
G1 X148.935 Y101.651 E0.05570
G1 X149.574 Y103.308 E0.05569
G1 X150.132 Y104.995 E0.05569
G1 X150.605 Y106.707 E0.05569
G1 X150.995 Y108.440 E0.05570
G1 X151.298 Y110.190 E0.05569
G1 X151.516 Y111.953 E0.05570
G1 X151.646 Y113.724 E0.05569
G1 X151.690 Y115.500 E0.05570
G1 X151.646 Y117.276 E0.05570
G1 X151.516 Y119.047 E0.05569
G1 X151.298 Y120.810 E0.05570
G1 X150.995 Y122.560 E0.05569
G1 X150.605 Y124.293 E0.05570
G1 X150.132 Y126.005 E0.05569
G1 X149.574 Y127.692 E0.05569
G1 X148.935 Y129.349 E0.05569
G1 X148.215 Y130.973 E0.05570
G1 X147.417 Y132.560 E0.05569
G1 X146.539 Y134.108 E0.05580
G1 X145.591 Y135.606 E0.05559
G1 X144.568 Y137.058 E0.05569
G1 X143.475 Y138.459 E0.05570
G1 X142.315 Y139.804 E0.05569
G1 X141.090 Y141.090 E0.05569
G1 X139.804 Y142.315 E0.05569
G1 X138.459 Y143.475 E0.05569
G1 X137.058 Y144.568 E0.05570
G1 X135.606 Y145.591 E0.05569
G1 X134.105 Y146.541 E0.05570
G1 X132.560 Y147.417 E0.05569
G1 X131.321 Y148.040 E0.04347
G1 X125.739 Y143.356 E0.22849
G1 X125.373 Y143.077 F9000.000
G1 E-4.55000 F3000.000
;WIPE_START
G1 F7200.000
G1 X124.215 Y145.078 E-0.91033
G1 X123.753 Y144.690 E-0.23896
G1 X123.503 Y144.988 E-0.15392
G1 X122.440 Y144.096 E-0.54930
;WIPE_END
G1 E-0.09750 F3000.000
G1 X138.167 Y87.921 F9000.000
G1 E6.50000 F2400.000
;TYPE:Solid infill
;WIDTH:0.420422
G1 F1200.000
G1 X140.629 Y90.383 E0.10928
G1 X141.826 Y91.640 E0.05448
G1 X142.965 Y92.960 E0.05474
G1 X144.003 Y94.291 E0.05298
G1 X136.709 Y86.997 E0.32380
G1 X135.239 Y85.958 E0.05649
G1 X134.960 Y85.781 E0.01039
G1 X145.219 Y96.040 E0.45542
G1 X146.100 Y97.456 E0.05234
G1 X133.544 Y84.900 E0.55738
G1 X132.313 Y84.202 E0.04443
G1 X146.798 Y98.687 E0.64302
G1 X147.347 Y99.770 E0.03812
G1 X131.230 Y83.653 E0.71548
G1 X130.691 Y83.381 E0.01893
G1 X130.213 Y83.169 E0.01642
G1 X147.831 Y100.787 E0.78208
G1 X148.256 Y101.746 E0.03292
G1 X129.254 Y82.744 E0.84352
G1 X128.370 Y82.394 E0.02984
G1 X148.606 Y102.630 E0.89829
G1 X148.941 Y103.499 E0.02924
G1 X127.501 Y82.059 E0.95176
G1 X126.701 Y81.793 E0.02646
G1 X149.207 Y104.299 E0.99907
G1 X149.470 Y105.096 E0.02635
G1 X125.904 Y81.530 E1.04615
G1 X125.159 Y81.319 E0.02430
G1 X149.681 Y105.841 E1.08857
G1 X149.885 Y106.579 E0.02404
G1 X124.421 Y81.115 E1.13041
G1 X123.713 Y80.941 E0.02288
G1 X150.059 Y107.287 E1.16955
G1 X150.214 Y107.976 E0.02215
G1 X123.024 Y80.786 E1.20698
G1 X122.342 Y80.637 E0.02193
G1 X150.363 Y108.658 E1.24388
G1 X150.475 Y109.304 E0.02058
G1 X121.696 Y80.525 E1.27753
G1 X121.050 Y80.413 E0.02058
G1 X150.587 Y109.950 E1.31118
G1 X150.681 Y110.578 E0.01994
G1 X120.422 Y80.319 E1.34326
G1 X119.813 Y80.244 E0.01926
G1 X150.756 Y111.187 E1.37362
G1 X150.831 Y111.796 E0.01926
G1 X119.204 Y80.169 E1.40399
G1 X118.616 Y80.114 E0.01854
G1 X150.886 Y112.384 E1.43252
G1 X150.928 Y112.961 E0.01814
G1 X118.039 Y80.072 E1.45999
G1 X117.463 Y80.029 E0.01814
G1 X150.971 Y113.537 E1.48747
G1 X150.995 Y114.096 E0.01754
G1 X116.904 Y80.005 E1.51334
G1 X116.357 Y79.991 E0.01718
G1 X151.009 Y114.643 E1.53823
G1 X151.022 Y115.190 E0.01719
G1 X115.810 Y79.978 E1.56313
G1 X115.276 Y79.978 E0.01675
G1 X151.024 Y115.726 E1.58691
G1 X151.011 Y116.247 E0.01636
G1 X114.754 Y79.990 E1.60950
G1 X114.232 Y80.002 E0.01638
G1 X150.999 Y116.768 E1.63210
G1 X150.984 Y117.287 E0.01630
G1 X113.713 Y80.016 E1.65451
G1 X113.216 Y80.053 E0.01565
G1 X150.947 Y117.784 E1.67495
G1 X150.910 Y118.282 E0.01565
G1 X112.718 Y80.090 E1.69540
G1 X112.221 Y80.126 E0.01565
G1 X150.874 Y118.779 E1.71584
G1 X150.824 Y119.263 E0.01528
G1 X111.737 Y80.176 E1.73513
G1 X111.262 Y80.234 E0.01503
G1 X150.765 Y119.738 E1.75363
G1 X150.707 Y120.214 E0.01503
G1 X110.786 Y80.293 E1.77212
G1 X110.311 Y80.352 E0.01503
G1 X150.648 Y120.689 E1.79062
G1 X150.570 Y121.145 E0.01452
G1 X109.855 Y80.430 E1.80740
G1 X109.400 Y80.509 E0.01449
G1 X150.491 Y121.600 E1.82409
G1 X150.413 Y122.055 E0.01449
G1 X108.945 Y80.587 E1.84078
G1 X108.494 Y80.670 E0.01441
G1 X150.330 Y122.506 E1.85719
G1 X150.232 Y122.942 E0.01403
G1 X108.058 Y80.768 E1.87219
G1 X107.622 Y80.865 E0.01403
G1 X150.135 Y123.378 E1.88720
G1 X150.037 Y123.814 E0.01403
G1 X107.186 Y80.963 E1.90221
G1 X106.755 Y81.066 E0.01391
G1 X149.934 Y124.245 E1.91679
G1 X149.818 Y124.664 E0.01362
G1 X106.336 Y81.182 E1.93021
G1 X105.918 Y81.297 E0.01362
G1 X149.702 Y125.082 E1.94364
G1 X149.587 Y125.500 E0.01362
G1 X105.500 Y81.413 E1.95707
G1 X105.086 Y81.533 E0.01353
G1 X149.467 Y125.914 E1.97012
G1 X149.334 Y126.315 E0.01327
G1 X104.685 Y81.666 E1.98205
G1 X104.284 Y81.798 E0.01327
G1 X149.202 Y126.716 E1.99398
G1 X149.069 Y127.118 E0.01327
G1 X103.882 Y81.931 E2.00591
G1 X103.483 Y82.065 E0.01323
G1 X148.935 Y127.517 E2.01766
G1 X148.786 Y127.902 E0.01296
G1 X103.098 Y82.214 E2.02817
G1 X102.712 Y82.363 E0.01296
G1 X148.637 Y128.288 E2.03867
G1 X148.489 Y128.673 E0.01296
G1 X102.327 Y82.511 E2.04917
G1 X101.942 Y82.660 E0.01296
G1 X148.340 Y129.058 E2.05968
G1 X148.178 Y129.429 E0.01273
G1 X101.571 Y82.822 E2.06896
G1 X101.201 Y82.986 E0.01270
G1 X148.014 Y129.799 E2.07810
G1 X147.850 Y130.169 E0.01270
G1 X100.831 Y83.150 E2.08724
G1 X100.461 Y83.314 E0.01270
G1 X147.686 Y130.539 E2.09638
G1 X147.513 Y130.900 E0.01257
G1 X100.100 Y83.487 E2.10475
G1 X99.744 Y83.666 E0.01248
G1 X147.334 Y131.256 E2.11258
G1 X147.156 Y131.611 E0.01248
G1 X99.389 Y83.844 E2.12041
G1 X99.034 Y84.023 E0.01248
G1 X146.977 Y131.966 E2.12824
G1 X146.795 Y132.318 E0.01244
G1 X98.682 Y84.205 E2.13581
G1 X98.341 Y84.398 E0.01229
G1 X146.602 Y132.659 E2.14237
G1 X146.409 Y132.999 E0.01229
