; generated by PrusaSlicer 2.3.3+x64 on 2021-09-11 at 21:45:09 UTC

; 

; external perimeters extrusion width = 0.45mm
; perimeters extrusion width = 0.45mm
; infill extrusion width = 0.45mm
; solid infill extrusion width = 0.45mm
; top infill extrusion width = 0.40mm
; support material extrusion width = 0.38mm
; first layer extrusion width = 0.42mm

M201 X500 Y500 Z100 E5000 ; sets maximum accelerations, mm/sec^2
M203 X500 Y500 Z10 E60 ; sets maximum feedrates, mm/sec
M204 P500 R1000 T500 ; sets acceleration (P, T) and retract acceleration (R), mm/sec^2
M205 X8.00 Y8.00 Z0.40 E5.00 ; sets the jerk limits, mm/sec
M205 S0 T0 ; sets the minimum extruding and travel feed rate, mm/sec
M107
;TYPE:Custom
G90 ; use absolute coordinates
M83 ; extruder relative mode
M104 S200 ; set extruder temp
M140 S60 ; set bed temp
M190 S60 ; wait for bed temp
M109 S200 ; wait for extruder temp
G28 ; home all
G29 ; Level Bed
G1 Z2 F240
G1 X2 Y10 F3000
G1 Z0.28 F240
G92 E0
G1 Y190 E15 F1500 ; intro line
G1 X2.3 F5000
G92 E0
G1 Y10 E15 F1200 ; intro line
G92 E0
G21 ; set units to millimeters
G90 ; use absolute coordinates
M83 ; use relative distances for extrusion
; Filament gcode
;LAYER_CHANGE
;Z:0.2
;HEIGHT:0.2
;BEFORE_LAYER_CHANGE
G92 E0
;0.2


G1 E-6.50000 F3000.000
G1 Z0.200 F9000.000
;AFTER_LAYER_CHANGE
;0.2
G1 X59.258 Y49.177
G1 E6.50000 F2400.000
;TYPE:Skirt
;WIDTH:0.42
G1 F1200.000
G1 X59.671 Y48.466 E0.02579
G1 X60.039 Y48.114 E0.01597
G1 X60.474 Y47.848 E0.01597
G1 X60.959 Y47.681 E0.01609
G1 X61.465 Y47.621 E0.01597
G1 X167.075 Y47.451 E3.31133
G1 X170.316 Y47.632 E0.10179
G1 X171.074 Y47.835 E0.02461
G1 X171.628 Y48.188 E0.02060
G1 X172.063 Y48.675 E0.02048
G1 X172.348 Y49.263 E0.02048
G1 X172.463 Y49.906 E0.02048
G1 X172.464 Y170.656 E3.78603
G1 X172.318 Y171.465 E0.02579
G1 X171.905 Y172.176 E0.02579
G1 X171.549 Y172.519 E0.01550
G1 X171.130 Y172.781 E0.01550
G1 X170.665 Y172.950 E0.01550
G1 X170.176 Y173.020 E0.01550
G1 X90.776 Y175.188 E2.49045
G1 X61.447 Y175.188 E0.91961
G1 X60.654 Y175.037 E0.02532
G1 X59.957 Y174.629 E0.02532
G1 X59.602 Y174.258 E0.01609
G1 X59.334 Y173.816 E0.01621
G1 X59.169 Y173.330 E0.01609
G1 X59.111 Y172.817 E0.01621
G1 X59.111 Y49.986 E3.85125
G1 X59.247 Y49.236 E0.02390
G1 E-4.55000 F3000.000
;WIPE_START
G1 F7200.000
G1 X59.671 Y48.466 E-0.34795
G1 X60.039 Y48.114 E-0.20165
G1 X60.474 Y47.848 E-0.20165
G1 X60.959 Y47.681 E-0.20315
G1 X61.465 Y47.621 E-0.20165
G1 X63.224 Y47.618 E-0.69645
;WIPE_END
G1 E-0.09750 F3000.000
G1 X64.726 Y57.500 F9000.000
G1 E6.50000 F2400.000
;TYPE:Support material interface
;WIDTH:0.38
G1 F1200.000
G1 X64.726 Y67.000 E0.26627
G1 X65.563 Y67.000 E0.02346
G1 X65.563 Y57.652 E0.26202
G1 X66.400 Y57.652 E0.02346
G1 X66.400 Y67.000 E0.26202
G1 X67.237 Y67.000 E0.02346
G1 X67.237 Y57.652 E0.26202
G1 X68.074 Y57.652 E0.02346
G1 X68.074 Y67.000 E0.26202
G1 X68.912 Y67.000 E0.02346
G1 X68.912 Y57.652 E0.26202
G1 X69.749 Y57.652 E0.02346
G1 X69.749 Y67.000 E0.26202
G1 X70.586 Y67.000 E0.02346
G1 X70.586 Y57.652 E0.26202
G1 X71.423 Y57.652 E0.02346
G1 X71.423 Y67.000 E0.26202
G1 X72.260 Y67.000 E0.02346
G1 X72.260 Y57.652 E0.26202
G1 X73.097 Y57.652 E0.02346
G1 X73.097 Y67.000 E0.26202
G1 X73.934 Y67.000 E0.02346
G1 X73.934 Y57.652 E0.26202
G1 X74.771 Y57.652 E0.02346
G1 X74.771 Y67.000 E0.26202
G1 X75.608 Y67.000 E0.02346
G1 X75.608 Y57.652 E0.26202
G1 X76.445 Y57.652 E0.02346
G1 X76.445 Y67.000 E0.26202
G1 X77.282 Y67.000 E0.02346
G1 X77.282 Y57.652 E0.26202
G1 X78.119 Y57.652 E0.02346
G1 X78.119 Y67.000 E0.26202
G1 X78.957 Y67.000 E0.02346
G1 X78.957 Y57.652 E0.26202
G1 X79.794 Y57.652 E0.02346
G1 X79.794 Y67.000 E0.26202
G1 X80.631 Y67.000 E0.02346
G1 X80.631 Y63.944 E0.08566
G1 X81.468 Y63.943 E0.02346
G1 X81.468 Y67.000 E0.08568
G1 X82.305 Y67.000 E0.02346
G1 X82.305 Y57.652 E0.26202
G1 X83.142 Y57.652 E0.02346
G1 X83.142 Y67.000 E0.26202
G1 X83.979 Y67.000 E0.02346
G1 X83.979 Y57.652 E0.26202
G1 X84.816 Y57.652 E0.02346
G1 X84.816 Y67.000 E0.26202
G1 X85.653 Y67.000 E0.02346
G1 X85.653 Y57.652 E0.26202
G1 X86.490 Y57.652 E0.02346
G1 X86.490 Y67.000 E0.26202
G1 X87.327 Y67.000 E0.02346
G1 X87.327 Y57.652 E0.26202
G1 X88.164 Y57.652 E0.02346
G1 X88.164 Y67.000 E0.26202
G1 X89.001 Y67.000 E0.02346
G1 X89.001 Y57.652 E0.26202
G1 X89.839 Y57.652 E0.02346
G1 X89.839 Y67.000 E0.26202
G1 X90.676 Y67.000 E0.02346
G1 X90.676 Y57.652 E0.26202
G1 X91.513 Y57.652 E0.02346
G1 X91.513 Y67.000 E0.26202
G1 X92.350 Y67.000 E0.02346
G1 X92.350 Y57.652 E0.26202
G1 X93.187 Y57.652 E0.02346
G1 X93.187 Y67.000 E0.26202
G1 X94.024 Y67.000 E0.02346
G1 X94.024 Y57.652 E0.26202
G1 X94.861 Y57.652 E0.02346
G1 X94.861 Y67.000 E0.26202
G1 X95.698 Y67.000 E0.02346
G1 X95.698 Y57.652 E0.26202
G1 X96.535 Y57.652 E0.02346
G1 X96.535 Y67.000 E0.26202
G1 X97.372 Y67.000 E0.02346
G1 X97.372 Y57.652 E0.26202
G1 X98.209 Y57.652 E0.02346
G1 X98.209 Y67.000 E0.26202
G1 X99.046 Y67.000 E0.02346
G1 X99.046 Y57.652 E0.26202
G1 X99.883 Y57.652 E0.02346
G1 X99.883 Y67.000 E0.26202
G1 X100.721 Y67.000 E0.02346
G1 X100.721 Y57.652 E0.26202
G1 X101.558 Y57.652 E0.02346
G1 X101.558 Y67.000 E0.26202
G1 X102.395 Y67.000 E0.02346
G1 X102.395 Y57.652 E0.26202
G1 X103.232 Y57.652 E0.02346
G1 X103.232 Y67.000 E0.26202
G1 X104.069 Y67.000 E0.02346
G1 X104.069 Y57.652 E0.26202
G1 X104.906 Y57.652 E0.02346
G1 X104.906 Y67.000 E0.26202
G1 X105.743 Y67.000 E0.02346
G1 X105.743 Y57.652 E0.26202
G1 X106.580 Y57.652 E0.02346
G1 X106.580 Y67.000 E0.26202
G1 X107.417 Y67.000 E0.02346
G1 X107.417 Y57.652 E0.26202
G1 X108.254 Y57.652 E0.02346
G1 X108.254 Y67.000 E0.26202
G1 X109.091 Y67.000 E0.02346
G1 X109.091 Y57.652 E0.26202
G1 X109.928 Y57.652 E0.02346
G1 X109.928 Y67.000 E0.26202
G1 X110.766 Y67.000 E0.02346
G1 X110.766 Y57.652 E0.26202
G1 X111.603 Y57.652 E0.02346
G1 X111.603 Y67.000 E0.26202
G1 X112.440 Y67.000 E0.02346
G1 X112.440 Y57.652 E0.26202
G1 X113.277 Y57.652 E0.02346
G1 X113.277 Y67.000 E0.26202
G1 X114.114 Y67.000 E0.02346
G1 X114.114 Y57.652 E0.26202
G1 X114.951 Y57.652 E0.02346
G1 X114.951 Y67.000 E0.26202
G1 X115.788 Y67.000 E0.02346
G1 X115.788 Y57.652 E0.26202
G1 X116.625 Y57.652 E0.02346
G1 X116.625 Y67.000 E0.26202
G1 X117.462 Y67.000 E0.02346
G1 X117.462 Y57.652 E0.26202
G1 X118.299 Y57.652 E0.02346
G1 X118.299 Y67.000 E0.26202
G1 X119.136 Y67.000 E0.02346
G1 X119.136 Y57.652 E0.26202
G1 X119.973 Y57.652 E0.02346
G1 X119.973 Y67.000 E0.26202
G1 X120.810 Y67.000 E0.02346
G1 X120.810 Y57.652 E0.26202
G1 X121.648 Y57.652 E0.02346
G1 X121.648 Y67.000 E0.26202
G1 X122.485 Y67.000 E0.02346
G1 X122.485 Y57.652 E0.26202
G1 X123.322 Y57.652 E0.02346
G1 X123.322 Y67.000 E0.26202
G1 X124.159 Y67.000 E0.02346
G1 X124.159 Y57.652 E0.26202
G1 X124.996 Y57.652 E0.02346
G1 X124.996 Y67.000 E0.26202
G1 X125.833 Y67.000 E0.02346
G1 X125.833 Y57.652 E0.26202
G1 X126.670 Y57.652 E0.02346
G1 X126.670 Y67.000 E0.26202
G1 X127.507 Y67.000 E0.02346
G1 X127.507 Y57.652 E0.26202
G1 X128.344 Y57.652 E0.02346
G1 X128.344 Y67.000 E0.26202
G1 X129.181 Y67.000 E0.02346
G1 X129.181 Y57.652 E0.26202
G1 X130.018 Y57.652 E0.02346
G1 X130.018 Y67.000 E0.26202
G1 X130.855 Y67.000 E0.02346
G1 X130.855 Y57.652 E0.26202
G1 X131.692 Y57.652 E0.02346
G1 X131.692 Y67.000 E0.26202
G1 X132.530 Y67.000 E0.02346
G1 X132.530 Y57.652 E0.26202
G1 X133.367 Y57.652 E0.02346
G1 X133.367 Y67.000 E0.26202
G1 X134.204 Y67.000 E0.02346
G1 X134.204 Y57.652 E0.26202
G1 X135.041 Y57.652 E0.02346
G1 X135.041 Y67.000 E0.26202
G1 X135.878 Y67.000 E0.02346
G1 X135.878 Y57.652 E0.26202
G1 X136.715 Y57.652 E0.02346
G1 X136.715 Y67.000 E0.26202
G1 X137.552 Y67.000 E0.02346
G1 X137.552 Y57.652 E0.26202
G1 X138.389 Y57.652 E0.02346
G1 X138.389 Y67.000 E0.26202
G1 X139.226 Y67.000 E0.02346
G1 X139.226 Y57.652 E0.26202
G1 X140.063 Y57.652 E0.02346
G1 X140.063 Y67.000 E0.26202
G1 X140.900 Y67.000 E0.02346
G1 X140.900 Y57.652 E0.26202
G1 X141.737 Y57.652 E0.02346
G1 X141.737 Y67.000 E0.26202
G1 X142.575 Y67.000 E0.02346
G1 X142.575 Y57.652 E0.26202
G1 X143.412 Y57.652 E0.02346
G1 X143.412 Y67.000 E0.26202
G1 X144.249 Y67.000 E0.02346
G1 X144.249 Y57.652 E0.26202
G1 X145.086 Y57.652 E0.02346
G1 X145.086 Y67.000 E0.26202
G1 X145.923 Y67.000 E0.02346
G1 X145.923 Y57.652 E0.26202
G1 X146.760 Y57.652 E0.02346
G1 X146.760 Y67.000 E0.26202
G1 X147.597 Y67.000 E0.02346
G1 X147.597 Y57.652 E0.26202
G1 X148.434 Y57.652 E0.02346
G1 X148.434 Y67.152 E0.26627
G1 E-4.55000 F3000.000
;WIPE_START
G1 F7200.000
G1 X148.434 Y62.472 E-1.85250
;WIPE_END
G1 E-0.09750 F3000.000
G1 X150.945 Y67.152 F9000.000
G1 E6.50000 F2400.000
G1 F1200.000
G1 X150.945 Y63.943 E0.08995
G1 X150.108 Y63.943 E0.02346
G1 X150.108 Y67.000 E0.08570
G1 X149.271 Y67.000 E0.02346
G1 X149.271 Y57.652 E0.26202
G1 X150.108 Y57.652 E0.02346
G1 X150.108 Y62.066 E0.12370
G1 X150.945 Y62.065 E0.02346
G1 X150.945 Y57.652 E0.12370
G1 X151.782 Y57.652 E0.02346
G1 X151.782 Y67.000 E0.26202
G1 X152.619 Y67.000 E0.02346
G1 X152.619 Y57.652 E0.26202
G1 X153.457 Y57.652 E0.02346
G1 X153.457 Y67.000 E0.26202
G1 X154.294 Y67.000 E0.02346
G1 X154.294 Y57.652 E0.26202
G1 X155.131 Y57.652 E0.02346
G1 X155.131 Y67.000 E0.26202
G1 X155.968 Y67.000 E0.02346
G1 X155.968 Y57.652 E0.26202
G1 X156.805 Y57.652 E0.02346
G1 X156.805 Y67.000 E0.26202
G1 X157.642 Y67.000 E0.02346
G1 X157.642 Y57.652 E0.26202
G1 X158.479 Y57.652 E0.02346
G1 X158.479 Y67.000 E0.26202
G1 X159.316 Y67.000 E0.02346
G1 X159.316 Y57.652 E0.26202
G1 X160.153 Y57.652 E0.02346
G1 X160.153 Y67.000 E0.26202
G1 X160.990 Y67.000 E0.02346
G1 X160.990 Y57.652 E0.26202
G1 X161.827 Y57.652 E0.02346
G1 X161.827 Y67.000 E0.26202
G1 X162.664 Y67.000 E0.02346
G1 X162.664 Y57.652 E0.26202
G1 X163.501 Y57.652 E0.02346
G1 X163.501 Y67.000 E0.26202
G1 X164.339 Y67.000 E0.02346
G1 X164.339 Y57.652 E0.26202
G1 X165.176 Y57.652 E0.02346
G1 X165.176 Y67.000 E0.26202
G1 X166.013 Y67.000 E0.02346
G1 X166.013 Y57.652 E0.26202
G1 X166.850 Y57.652 E0.02346
G1 X166.850 Y67.152 E0.26627
G1 X170.087 Y74.824 F9000.000
;TYPE:Support material
;WIDTH:0.42
G1 F1200.000
G1 X170.087 Y49.998 E0.77841
G1 X169.333 Y49.998 E0.02365
G1 X169.333 Y74.654 E0.77309
G1 X168.579 Y74.654 E0.02365
G1 X168.579 Y49.998 E0.77309
G1 X167.825 Y49.998 E0.02365
G1 X167.825 Y74.654 E0.77309
G1 X167.071 Y74.654 E0.02365
G1 X167.071 Y67.357 E0.22879
G1 X166.317 Y67.357 E0.02365
G1 X166.317 Y74.654 E0.22879
G1 X165.562 Y74.654 E0.02365
G1 X165.562 Y67.357 E0.22879
G1 X164.808 Y67.357 E0.02365
G1 X164.808 Y74.654 E0.22879
G1 X164.054 Y74.654 E0.02365
G1 X164.054 Y67.357 E0.22879
G1 X163.300 Y67.357 E0.02365
G1 X163.300 Y74.654 E0.22879
G1 X162.546 Y74.654 E0.02365
G1 X162.546 Y67.357 E0.22879
G1 X161.792 Y67.357 E0.02365
G1 X161.792 Y74.654 E0.22879
G1 X161.038 Y74.654 E0.02365
G1 X161.038 Y67.357 E0.22879
G1 X160.283 Y67.357 E0.02365
G1 X160.283 Y74.654 E0.22879
G1 X159.529 Y74.654 E0.02365
G1 X159.529 Y67.357 E0.22879
G1 X158.775 Y67.357 E0.02365
G1 X158.775 Y74.654 E0.22879
G1 X158.021 Y74.654 E0.02365
G1 X158.021 Y67.357 E0.22879
G1 X157.267 Y67.357 E0.02365
G1 X157.267 Y74.654 E0.22879
G1 X156.513 Y74.654 E0.02365
G1 X156.513 Y67.357 E0.22879
G1 X155.758 Y67.357 E0.02365
G1 X155.758 Y74.654 E0.22879
G1 X155.004 Y74.654 E0.02365
G1 X155.004 Y67.357 E0.22879
G1 X154.250 Y67.357 E0.02365
G1 X154.250 Y74.654 E0.22879
G1 X153.496 Y74.654 E0.02365
G1 X153.496 Y67.357 E0.22879
G1 X152.742 Y67.357 E0.02365
G1 X152.742 Y74.654 E0.22879
G1 X151.988 Y74.654 E0.02365
G1 X151.988 Y67.357 E0.22879
G1 X151.233 Y67.357 E0.02365
G1 X151.233 Y74.654 E0.22879
G1 X150.479 Y74.654 E0.02365
G1 X150.479 Y67.357 E0.22879
G1 X149.725 Y67.357 E0.02365
G1 X149.725 Y74.654 E0.22879
G1 X148.971 Y74.654 E0.02365
G1 X148.971 Y67.357 E0.22879
G1 X148.217 Y67.357 E0.02365
G1 X148.217 Y74.654 E0.22879
G1 X147.463 Y74.654 E0.02365
G1 X147.463 Y67.357 E0.22879
G1 X146.709 Y67.357 E0.02365
G1 X146.709 Y74.654 E0.22879
G1 X145.954 Y74.654 E0.02365
G1 X145.954 Y67.357 E0.22879
G1 X145.200 Y67.357 E0.02365
G1 X145.200 Y74.654 E0.22879
G1 X144.446 Y74.654 E0.02365
G1 X144.446 Y67.357 E0.22879
G1 X143.692 Y67.357 E0.02365
G1 X143.692 Y74.654 E0.22879
G1 X142.938 Y74.654 E0.02365
G1 X142.938 Y67.357 E0.22879
G1 X142.184 Y67.357 E0.02365
G1 X142.184 Y74.654 E0.22879
G1 X141.429 Y74.654 E0.02365
G1 X141.429 Y67.357 E0.22879
G1 X140.675 Y67.357 E0.02365
G1 X140.675 Y74.654 E0.22879
G1 X139.921 Y74.654 E0.02365
G1 X139.921 Y67.357 E0.22879
G1 X139.167 Y67.357 E0.02365
G1 X139.167 Y74.654 E0.22879
G1 X138.413 Y74.654 E0.02365
G1 X138.413 Y67.357 E0.22879
G1 X137.659 Y67.357 E0.02365
G1 X137.659 Y74.654 E0.22879
G1 X136.904 Y74.654 E0.02365
G1 X136.904 Y67.357 E0.22879
G1 X136.150 Y67.357 E0.02365
G1 X136.150 Y74.654 E0.22879
G1 X135.396 Y74.654 E0.02365
G1 X135.396 Y67.357 E0.22879
G1 X134.642 Y67.357 E0.02365
G1 X134.642 Y74.654 E0.22879
G1 X133.888 Y74.654 E0.02365
G1 X133.888 Y67.357 E0.22879
G1 X133.134 Y67.357 E0.02365
G1 X133.134 Y74.654 E0.22879
G1 X132.379 Y74.654 E0.02365
G1 X132.379 Y67.357 E0.22879
G1 X131.625 Y67.357 E0.02365
G1 X131.625 Y74.654 E0.22879
G1 X130.871 Y74.654 E0.02365
G1 X130.871 Y67.357 E0.22879
G1 X130.117 Y67.357 E0.02365
G1 X130.117 Y74.654 E0.22879
G1 X129.363 Y74.654 E0.02365
G1 X129.363 Y67.357 E0.22879
G1 X128.609 Y67.357 E0.02365
G1 X128.609 Y74.654 E0.22879
G1 X127.855 Y74.654 E0.02365
G1 X127.855 Y67.357 E0.22879
G1 X127.100 Y67.357 E0.02365
G1 X127.100 Y74.654 E0.22879
G1 X126.346 Y74.654 E0.02365
G1 X126.346 Y67.357 E0.22879
G1 X125.592 Y67.357 E0.02365
G1 X125.592 Y74.654 E0.22879
G1 X124.838 Y74.654 E0.02365
G1 X124.838 Y67.357 E0.22879
G1 X124.084 Y67.357 E0.02365
G1 X124.084 Y74.654 E0.22879
G1 X123.330 Y74.654 E0.02365
G1 X123.330 Y67.357 E0.22879
G1 X122.575 Y67.357 E0.02365
G1 X122.575 Y74.654 E0.22879
G1 X121.821 Y74.654 E0.02365
G1 X121.821 Y67.357 E0.22879
G1 X121.067 Y67.357 E0.02365
G1 X121.067 Y74.654 E0.22879
G1 X120.313 Y74.654 E0.02365
G1 X120.313 Y67.357 E0.22879
G1 X119.559 Y67.357 E0.02365
G1 X119.559 Y74.654 E0.22879
G1 X118.805 Y74.654 E0.02365
G1 X118.805 Y67.357 E0.22879
G1 X118.050 Y67.357 E0.02365
G1 X118.050 Y74.654 E0.22879
G1 X117.296 Y74.654 E0.02365
G1 X117.296 Y67.357 E0.22879
G1 X116.542 Y67.357 E0.02365
G1 X116.542 Y74.654 E0.22879
G1 X115.788 Y74.654 E0.02365
G1 X115.788 Y67.357 E0.22879
G1 X115.034 Y67.357 E0.02365
G1 X115.034 Y74.654 E0.22879
G1 X114.280 Y74.654 E0.02365
G1 X114.280 Y67.357 E0.22879
G1 X113.526 Y67.357 E0.02365
G1 X113.526 Y74.654 E0.22879
G1 X112.771 Y74.654 E0.02365
G1 X112.771 Y67.357 E0.22879
G1 X112.017 Y67.357 E0.02365
G1 X112.017 Y74.654 E0.22879
G1 X111.263 Y74.654 E0.02365
G1 X111.263 Y67.357 E0.22879
G1 X110.509 Y67.357 E0.02365
G1 X110.509 Y74.654 E0.22879
G1 X109.755 Y74.654 E0.02365
G1 X109.755 Y67.357 E0.22879
G1 X109.001 Y67.357 E0.02365
G1 X109.001 Y74.654 E0.22879
G1 X108.246 Y74.654 E0.02365
G1 X108.246 Y67.357 E0.22879
G1 X107.492 Y67.357 E0.02365
G1 X107.492 Y74.654 E0.22879
G1 X106.738 Y74.654 E0.02365
G1 X106.738 Y67.357 E0.22879
G1 X105.984 Y67.357 E0.02365
G1 X105.984 Y74.654 E0.22879
G1 X105.230 Y74.654 E0.02365
G1 X105.230 Y67.357 E0.22879
G1 X104.476 Y67.357 E0.02365
G1 X104.476 Y74.654 E0.22879
G1 X103.721 Y74.654 E0.02365
G1 X103.721 Y67.357 E0.22879
G1 X102.967 Y67.357 E0.02365
G1 X102.967 Y74.654 E0.22879
G1 X102.213 Y74.654 E0.02365
G1 X102.213 Y67.357 E0.22879
G1 X101.459 Y67.357 E0.02365
G1 X101.459 Y74.654 E0.22879
G1 X100.705 Y74.654 E0.02365
G1 X100.705 Y67.357 E0.22879
G1 X99.951 Y67.357 E0.02365
G1 X99.951 Y74.654 E0.22879
G1 X99.196 Y74.654 E0.02365
G1 X99.196 Y67.357 E0.22879
G1 X98.442 Y67.357 E0.02365
G1 X98.442 Y74.654 E0.22879
G1 X97.688 Y74.654 E0.02365
G1 X97.688 Y67.357 E0.22879
G1 X96.934 Y67.357 E0.02365
G1 X96.934 Y74.654 E0.22879
G1 X96.180 Y74.654 E0.02365
G1 X96.180 Y67.357 E0.22879
G1 X95.426 Y67.357 E0.02365
G1 X95.426 Y74.654 E0.22879
G1 X94.672 Y74.654 E0.02365
G1 X94.672 Y67.357 E0.22879
G1 X93.917 Y67.357 E0.02365
G1 X93.917 Y74.654 E0.22879
G1 X93.163 Y74.654 E0.02365
G1 X93.163 Y67.357 E0.22879
G1 X92.409 Y67.357 E0.02365
G1 X92.409 Y74.654 E0.22879
G1 X91.655 Y74.654 E0.02365
G1 X91.655 Y67.357 E0.22879
