; generated by PrusaSlicer 2.3.3+x64 on 2021-10-11 at 23:30:37 UTC

; 

; external perimeters extrusion width = 0.45mm
; perimeters extrusion width = 0.45mm
; infill extrusion width = 0.45mm
; solid infill extrusion width = 0.45mm
; top infill extrusion width = 0.40mm
; support material extrusion width = 0.38mm
; first layer extrusion width = 0.42mm

M201 X500 Y500 Z100 E5000 ; sets maximum accelerations, mm/sec^2
M203 X500 Y500 Z10 E60 ; sets maximum feedrates, mm/sec
M204 P500 R1000 T500 ; sets acceleration (P, T) and retract acceleration (R), mm/sec^2
M205 X8.00 Y8.00 Z0.40 E5.00 ; sets the jerk limits, mm/sec
M205 S0 T0 ; sets the minimum extruding and travel feed rate, mm/sec
M107
;TYPE:Custom
G90 ; use absolute coordinates
M83 ; extruder relative mode
M104 S200 ; set extruder temp
M140 S60 ; set bed temp
M190 S60 ; wait for bed temp
M109 S200 ; wait for extruder temp
G28 ; home all
G29 ; Level Bed
G1 Z2 F240
G1 X2 Y10 F3000
G1 Z0.28 F240
G92 E0
G1 Y190 E15 F1500 ; intro line
G1 X2.3 F5000
G92 E0
G1 Y10 E15 F1200 ; intro line
G92 E0
G21 ; set units to millimeters
G90 ; use absolute coordinates
M83 ; use relative distances for extrusion
; Filament gcode
;LAYER_CHANGE
;Z:0.2
;HEIGHT:0.2
;BEFORE_LAYER_CHANGE
G92 E0
;0.2


G1 E-6.50000 F3000.000
G1 Z0.200 F9000.000
;AFTER_LAYER_CHANGE
;0.2
G1 X59.821 Y47.697
G1 E6.50000 F2400.000
;TYPE:Skirt
;WIDTH:0.42
G1 F1200.000
G1 X60.589 Y47.190 E0.02884
G1 X61.492 Y47.013 E0.02887
G1 X170.106 Y47.183 E3.40552
G1 X170.605 Y47.240 E0.01574
G1 X171.081 Y47.400 E0.01574
G1 X171.509 Y47.655 E0.01562
G1 X171.877 Y47.996 E0.01574
G1 X172.311 Y48.720 E0.02649
G1 X172.464 Y49.548 E0.02637
G1 X172.465 Y171.069 E3.81021
G1 X172.410 Y171.571 E0.01585
G1 X172.250 Y172.051 E0.01585
G1 X171.993 Y172.486 E0.01585
G1 X171.652 Y172.855 E0.01574
G1 X170.927 Y173.289 E0.02649
G1 X170.096 Y173.442 E0.02649
G1 X61.481 Y173.272 E3.40555
G1 X60.978 Y173.217 E0.01585
G1 X60.502 Y173.058 E0.01574
G1 X60.067 Y172.801 E0.01585
G1 X59.699 Y172.460 E0.01574
G1 X59.265 Y171.735 E0.02649
G1 X59.111 Y170.908 E0.02637
G1 X59.112 Y49.356 E3.81117
G1 X59.303 Y48.456 E0.02884
G1 X59.787 Y47.746 E0.02696
G1 E-4.55000 F3000.000
;WIPE_START
G1 F7200.000
G1 X60.589 Y47.190 E-0.38615
G1 X61.492 Y47.013 E-0.36445
G1 X64.276 Y47.018 E-1.10190
;WIPE_END
G1 E-0.09750 F3000.000
G1 X61.489 Y49.390 F9000.000
G1 E6.50000 F2400.000
;TYPE:Support material
G1 F1200.000
G1 X61.489 Y74.371 E0.78325
G1 X62.243 Y74.371 E0.02365
G1 X62.243 Y49.560 E0.77793
G1 X62.997 Y49.560 E0.02365
G1 X62.997 Y74.371 E0.77793
G1 X63.751 Y74.371 E0.02365
G1 X63.751 Y49.560 E0.77793
G1 X64.505 Y49.560 E0.02365
G1 X64.505 Y56.891 E0.22987
G1 X65.259 Y56.891 E0.02365
G1 X65.259 Y49.560 E0.22987
G1 X66.013 Y49.560 E0.02365
G1 X66.013 Y56.891 E0.22987
G1 X66.768 Y56.891 E0.02365
G1 X66.768 Y49.560 E0.22987
G1 X67.522 Y49.560 E0.02365
G1 X67.522 Y56.891 E0.22987
G1 X68.276 Y56.891 E0.02365
G1 X68.276 Y49.560 E0.22987
G1 X69.030 Y49.560 E0.02365
G1 X69.030 Y56.891 E0.22987
G1 X69.784 Y56.891 E0.02365
G1 X69.784 Y49.560 E0.22987
G1 X70.538 Y49.560 E0.02365
G1 X70.538 Y56.891 E0.22987
G1 X71.293 Y56.891 E0.02365
G1 X71.293 Y49.560 E0.22987
G1 X72.047 Y49.560 E0.02365
G1 X72.047 Y56.891 E0.22987
G1 X72.801 Y56.891 E0.02365
G1 X72.801 Y49.560 E0.22987
G1 X73.555 Y49.560 E0.02365
G1 X73.555 Y56.891 E0.22987
G1 X74.309 Y56.891 E0.02365
G1 X74.309 Y49.560 E0.22987
G1 X75.063 Y49.560 E0.02365
G1 X75.063 Y56.891 E0.22987
G1 X75.818 Y56.891 E0.02365
G1 X75.818 Y49.560 E0.22987
G1 X76.572 Y49.560 E0.02365
G1 X76.572 Y56.891 E0.22987
G1 X77.326 Y56.891 E0.02365
G1 X77.326 Y49.560 E0.22987
G1 X78.080 Y49.560 E0.02365
G1 X78.080 Y56.891 E0.22987
G1 X78.834 Y56.891 E0.02365
G1 X78.834 Y49.560 E0.22987
G1 X79.588 Y49.560 E0.02365
G1 X79.588 Y56.891 E0.22987
G1 X80.343 Y56.891 E0.02365
G1 X80.343 Y49.560 E0.22987
G1 X81.097 Y49.560 E0.02365
G1 X81.097 Y56.891 E0.22987
G1 X81.851 Y56.891 E0.02365
G1 X81.851 Y49.560 E0.22987
G1 X82.605 Y49.560 E0.02365
G1 X82.605 Y56.891 E0.22987
G1 X83.359 Y56.891 E0.02365
G1 X83.359 Y49.560 E0.22987
G1 X84.113 Y49.560 E0.02365
G1 X84.113 Y56.891 E0.22987
G1 X84.867 Y56.891 E0.02365
G1 X84.867 Y49.560 E0.22987
G1 X85.622 Y49.560 E0.02365
G1 X85.622 Y56.891 E0.22987
G1 X86.376 Y56.891 E0.02365
G1 X86.376 Y49.560 E0.22987
G1 X87.130 Y49.560 E0.02365
G1 X87.130 Y56.891 E0.22987
G1 X87.884 Y56.891 E0.02365
G1 X87.884 Y49.560 E0.22987
G1 X88.638 Y49.560 E0.02365
G1 X88.638 Y56.891 E0.22987
G1 X89.392 Y56.891 E0.02365
G1 X89.392 Y49.560 E0.22987
G1 X90.147 Y49.560 E0.02365
G1 X90.147 Y56.891 E0.22987
G1 X90.901 Y56.891 E0.02365
G1 X90.901 Y49.560 E0.22987
G1 X91.655 Y49.560 E0.02365
G1 X91.655 Y56.891 E0.22987
G1 X92.409 Y56.891 E0.02365
G1 X92.409 Y49.560 E0.22987
G1 X93.163 Y49.560 E0.02365
G1 X93.163 Y56.891 E0.22987
G1 X93.917 Y56.891 E0.02365
G1 X93.917 Y49.560 E0.22987
G1 X94.672 Y49.560 E0.02365
G1 X94.672 Y56.891 E0.22987
G1 X95.426 Y56.891 E0.02365
G1 X95.426 Y49.560 E0.22987
G1 X96.180 Y49.560 E0.02365
G1 X96.180 Y56.891 E0.22987
G1 X96.934 Y56.891 E0.02365
G1 X96.934 Y49.560 E0.22987
G1 X97.688 Y49.560 E0.02365
G1 X97.688 Y56.891 E0.22987
G1 X98.442 Y56.891 E0.02365
G1 X98.442 Y49.560 E0.22987
G1 X99.196 Y49.560 E0.02365
G1 X99.196 Y56.891 E0.22987
G1 X99.951 Y56.891 E0.02365
G1 X99.951 Y49.560 E0.22987
G1 X100.705 Y49.560 E0.02365
G1 X100.705 Y56.891 E0.22987
G1 X101.459 Y56.891 E0.02365
G1 X101.459 Y49.560 E0.22987
G1 X102.213 Y49.560 E0.02365
G1 X102.213 Y56.891 E0.22987
G1 X102.967 Y56.891 E0.02365
G1 X102.967 Y49.560 E0.22987
G1 X103.721 Y49.560 E0.02365
G1 X103.721 Y56.891 E0.22987
G1 X104.476 Y56.891 E0.02365
G1 X104.476 Y49.560 E0.22987
G1 X105.230 Y49.560 E0.02365
G1 X105.230 Y56.891 E0.22987
G1 X105.984 Y56.891 E0.02365
G1 X105.984 Y49.560 E0.22987
G1 X106.738 Y49.560 E0.02365
G1 X106.738 Y56.891 E0.22987
G1 X107.492 Y56.891 E0.02365
G1 X107.492 Y49.560 E0.22987
G1 X108.246 Y49.560 E0.02365
G1 X108.246 Y56.891 E0.22987
G1 X109.001 Y56.891 E0.02365
G1 X109.001 Y49.560 E0.22987
G1 X109.755 Y49.560 E0.02365
G1 X109.755 Y56.891 E0.22987
G1 X110.509 Y56.891 E0.02365
G1 X110.509 Y49.560 E0.22987
G1 X111.263 Y49.560 E0.02365
G1 X111.263 Y56.891 E0.22987
G1 X112.017 Y56.891 E0.02365
G1 X112.017 Y49.560 E0.22987
G1 X112.771 Y49.560 E0.02365
G1 X112.771 Y56.891 E0.22987
G1 X113.526 Y56.891 E0.02365
G1 X113.526 Y49.560 E0.22987
G1 X114.280 Y49.560 E0.02365
G1 X114.280 Y56.891 E0.22987
G1 X115.034 Y56.891 E0.02365
G1 X115.034 Y49.560 E0.22987
G1 X115.788 Y49.560 E0.02365
G1 X115.788 Y56.891 E0.22987
G1 X116.542 Y56.891 E0.02365
G1 X116.542 Y49.560 E0.22987
G1 X117.296 Y49.560 E0.02365
G1 X117.296 Y56.891 E0.22987
G1 X118.050 Y56.891 E0.02365
G1 X118.050 Y49.560 E0.22987
G1 X118.805 Y49.560 E0.02365
G1 X118.805 Y56.891 E0.22987
G1 X119.559 Y56.891 E0.02365
G1 X119.559 Y49.560 E0.22987
G1 X120.313 Y49.560 E0.02365
G1 X120.313 Y56.891 E0.22987
G1 X121.067 Y56.891 E0.02365
G1 X121.067 Y49.560 E0.22987
G1 X121.821 Y49.560 E0.02365
G1 X121.821 Y56.891 E0.22987
G1 X122.575 Y56.891 E0.02365
G1 X122.575 Y49.560 E0.22987
G1 X123.330 Y49.560 E0.02365
G1 X123.330 Y56.891 E0.22987
G1 X124.084 Y56.891 E0.02365
G1 X124.084 Y49.560 E0.22987
G1 X124.838 Y49.560 E0.02365
G1 X124.838 Y56.891 E0.22987
G1 X125.592 Y56.891 E0.02365
G1 X125.592 Y49.560 E0.22987
G1 X126.346 Y49.560 E0.02365
G1 X126.346 Y56.891 E0.22987
G1 X127.100 Y56.891 E0.02365
G1 X127.100 Y49.560 E0.22987
G1 X127.855 Y49.560 E0.02365
G1 X127.855 Y56.891 E0.22987
G1 X128.609 Y56.891 E0.02365
G1 X128.609 Y49.560 E0.22987
G1 X129.363 Y49.560 E0.02365
G1 X129.363 Y56.891 E0.22987
G1 X130.117 Y56.891 E0.02365
G1 X130.117 Y49.560 E0.22987
G1 X130.871 Y49.560 E0.02365
G1 X130.871 Y56.891 E0.22987
G1 X131.625 Y56.891 E0.02365
G1 X131.625 Y49.560 E0.22987
G1 X132.379 Y49.560 E0.02365
G1 X132.379 Y56.891 E0.22987
G1 X133.134 Y56.891 E0.02365
G1 X133.134 Y49.560 E0.22987
G1 X133.888 Y49.560 E0.02365
G1 X133.888 Y56.891 E0.22987
G1 X134.642 Y56.891 E0.02365
G1 X134.642 Y49.560 E0.22987
G1 X135.396 Y49.560 E0.02365
G1 X135.396 Y56.891 E0.22987
G1 X136.150 Y56.891 E0.02365
G1 X136.150 Y49.560 E0.22987
G1 X136.904 Y49.560 E0.02365
G1 X136.904 Y56.891 E0.22987
G1 X137.659 Y56.891 E0.02365
G1 X137.659 Y49.560 E0.22987
G1 X138.413 Y49.560 E0.02365
G1 X138.413 Y56.891 E0.22987
G1 X139.167 Y56.891 E0.02365
G1 X139.167 Y49.560 E0.22987
G1 X139.921 Y49.560 E0.02365
G1 X139.921 Y56.891 E0.22987
G1 X140.675 Y56.891 E0.02365
G1 X140.675 Y49.560 E0.22987
G1 X141.429 Y49.560 E0.02365
G1 X141.429 Y56.891 E0.22987
G1 X142.184 Y56.891 E0.02365
G1 X142.184 Y49.560 E0.22987
G1 X142.938 Y49.560 E0.02365
G1 X142.938 Y56.891 E0.22987
G1 X143.692 Y56.891 E0.02365
G1 X143.692 Y49.560 E0.22987
G1 X144.446 Y49.560 E0.02365
G1 X144.446 Y56.891 E0.22987
G1 X145.200 Y56.891 E0.02365
G1 X145.200 Y49.560 E0.22987
G1 X145.954 Y49.560 E0.02365
G1 X145.954 Y56.891 E0.22987
G1 X146.709 Y56.891 E0.02365
G1 X146.709 Y49.560 E0.22987
G1 X147.463 Y49.560 E0.02365
G1 X147.463 Y56.891 E0.22987
G1 X148.217 Y56.891 E0.02365
G1 X148.217 Y49.560 E0.22987
G1 X148.971 Y49.560 E0.02365
G1 X148.971 Y56.891 E0.22987
G1 X149.725 Y56.891 E0.02365
G1 X149.725 Y49.560 E0.22987
G1 X150.479 Y49.560 E0.02365
G1 X150.479 Y56.891 E0.22987
G1 X151.233 Y56.891 E0.02365
G1 X151.233 Y49.560 E0.22987
G1 X151.988 Y49.560 E0.02365
G1 X151.988 Y56.891 E0.22987
G1 X152.742 Y56.891 E0.02365
G1 X152.742 Y49.560 E0.22987
G1 X153.496 Y49.560 E0.02365
G1 X153.496 Y56.891 E0.22987
G1 X154.250 Y56.891 E0.02365
G1 X154.250 Y49.560 E0.22987
G1 X155.004 Y49.560 E0.02365
G1 X155.004 Y56.891 E0.22987
G1 X155.758 Y56.891 E0.02365
G1 X155.758 Y49.560 E0.22987
G1 X156.513 Y49.560 E0.02365
G1 X156.513 Y56.891 E0.22987
G1 X157.267 Y56.891 E0.02365
G1 X157.267 Y49.560 E0.22987
G1 X158.021 Y49.560 E0.02365
G1 X158.021 Y56.891 E0.22987
G1 X158.775 Y56.891 E0.02365
G1 X158.775 Y49.560 E0.22987
G1 X159.529 Y49.560 E0.02365
G1 X159.529 Y56.891 E0.22987
G1 X160.283 Y56.891 E0.02365
G1 X160.283 Y49.560 E0.22987
G1 X161.038 Y49.560 E0.02365
G1 X161.038 Y56.891 E0.22987
G1 X161.792 Y56.891 E0.02365
G1 X161.792 Y49.560 E0.22987
G1 X162.546 Y49.560 E0.02365
G1 X162.546 Y56.891 E0.22987
G1 X163.300 Y56.891 E0.02365
G1 X163.300 Y49.560 E0.22987
G1 X164.054 Y49.560 E0.02365
G1 X164.054 Y56.891 E0.22987
G1 X164.808 Y56.891 E0.02365
G1 X164.808 Y49.560 E0.22987
G1 X165.562 Y49.560 E0.02365
G1 X165.562 Y56.891 E0.22987
G1 X166.317 Y56.891 E0.02365
G1 X166.317 Y49.560 E0.22987
G1 X167.071 Y49.560 E0.02365
G1 X167.071 Y57.061 E0.23519
G1 E-4.55000 F3000.000
;WIPE_START
G1 F7200.000
G1 X167.071 Y52.381 E-1.85250
;WIPE_END
G1 E-0.09750 F3000.000
G1 X64.243 Y57.098 F9000.000
G1 E6.50000 F2400.000
;TYPE:Support material interface
;WIDTH:0.38
G1 F1200.000
G1 X64.243 Y66.674 E0.26841
G1 X64.797 Y66.674 E0.01553
G1 X64.797 Y57.257 E0.26394
G1 X65.352 Y57.257 E0.01553
G1 X65.352 Y66.674 E0.26394
G1 X65.906 Y66.674 E0.01553
G1 X65.906 Y57.257 E0.26394
G1 X66.460 Y57.257 E0.01553
G1 X66.460 Y66.674 E0.26394
G1 X67.014 Y66.674 E0.01553
G1 X67.014 Y57.257 E0.26394
G1 X67.569 Y57.257 E0.01553
G1 X67.569 Y66.674 E0.26394
G1 X68.123 Y66.674 E0.01553
G1 X68.123 Y57.257 E0.26394
G1 X68.677 Y57.257 E0.01553
G1 X68.677 Y66.674 E0.26394
G1 X69.231 Y66.674 E0.01553
G1 X69.231 Y57.257 E0.26394
G1 X69.785 Y57.257 E0.01553
G1 X69.785 Y66.674 E0.26394
G1 X70.340 Y66.674 E0.01553
G1 X70.340 Y57.257 E0.26394
G1 X70.894 Y57.257 E0.01553
G1 X70.894 Y66.674 E0.26394
G1 X71.448 Y66.674 E0.01553
G1 X71.448 Y57.257 E0.26394
G1 X72.002 Y57.257 E0.01553
G1 X72.002 Y66.674 E0.26394
G1 X72.557 Y66.674 E0.01553
G1 X72.557 Y57.257 E0.26394
G1 X73.111 Y57.257 E0.01553
G1 X73.111 Y66.674 E0.26394
G1 X73.665 Y66.674 E0.01553
G1 X73.665 Y57.257 E0.26394
G1 X74.219 Y57.257 E0.01553
G1 X74.219 Y66.674 E0.26394
G1 X74.774 Y66.674 E0.01553
G1 X74.774 Y57.257 E0.26394
G1 X75.328 Y57.257 E0.01553
G1 X75.328 Y66.674 E0.26394
G1 X75.882 Y66.674 E0.01553
G1 X75.882 Y57.257 E0.26394
G1 X76.436 Y57.257 E0.01553
G1 X76.436 Y66.674 E0.26394
G1 X76.991 Y66.674 E0.01553
G1 X76.991 Y57.257 E0.26394
G1 X77.545 Y57.257 E0.01553
G1 X77.545 Y66.674 E0.26394
G1 X78.099 Y66.674 E0.01553
G1 X78.099 Y57.257 E0.26394
G1 X78.653 Y57.257 E0.01553
G1 X78.653 Y66.674 E0.26394
G1 X79.208 Y66.674 E0.01553
G1 X79.208 Y57.257 E0.26394
G1 X79.762 Y57.257 E0.01553
G1 X79.762 Y66.834 E0.26841
G1 E-4.55000 F3000.000
;WIPE_START
G1 F7200.000
G1 X79.762 Y62.154 E-1.85250
;WIPE_END
G1 E-0.09750 F3000.000
G1 X81.425 Y66.834 F9000.000
G1 E6.50000 F2400.000
G1 F1200.000
G1 X81.425 Y63.953 E0.08075
G1 X80.870 Y63.953 E0.01553
G1 X80.870 Y66.674 E0.07628
G1 X80.316 Y66.674 E0.01553
G1 X80.316 Y63.953 E0.07628
G1 X80.100 Y63.953 E0.00605
G1 X79.838 Y63.691 E0.01038
G1 X79.838 Y62.320 E0.03841
G1 X80.100 Y62.058 E0.01038
G1 X80.316 Y62.058 E0.00605
G1 X80.316 Y57.257 E0.13457
G1 X80.870 Y57.257 E0.01553
G1 X80.870 Y62.058 E0.13457
G1 X81.425 Y62.058 E0.01553
G1 X81.425 Y57.257 E0.13457
G1 X81.979 Y57.257 E0.01553
G1 X81.979 Y66.674 E0.26394
G1 X82.533 Y66.674 E0.01553
G1 X82.533 Y57.257 E0.26394
G1 X83.087 Y57.257 E0.01553
G1 X83.087 Y66.674 E0.26394
G1 X83.642 Y66.674 E0.01553
G1 X83.642 Y57.257 E0.26394
G1 X84.196 Y57.257 E0.01553
G1 X84.196 Y66.674 E0.26394
G1 X84.750 Y66.674 E0.01553
G1 X84.750 Y57.257 E0.26394
G1 X85.304 Y57.257 E0.01553
G1 X85.304 Y66.674 E0.26394
G1 X85.859 Y66.674 E0.01553
G1 X85.859 Y57.257 E0.26394
G1 X86.413 Y57.257 E0.01553
G1 X86.413 Y66.674 E0.26394
G1 X86.967 Y66.674 E0.01553
G1 X86.967 Y57.257 E0.26394
G1 X87.521 Y57.257 E0.01553
G1 X87.521 Y66.674 E0.26394
G1 X88.076 Y66.674 E0.01553
G1 X88.076 Y57.257 E0.26394
G1 X88.630 Y57.257 E0.01553
G1 X88.630 Y66.674 E0.26394
G1 X89.184 Y66.674 E0.01553
G1 X89.184 Y57.257 E0.26394
G1 X89.738 Y57.257 E0.01553
G1 X89.738 Y66.674 E0.26394
G1 X90.293 Y66.674 E0.01553
G1 X90.293 Y57.257 E0.26394
G1 X90.847 Y57.257 E0.01553
G1 X90.847 Y66.674 E0.26394
G1 X91.401 Y66.674 E0.01553
G1 X91.401 Y57.257 E0.26394
G1 X91.955 Y57.257 E0.01553
G1 X91.955 Y66.674 E0.26394
G1 X92.510 Y66.674 E0.01553
G1 X92.510 Y57.257 E0.26394
G1 X93.064 Y57.257 E0.01553
G1 X93.064 Y66.674 E0.26394
G1 X93.618 Y66.674 E0.01553
G1 X93.618 Y57.257 E0.26394
G1 X94.172 Y57.257 E0.01553
G1 X94.172 Y66.674 E0.26394
G1 X94.727 Y66.674 E0.01553
G1 X94.727 Y57.257 E0.26394
G1 X95.281 Y57.257 E0.01553
G1 X95.281 Y66.674 E0.26394
G1 X95.835 Y66.674 E0.01553
G1 X95.835 Y57.257 E0.26394
G1 X96.389 Y57.257 E0.01553
G1 X96.389 Y66.674 E0.26394
G1 X96.944 Y66.674 E0.01553
G1 X96.944 Y57.257 E0.26394
G1 X97.498 Y57.257 E0.01553
G1 X97.498 Y66.674 E0.26394
G1 X98.052 Y66.674 E0.01553
G1 X98.052 Y57.257 E0.26394
G1 X98.606 Y57.257 E0.01553
G1 X98.606 Y66.674 E0.26394
G1 X99.161 Y66.674 E0.01553
G1 X99.161 Y57.257 E0.26394
G1 X99.715 Y57.257 E0.01553
G1 X99.715 Y66.674 E0.26394
G1 X100.269 Y66.674 E0.01553
G1 X100.269 Y57.257 E0.26394
G1 X100.823 Y57.257 E0.01553
G1 X100.823 Y66.674 E0.26394
G1 X101.378 Y66.674 E0.01553
G1 X101.378 Y57.257 E0.26394
G1 X101.932 Y57.257 E0.01553
G1 X101.932 Y66.674 E0.26394
G1 X102.486 Y66.674 E0.01553
G1 X102.486 Y57.257 E0.26394
G1 X103.040 Y57.257 E0.01553
G1 X103.040 Y66.674 E0.26394
G1 X103.595 Y66.674 E0.01553
G1 X103.595 Y57.257 E0.26394
G1 X104.149 Y57.257 E0.01553
G1 X104.149 Y66.674 E0.26394
G1 X104.703 Y66.674 E0.01553
G1 X104.703 Y57.257 E0.26394
G1 X105.257 Y57.257 E0.01553
G1 X105.257 Y66.674 E0.26394
G1 X105.812 Y66.674 E0.01553
G1 X105.812 Y57.257 E0.26394
G1 X106.366 Y57.257 E0.01553
G1 X106.366 Y66.674 E0.26394
G1 X106.920 Y66.674 E0.01553
G1 X106.920 Y57.257 E0.26394
G1 X107.474 Y57.257 E0.01553
G1 X107.474 Y66.674 E0.26394
G1 X108.029 Y66.674 E0.01553
G1 X108.029 Y57.257 E0.26394
G1 X108.583 Y57.257 E0.01553
G1 X108.583 Y66.674 E0.26394
G1 X109.137 Y66.674 E0.01553
G1 X109.137 Y57.257 E0.26394
G1 X109.691 Y57.257 E0.01553
G1 X109.691 Y66.674 E0.26394
G1 X110.246 Y66.674 E0.01553
G1 X110.246 Y57.257 E0.26394
G1 X110.800 Y57.257 E0.01553
G1 X110.800 Y66.674 E0.26394
G1 X111.354 Y66.674 E0.01553
G1 X111.354 Y57.257 E0.26394
G1 X111.908 Y57.257 E0.01553
G1 X111.908 Y66.674 E0.26394
