; generated by PrusaSlicer 2.3.3+x64 on 2021-10-12 at 17:03:50 UTC

; 

; external perimeters extrusion width = 0.45mm
; perimeters extrusion width = 0.45mm
; infill extrusion width = 0.45mm
; solid infill extrusion width = 0.45mm
; top infill extrusion width = 0.40mm
; support material extrusion width = 0.38mm
; first layer extrusion width = 0.42mm

M201 X500 Y500 Z100 E5000 ; sets maximum accelerations, mm/sec^2
M203 X500 Y500 Z10 E60 ; sets maximum feedrates, mm/sec
M204 P500 R1000 T500 ; sets acceleration (P, T) and retract acceleration (R), mm/sec^2
M205 X8.00 Y8.00 Z0.40 E5.00 ; sets the jerk limits, mm/sec
M205 S0 T0 ; sets the minimum extruding and travel feed rate, mm/sec
M107
;TYPE:Custom
G90 ; use absolute coordinates
M83 ; extruder relative mode
M104 S200 ; set extruder temp
M140 S60 ; set bed temp
M190 S60 ; wait for bed temp
M109 S200 ; wait for extruder temp
G28 ; home all
G29 ; Level Bed
G1 Z2 F240
G1 X2 Y10 F3000
G1 Z0.28 F240
G92 E0
G1 Y190 E15 F1500 ; intro line
G1 X2.3 F5000
G92 E0
G1 Y10 E15 F1200 ; intro line
G92 E0
G21 ; set units to millimeters
G90 ; use absolute coordinates
M83 ; use relative distances for extrusion
; Filament gcode
;LAYER_CHANGE
;Z:0.2
;HEIGHT:0.2
;BEFORE_LAYER_CHANGE
G92 E0
;0.2


G1 E-6.50000 F3000.000
G1 Z0.200 F9000.000
;AFTER_LAYER_CHANGE
;0.2
G1 X61.565 Y24.371
G1 E6.50000 F2400.000
;TYPE:Skirt
;WIDTH:0.42
G1 F1200.000
G1 X62.083 Y23.616 E0.02872
G1 X62.851 Y23.111 E0.02884
G1 X63.751 Y22.935 E0.02875
G1 X172.362 Y23.105 E3.40540
G1 X173.124 Y23.236 E0.02426
G1 X173.801 Y23.602 E0.02414
G1 X174.188 Y23.979 E0.01692
G1 X174.478 Y24.429 E0.01680
G1 X174.660 Y24.937 E0.01692
G1 X174.724 Y25.469 E0.01680
G1 X174.724 Y106.980 E2.55570
G1 X174.593 Y107.742 E0.02426
G1 X174.226 Y108.419 E0.02414
G1 X173.850 Y108.806 E0.01692
G1 X173.396 Y109.097 E0.01692
G1 X172.887 Y109.279 E0.01692
G1 X172.351 Y109.342 E0.01692
G1 X63.732 Y109.172 E3.40567
G1 X62.970 Y109.041 E0.02426
G1 X62.293 Y108.675 E0.02414
G1 X61.911 Y108.304 E0.01668
G1 X61.620 Y107.854 E0.01680
G1 X61.436 Y107.351 E0.01680
G1 X61.371 Y106.823 E0.01668
G1 X61.371 Y25.270 E2.55702
G1 X61.552 Y24.430 E0.02696
G1 E-4.55000 F3000.000
;WIPE_START
G1 F7200.000
G1 X62.083 Y23.616 E-0.38467
G1 X62.851 Y23.111 E-0.36407
G1 X63.751 Y22.935 E-0.36297
G1 X65.623 Y22.938 E-0.74079
;WIPE_END
G1 E-0.09750 F3000.000
G1 X63.748 Y25.312 F9000.000
G1 E6.50000 F2400.000
;TYPE:Support material
G1 F1200.000
G1 X63.748 Y47.939 E0.70944
G1 X64.502 Y47.939 E0.02365
G1 X64.502 Y25.482 E0.70412
G1 X65.256 Y25.482 E0.02365
G1 X65.256 Y47.939 E0.70412
G1 X66.010 Y47.939 E0.02365
G1 X66.010 Y25.482 E0.70412
G1 X66.764 Y25.482 E0.02365
G1 X66.764 Y32.813 E0.22987
G1 X67.518 Y32.813 E0.02365
G1 X67.518 Y25.482 E0.22987
G1 X68.273 Y25.482 E0.02365
G1 X68.273 Y32.813 E0.22987
G1 X69.027 Y32.813 E0.02365
G1 X69.027 Y25.482 E0.22987
G1 X69.781 Y25.482 E0.02365
G1 X69.781 Y32.813 E0.22987
G1 X70.535 Y32.813 E0.02365
G1 X70.535 Y25.482 E0.22987
G1 X71.289 Y25.482 E0.02365
G1 X71.289 Y32.813 E0.22987
G1 X72.043 Y32.813 E0.02365
G1 X72.043 Y25.482 E0.22987
G1 X72.798 Y25.482 E0.02365
G1 X72.798 Y32.813 E0.22987
G1 X73.552 Y32.813 E0.02365
G1 X73.552 Y25.482 E0.22987
G1 X74.306 Y25.482 E0.02365
G1 X74.306 Y32.813 E0.22987
G1 X75.060 Y32.813 E0.02365
G1 X75.060 Y25.482 E0.22987
G1 X75.814 Y25.482 E0.02365
G1 X75.814 Y32.813 E0.22987
G1 X76.568 Y32.813 E0.02365
G1 X76.568 Y25.482 E0.22987
G1 X77.322 Y25.482 E0.02365
G1 X77.322 Y32.813 E0.22987
G1 X78.077 Y32.813 E0.02365
G1 X78.077 Y25.482 E0.22987
G1 X78.831 Y25.482 E0.02365
G1 X78.831 Y32.813 E0.22987
G1 X79.585 Y32.813 E0.02365
G1 X79.585 Y25.482 E0.22987
G1 X80.339 Y25.482 E0.02365
G1 X80.339 Y32.813 E0.22987
G1 X81.093 Y32.813 E0.02365
G1 X81.093 Y25.482 E0.22987
G1 X81.847 Y25.482 E0.02365
G1 X81.847 Y32.813 E0.22987
G1 X82.602 Y32.813 E0.02365
G1 X82.602 Y25.482 E0.22987
G1 X83.356 Y25.482 E0.02365
G1 X83.356 Y32.813 E0.22987
G1 X84.110 Y32.813 E0.02365
G1 X84.110 Y25.482 E0.22987
G1 X84.864 Y25.482 E0.02365
G1 X84.864 Y32.813 E0.22987
G1 X85.618 Y32.813 E0.02365
G1 X85.618 Y25.482 E0.22987
G1 X86.372 Y25.482 E0.02365
G1 X86.372 Y32.813 E0.22987
G1 X87.127 Y32.813 E0.02365
G1 X87.127 Y25.482 E0.22987
G1 X87.881 Y25.482 E0.02365
G1 X87.881 Y32.813 E0.22987
G1 X88.635 Y32.813 E0.02365
G1 X88.635 Y25.482 E0.22987
G1 X89.389 Y25.482 E0.02365
G1 X89.389 Y32.813 E0.22987
G1 X90.143 Y32.813 E0.02365
G1 X90.143 Y25.482 E0.22987
G1 X90.897 Y25.482 E0.02365
G1 X90.897 Y32.813 E0.22987
G1 X91.651 Y32.813 E0.02365
G1 X91.651 Y25.482 E0.22987
G1 X92.406 Y25.482 E0.02365
G1 X92.406 Y32.813 E0.22987
G1 X93.160 Y32.813 E0.02365
G1 X93.160 Y25.482 E0.22987
G1 X93.914 Y25.482 E0.02365
G1 X93.914 Y32.813 E0.22987
G1 X94.668 Y32.813 E0.02365
G1 X94.668 Y25.482 E0.22987
G1 X95.422 Y25.482 E0.02365
G1 X95.422 Y32.813 E0.22987
G1 X96.176 Y32.813 E0.02365
G1 X96.176 Y25.482 E0.22987
G1 X96.931 Y25.482 E0.02365
G1 X96.931 Y32.813 E0.22987
G1 X97.685 Y32.813 E0.02365
G1 X97.685 Y25.482 E0.22987
G1 X98.439 Y25.482 E0.02365
G1 X98.439 Y32.813 E0.22987
G1 X99.193 Y32.813 E0.02365
G1 X99.193 Y25.482 E0.22987
G1 X99.947 Y25.482 E0.02365
G1 X99.947 Y32.813 E0.22987
G1 X100.701 Y32.813 E0.02365
G1 X100.701 Y25.482 E0.22987
G1 X101.456 Y25.482 E0.02365
G1 X101.456 Y32.813 E0.22987
G1 X102.210 Y32.813 E0.02365
G1 X102.210 Y25.482 E0.22987
G1 X102.964 Y25.482 E0.02365
G1 X102.964 Y32.813 E0.22987
G1 X103.718 Y32.813 E0.02365
G1 X103.718 Y25.482 E0.22987
G1 X104.472 Y25.482 E0.02365
G1 X104.472 Y32.813 E0.22987
G1 X105.226 Y32.813 E0.02365
G1 X105.226 Y25.482 E0.22987
G1 X105.981 Y25.482 E0.02365
G1 X105.981 Y32.813 E0.22987
G1 X106.735 Y32.813 E0.02365
G1 X106.735 Y25.482 E0.22987
G1 X107.489 Y25.482 E0.02365
G1 X107.489 Y32.813 E0.22987
G1 X108.243 Y32.813 E0.02365
G1 X108.243 Y25.482 E0.22987
G1 X108.997 Y25.482 E0.02365
G1 X108.997 Y32.813 E0.22987
G1 X109.751 Y32.813 E0.02365
G1 X109.751 Y25.482 E0.22987
G1 X110.505 Y25.482 E0.02365
G1 X110.505 Y32.813 E0.22987
G1 X111.260 Y32.813 E0.02365
G1 X111.260 Y25.482 E0.22987
G1 X112.014 Y25.482 E0.02365
G1 X112.014 Y32.813 E0.22987
G1 X112.768 Y32.813 E0.02365
G1 X112.768 Y25.482 E0.22987
G1 X113.522 Y25.482 E0.02365
G1 X113.522 Y32.813 E0.22987
G1 X114.276 Y32.813 E0.02365
G1 X114.276 Y25.482 E0.22987
G1 X115.030 Y25.482 E0.02365
G1 X115.030 Y32.813 E0.22987
G1 X115.785 Y32.813 E0.02365
G1 X115.785 Y25.482 E0.22987
G1 X116.539 Y25.482 E0.02365
G1 X116.539 Y32.813 E0.22987
G1 X117.293 Y32.813 E0.02365
G1 X117.293 Y25.482 E0.22987
G1 X118.047 Y25.482 E0.02365
G1 X118.047 Y32.813 E0.22987
G1 X118.801 Y32.813 E0.02365
G1 X118.801 Y25.482 E0.22987
G1 X119.555 Y25.482 E0.02365
G1 X119.555 Y32.813 E0.22987
G1 X120.310 Y32.813 E0.02365
G1 X120.310 Y25.482 E0.22987
G1 X121.064 Y25.482 E0.02365
G1 X121.064 Y32.813 E0.22987
G1 X121.818 Y32.813 E0.02365
G1 X121.818 Y25.482 E0.22987
G1 X122.572 Y25.482 E0.02365
G1 X122.572 Y32.813 E0.22987
G1 X123.326 Y32.813 E0.02365
G1 X123.326 Y25.482 E0.22987
G1 X124.080 Y25.482 E0.02365
G1 X124.080 Y32.813 E0.22987
G1 X124.834 Y32.813 E0.02365
G1 X124.834 Y25.482 E0.22987
G1 X125.589 Y25.482 E0.02365
G1 X125.589 Y32.813 E0.22987
G1 X126.343 Y32.813 E0.02365
G1 X126.343 Y25.482 E0.22987
G1 X127.097 Y25.482 E0.02365
G1 X127.097 Y32.813 E0.22987
G1 X127.851 Y32.813 E0.02365
G1 X127.851 Y25.482 E0.22987
G1 X128.605 Y25.482 E0.02365
G1 X128.605 Y32.813 E0.22987
G1 X129.359 Y32.813 E0.02365
G1 X129.359 Y25.482 E0.22987
G1 X130.114 Y25.482 E0.02365
G1 X130.114 Y32.813 E0.22987
G1 X130.868 Y32.813 E0.02365
G1 X130.868 Y25.482 E0.22987
G1 X131.622 Y25.482 E0.02365
G1 X131.622 Y32.813 E0.22987
G1 X132.376 Y32.813 E0.02365
G1 X132.376 Y25.482 E0.22987
G1 X133.130 Y25.482 E0.02365
G1 X133.130 Y32.813 E0.22987
G1 X133.884 Y32.813 E0.02365
G1 X133.884 Y25.482 E0.22987
G1 X134.639 Y25.482 E0.02365
G1 X134.639 Y32.813 E0.22987
G1 X135.393 Y32.813 E0.02365
G1 X135.393 Y25.482 E0.22987
G1 X136.147 Y25.482 E0.02365
G1 X136.147 Y32.813 E0.22987
G1 X136.901 Y32.813 E0.02365
G1 X136.901 Y25.482 E0.22987
G1 X137.655 Y25.482 E0.02365
G1 X137.655 Y32.813 E0.22987
G1 X138.409 Y32.813 E0.02365
G1 X138.409 Y25.482 E0.22987
G1 X139.164 Y25.482 E0.02365
G1 X139.164 Y32.813 E0.22987
G1 X139.918 Y32.813 E0.02365
G1 X139.918 Y25.482 E0.22987
G1 X140.672 Y25.482 E0.02365
G1 X140.672 Y32.813 E0.22987
G1 X141.426 Y32.813 E0.02365
G1 X141.426 Y25.482 E0.22987
G1 X142.180 Y25.482 E0.02365
G1 X142.180 Y32.813 E0.22987
G1 X142.934 Y32.813 E0.02365
G1 X142.934 Y25.482 E0.22987
G1 X143.688 Y25.482 E0.02365
G1 X143.688 Y32.813 E0.22987
G1 X144.443 Y32.813 E0.02365
G1 X144.443 Y25.482 E0.22987
G1 X145.197 Y25.482 E0.02365
G1 X145.197 Y32.813 E0.22987
G1 X145.951 Y32.813 E0.02365
G1 X145.951 Y25.482 E0.22987
G1 X146.705 Y25.482 E0.02365
G1 X146.705 Y32.813 E0.22987
G1 X147.459 Y32.813 E0.02365
G1 X147.459 Y25.482 E0.22987
G1 X148.213 Y25.482 E0.02365
G1 X148.213 Y32.813 E0.22987
G1 X148.968 Y32.813 E0.02365
G1 X148.968 Y25.482 E0.22987
G1 X149.722 Y25.482 E0.02365
G1 X149.722 Y32.813 E0.22987
G1 X150.476 Y32.813 E0.02365
G1 X150.476 Y25.482 E0.22987
G1 X151.230 Y25.482 E0.02365
G1 X151.230 Y32.813 E0.22987
G1 X151.984 Y32.813 E0.02365
G1 X151.984 Y25.482 E0.22987
G1 X152.738 Y25.482 E0.02365
G1 X152.738 Y32.813 E0.22987
G1 X153.493 Y32.813 E0.02365
G1 X153.493 Y25.482 E0.22987
G1 X154.247 Y25.482 E0.02365
G1 X154.247 Y32.813 E0.22987
G1 X155.001 Y32.813 E0.02365
G1 X155.001 Y25.482 E0.22987
G1 X155.755 Y25.482 E0.02365
G1 X155.755 Y32.813 E0.22987
G1 X156.509 Y32.813 E0.02365
G1 X156.509 Y25.482 E0.22987
G1 X157.263 Y25.482 E0.02365
G1 X157.263 Y32.813 E0.22987
G1 X158.017 Y32.813 E0.02365
G1 X158.017 Y25.482 E0.22987
G1 X158.772 Y25.482 E0.02365
G1 X158.772 Y32.813 E0.22987
G1 X159.526 Y32.813 E0.02365
G1 X159.526 Y25.482 E0.22987
G1 X160.280 Y25.482 E0.02365
G1 X160.280 Y32.813 E0.22987
G1 X161.034 Y32.813 E0.02365
G1 X161.034 Y25.482 E0.22987
G1 X161.788 Y25.482 E0.02365
G1 X161.788 Y32.813 E0.22987
G1 X162.542 Y32.813 E0.02365
G1 X162.542 Y25.482 E0.22987
G1 X163.297 Y25.482 E0.02365
G1 X163.297 Y32.813 E0.22987
G1 X164.051 Y32.813 E0.02365
G1 X164.051 Y25.482 E0.22987
G1 X164.805 Y25.482 E0.02365
G1 X164.805 Y32.813 E0.22987
G1 X165.559 Y32.813 E0.02365
G1 X165.559 Y25.482 E0.22987
G1 X166.313 Y25.482 E0.02365
G1 X166.313 Y32.813 E0.22987
G1 X167.067 Y32.813 E0.02365
G1 X167.067 Y25.482 E0.22987
G1 X167.822 Y25.482 E0.02365
G1 X167.822 Y32.813 E0.22987
G1 X168.576 Y32.813 E0.02365
G1 X168.576 Y25.482 E0.22987
G1 X169.330 Y25.482 E0.02365
G1 X169.330 Y32.983 E0.23519
G1 X169.592 Y33.019 F9000.000
;TYPE:Support material interface
;WIDTH:0.38
G1 F1200.000
G1 X169.592 Y35.533 E0.07045
G1 X169.038 Y35.533 E0.01553
G1 X169.038 Y33.179 E0.06599
G1 X168.484 Y33.179 E0.01553
G1 X168.484 Y35.533 E0.06599
G1 X168.126 Y35.533 E0.01002
G1 X167.929 Y35.338 E0.00777
G1 X167.929 Y33.179 E0.06052
G1 X167.375 Y33.179 E0.01553
G1 X167.375 Y35.287 E0.05910
G1 X166.821 Y35.292 E0.01554
G1 X166.821 Y33.179 E0.05922
G1 X166.267 Y33.179 E0.01553
G1 X166.267 Y35.296 E0.05934
G1 X165.712 Y35.300 E0.01554
G1 X165.712 Y33.179 E0.05946
G1 X165.158 Y33.179 E0.01553
G1 X165.158 Y35.305 E0.05959
G1 X164.604 Y35.309 E0.01554
G1 X164.604 Y33.179 E0.05971
G1 X164.050 Y33.179 E0.01553
G1 X164.050 Y35.314 E0.05983
G1 X163.495 Y35.318 E0.01554
G1 X163.495 Y33.179 E0.05995
G1 X162.941 Y33.179 E0.01553
G1 X162.941 Y35.322 E0.06008
G1 X162.387 Y35.327 E0.01554
G1 X162.387 Y33.179 E0.06020
G1 X161.833 Y33.179 E0.01553
G1 X161.833 Y35.331 E0.06032
G1 X161.278 Y35.335 E0.01554
G1 X161.278 Y33.179 E0.06044
G1 X160.724 Y33.179 E0.01553
G1 X160.724 Y35.340 E0.06057
G1 X160.170 Y35.344 E0.01554
G1 X160.170 Y33.179 E0.06069
G1 X159.616 Y33.179 E0.01553
G1 X159.616 Y35.348 E0.06081
G1 X159.061 Y35.353 E0.01554
G1 X159.061 Y33.179 E0.06093
G1 X158.507 Y33.179 E0.01553
G1 X158.507 Y35.357 E0.06106
G1 X157.953 Y35.362 E0.01554
G1 X157.953 Y33.179 E0.06118
G1 X157.399 Y33.179 E0.01553
G1 X157.399 Y35.366 E0.06130
G1 X156.844 Y35.370 E0.01554
G1 X156.844 Y33.179 E0.06142
G1 X156.290 Y33.179 E0.01553
G1 X156.290 Y35.375 E0.06154
G1 X155.736 Y35.379 E0.01554
G1 X155.736 Y33.179 E0.06167
G1 X155.182 Y33.179 E0.01553
G1 X155.182 Y35.383 E0.06179
G1 X154.627 Y35.388 E0.01554
G1 X154.627 Y33.179 E0.06191
G1 X154.073 Y33.179 E0.01553
G1 X154.073 Y35.392 E0.06203
G1 X153.519 Y35.397 E0.01554
G1 X153.519 Y33.179 E0.06216
G1 X152.965 Y33.179 E0.01553
G1 X152.965 Y35.401 E0.06228
G1 X152.410 Y35.405 E0.01554
G1 X152.410 Y33.179 E0.06240
G1 X151.856 Y33.179 E0.01553
G1 X151.856 Y35.410 E0.06252
G1 X151.302 Y35.414 E0.01554
G1 X151.302 Y33.179 E0.06265
G1 X150.748 Y33.179 E0.01553
G1 X150.748 Y35.418 E0.06277
G1 X150.193 Y35.423 E0.01554
G1 X150.193 Y33.179 E0.06289
G1 X149.639 Y33.179 E0.01553
G1 X149.639 Y35.427 E0.06301
G1 X149.085 Y35.431 E0.01554
G1 X149.085 Y33.179 E0.06314
G1 X148.531 Y33.179 E0.01553
G1 X148.531 Y35.436 E0.06326
G1 X147.976 Y35.440 E0.01554
G1 X147.976 Y33.179 E0.06338
G1 X147.422 Y33.179 E0.01553
G1 X147.422 Y35.445 E0.06350
G1 X146.868 Y35.449 E0.01554
G1 X146.868 Y33.179 E0.06363
G1 X146.314 Y33.179 E0.01553
G1 X146.314 Y35.453 E0.06375
G1 X145.759 Y35.458 E0.01554
G1 X145.759 Y33.179 E0.06387
G1 X145.205 Y33.179 E0.01553
G1 X145.205 Y35.462 E0.06399
G1 X144.651 Y35.466 E0.01554
G1 X144.651 Y33.179 E0.06411
G1 X144.097 Y33.179 E0.01553
G1 X144.097 Y35.471 E0.06424
G1 X143.542 Y35.475 E0.01554
G1 X143.542 Y33.179 E0.06436
G1 X142.988 Y33.179 E0.01553
G1 X142.988 Y35.479 E0.06448
G1 X142.434 Y35.484 E0.01554
G1 X142.434 Y33.179 E0.06460
G1 X141.880 Y33.179 E0.01553
G1 X141.880 Y35.488 E0.06473
G1 X141.325 Y35.493 E0.01554
G1 X141.325 Y33.179 E0.06485
G1 X140.771 Y33.179 E0.01553
G1 X140.771 Y35.497 E0.06497
G1 X140.217 Y35.501 E0.01554
G1 X140.217 Y33.179 E0.06509
G1 X139.663 Y33.179 E0.01553
G1 X139.663 Y35.506 E0.06522
G1 X139.108 Y35.510 E0.01554
G1 X139.108 Y33.179 E0.06534
G1 X138.554 Y33.179 E0.01553
G1 X138.554 Y35.514 E0.06546
G1 X138.000 Y35.519 E0.01554
G1 X138.000 Y33.179 E0.06558
G1 X137.446 Y33.179 E0.01553
G1 X137.446 Y35.523 E0.06571
G1 X136.891 Y35.527 E0.01554
G1 X136.891 Y33.179 E0.06583
G1 X136.337 Y33.179 E0.01553
G1 X136.337 Y35.532 E0.06595
G1 X135.783 Y35.536 E0.01554
G1 X135.783 Y33.179 E0.06607
G1 X135.229 Y33.179 E0.01553
G1 X135.229 Y35.541 E0.06619
G1 X134.674 Y35.545 E0.01554
G1 X134.674 Y33.179 E0.06632
G1 X134.120 Y33.179 E0.01553
G1 X134.120 Y35.549 E0.06644
G1 X133.566 Y35.554 E0.01554
G1 X133.566 Y33.179 E0.06656
G1 X133.012 Y33.179 E0.01553
G1 X133.012 Y35.558 E0.06668
G1 X132.457 Y35.562 E0.01554
G1 X132.457 Y33.179 E0.06681
G1 X131.903 Y33.179 E0.01553
G1 X131.903 Y35.567 E0.06693
G1 X131.349 Y35.571 E0.01554
G1 X131.349 Y33.179 E0.06705
G1 X130.795 Y33.179 E0.01553
G1 X130.795 Y35.576 E0.06717
G1 X130.240 Y35.580 E0.01554
G1 X130.240 Y33.179 E0.06730
G1 X129.686 Y33.179 E0.01553
G1 X129.686 Y35.584 E0.06742
G1 X129.132 Y35.589 E0.01554
G1 X129.132 Y33.179 E0.06754
G1 X128.578 Y33.179 E0.01553
G1 X128.578 Y35.593 E0.06766
G1 X128.024 Y35.597 E0.01554
G1 X128.024 Y33.179 E0.06779
G1 X127.469 Y33.179 E0.01553
G1 X127.469 Y35.602 E0.06791
G1 X126.915 Y35.606 E0.01554
G1 X126.915 Y33.179 E0.06803
G1 X126.361 Y33.179 E0.01553
G1 X126.361 Y35.610 E0.06815
G1 X125.807 Y35.615 E0.01554
G1 X125.807 Y33.179 E0.06827
G1 X125.252 Y33.179 E0.01553
G1 X125.252 Y35.619 E0.06840
G1 X124.698 Y35.624 E0.01554
G1 X124.698 Y33.179 E0.06852
G1 X124.144 Y33.179 E0.01553
G1 X124.144 Y35.628 E0.06864
G1 X123.590 Y35.632 E0.01554
G1 X123.590 Y33.179 E0.06876
G1 X123.035 Y33.179 E0.01553
G1 X123.035 Y35.637 E0.06889
G1 X122.481 Y35.641 E0.01554
G1 X122.481 Y33.179 E0.06901
G1 X121.927 Y33.179 E0.01553
G1 X121.927 Y35.645 E0.06913
G1 X121.373 Y35.650 E0.01554
G1 X121.373 Y33.179 E0.06925
G1 X120.818 Y33.179 E0.01553
G1 X120.818 Y35.654 E0.06938
G1 X120.264 Y35.658 E0.01554
G1 X120.264 Y33.179 E0.06950
G1 X119.710 Y33.179 E0.01553
G1 X119.710 Y35.663 E0.06962
G1 X119.156 Y35.667 E0.01554
G1 X119.156 Y33.179 E0.06974
G1 X118.601 Y33.179 E0.01553
G1 X118.601 Y35.672 E0.06987
G1 X118.047 Y35.676 E0.01554
