; generated by PrusaSlicer 2.3.3+x64 on 2021-09-26 at 12:17:28 UTC

; 

; external perimeters extrusion width = 0.45mm
; perimeters extrusion width = 0.45mm
; infill extrusion width = 0.45mm
; solid infill extrusion width = 0.45mm
; top infill extrusion width = 0.40mm
; support material extrusion width = 0.38mm
; first layer extrusion width = 0.42mm

M201 X500 Y500 Z100 E5000 ; sets maximum accelerations, mm/sec^2
M203 X500 Y500 Z10 E60 ; sets maximum feedrates, mm/sec
M204 P500 R1000 T500 ; sets acceleration (P, T) and retract acceleration (R), mm/sec^2
M205 X8.00 Y8.00 Z0.40 E5.00 ; sets the jerk limits, mm/sec
M205 S0 T0 ; sets the minimum extruding and travel feed rate, mm/sec
M107
;TYPE:Custom
G90 ; use absolute coordinates
M83 ; extruder relative mode
M104 S200 ; set extruder temp
M140 S60 ; set bed temp
M190 S60 ; wait for bed temp
M109 S200 ; wait for extruder temp
G28 ; home all
G29 ; Level Bed
G1 Z2 F240
G1 X2 Y10 F3000
G1 Z0.28 F240
G92 E0
G1 Y190 E15 F1500 ; intro line
G1 X2.3 F5000
G92 E0
G1 Y10 E15 F1200 ; intro line
G92 E0
G21 ; set units to millimeters
G90 ; use absolute coordinates
M83 ; use relative distances for extrusion
; Filament gcode
;LAYER_CHANGE
;Z:0.2
;HEIGHT:0.2
;BEFORE_LAYER_CHANGE
G92 E0
;0.2


G1 E-6.50000 F3000.000
G1 Z0.200 F9000.000
;AFTER_LAYER_CHANGE
;0.2
G1 X47.094 Y80.625
G1 E6.50000 F2400.000
;TYPE:Skirt
;WIDTH:0.42
G1 F1200.000
G1 X47.557 Y80.164 E0.02048
G1 X49.323 Y78.941 E0.06735
G1 X50.136 Y78.628 E0.02731
G1 X52.460 Y78.357 E0.07338
G1 X177.473 Y78.357 E3.91969
G1 X178.189 Y78.469 E0.02272
G1 X180.152 Y79.210 E0.06579
G1 X180.604 Y79.453 E0.01609
G1 X180.991 Y79.784 E0.01597
G1 X182.352 Y81.321 E0.06435
G1 X182.657 Y81.793 E0.01763
G1 X182.829 Y82.261 E0.01562
G1 X183.363 Y84.617 E0.07574
G1 X183.363 Y154.796 E2.20044
G1 X182.832 Y157.155 E0.07580
G1 X182.614 Y157.706 E0.01858
G1 X181.016 Y159.599 E0.07766
G1 X180.504 Y160.022 E0.02083
G1 X178.237 Y160.925 E0.07652
G1 X177.489 Y161.053 E0.02378
G1 X52.443 Y161.053 E3.92075
G1 X50.207 Y160.794 E0.07057
G1 X49.599 Y160.615 E0.01989
G1 X47.547 Y159.244 E0.07735
G1 X46.969 Y158.603 E0.02708
G1 X45.919 Y156.599 E0.07096
G1 X45.727 Y155.703 E0.02872
G1 X45.727 Y83.679 E2.25825
G1 X45.934 Y82.775 E0.02907
G1 X47.066 Y80.678 E0.07472
G1 E-4.55000 F3000.000
;WIPE_START
G1 F7200.000
G1 X47.557 Y80.164 E-0.28134
G1 X49.323 Y78.941 E-0.85028
G1 X50.136 Y78.628 E-0.34482
G1 X51.079 Y78.518 E-0.37606
;WIPE_END
G1 E-0.09750 F3000.000
G1 X76.837 Y103.857 F9000.000
G1 E6.50000 F2400.000
;TYPE:Support material
G1 F1200.000
G1 X76.837 Y115.674 E0.37049
G1 X77.592 Y115.674 E0.02365
G1 X77.596 Y103.833 E0.37126
G1 X77.803 Y104.126 E0.01124
G1 X78.346 Y104.983 E0.03182
G1 X78.346 Y115.674 E0.33518
G1 X78.846 Y115.674 E0.01570
G1 X78.846 Y118.011 E0.07328
G1 X79.100 Y118.011 E0.00795
G1 X79.100 Y106.279 E0.36785
G1 X79.854 Y107.756 E0.05200
G1 X79.854 Y118.011 E0.32154
G1 X80.608 Y118.011 E0.02365
G1 X80.608 Y108.163 E0.30875
G1 X81.362 Y108.163 E0.02365
G1 X81.362 Y118.011 E0.30875
G1 X82.117 Y118.011 E0.02365
G1 X82.117 Y114.965 E0.09550
G1 X81.990 Y114.234 E0.02325
G1 X81.733 Y113.090 E0.03676
G1 X82.008 Y112.746 E0.01382
G1 X82.117 Y112.746 E0.00340
G1 X82.117 Y108.163 E0.14369
G1 X82.871 Y108.163 E0.02365
G1 X82.871 Y112.746 E0.14369
G1 X83.625 Y112.746 E0.02365
G1 X83.625 Y108.163 E0.14369
G1 X84.379 Y108.163 E0.02365
G1 X84.379 Y112.746 E0.14369
G1 X85.133 Y112.746 E0.02365
G1 X85.133 Y108.163 E0.14369
G1 X85.887 Y108.163 E0.02365
G1 X85.887 Y112.746 E0.14369
G1 X86.642 Y112.746 E0.02365
G1 X86.642 Y108.163 E0.14369
G1 X87.396 Y108.163 E0.02365
G1 X87.396 Y112.746 E0.14369
G1 X88.150 Y112.746 E0.02365
G1 X88.150 Y108.163 E0.14369
G1 X88.904 Y108.163 E0.02365
G1 X88.904 Y112.916 E0.14901
G1 E-4.55000 F3000.000
;WIPE_START
G1 F7200.000
G1 X88.904 Y108.236 E-1.85250
;WIPE_END
G1 E-0.09750 F3000.000
G1 X86.642 Y132.916 F9000.000
G1 E6.50000 F2400.000
G1 F1200.000
G1 X86.642 Y128.163 E0.14901
G1 X85.887 Y128.163 E0.02365
G1 X85.887 Y132.746 E0.14369
G1 X85.133 Y132.746 E0.02365
G1 X85.133 Y128.163 E0.14369
G1 X84.379 Y128.163 E0.02365
G1 X84.379 Y132.746 E0.14369
G1 X83.625 Y132.746 E0.02365
G1 X83.625 Y128.163 E0.14369
G1 X82.871 Y128.163 E0.02365
G1 X82.871 Y132.746 E0.14369
G1 X82.117 Y132.746 E0.02365
G1 X82.117 Y127.994 E0.14901
G1 E-4.55000 F3000.000
;WIPE_START
G1 F7200.000
G1 X82.117 Y132.674 E-1.85250
;WIPE_END
G1 E-0.09750 F3000.000
G1 X82.117 Y125.386 F9000.000
G1 E6.50000 F2400.000
G1 F1200.000
G1 X82.117 Y123.736 E0.05172
G1 X81.362 Y123.736 E0.02365
G1 X81.362 Y132.746 E0.28251
G1 X80.608 Y132.746 E0.02365
G1 X80.608 Y123.736 E0.28251
G1 X79.854 Y123.736 E0.02365
G1 X79.854 Y132.746 E0.28251
G1 X79.461 Y132.746 E0.01232
G1 X79.247 Y132.871 E0.00777
G1 X79.100 Y133.131 E0.00937
G1 X79.100 Y123.736 E0.29457
G1 X78.346 Y123.736 E0.02365
G1 X78.346 Y134.426 E0.33518
G1 X77.803 Y135.284 E0.03182
G1 X77.592 Y135.576 E0.01129
G1 X77.592 Y123.736 E0.37122
G1 X76.837 Y123.736 E0.02365
G1 X76.837 Y135.552 E0.37049
G1 E-4.55000 F3000.000
;WIPE_START
G1 F7200.000
G1 X76.837 Y130.872 E-1.85250
;WIPE_END
G1 E-0.09750 F3000.000
G1 X105.174 Y133.892 F9000.000
G1 E6.50000 F2400.000
;TYPE:Perimeter
G1 F1200.000
G1 X105.174 Y127.018 E0.21553
G1 X82.739 Y127.018 E0.70345
G1 X83.114 Y125.399 E0.05210
G1 X83.359 Y123.988 E0.04492
G1 X83.534 Y122.566 E0.04492
G1 X83.639 Y121.137 E0.04492
G1 X83.675 Y119.705 E0.04492
G1 X83.639 Y118.273 E0.04492
G1 X83.534 Y116.844 E0.04492
G1 X83.359 Y115.422 E0.04492
G1 X83.087 Y113.892 E0.04873
G1 X105.174 Y113.892 E0.69253
G1 X105.174 Y107.018 E0.21553
G1 X80.762 Y107.018 E0.76544
G1 X80.229 Y105.947 E0.03749
G1 X79.522 Y104.700 E0.04496
G1 X78.756 Y103.489 E0.04492
G1 X77.931 Y102.318 E0.04492
G1 X77.049 Y101.189 E0.04492
G1 X76.114 Y100.104 E0.04492
G1 X75.126 Y99.066 E0.04492
G1 X74.088 Y98.079 E0.04492
G1 X73.003 Y97.143 E0.04492
G1 X71.874 Y96.262 E0.04492
G1 X70.703 Y95.437 E0.04492
G1 X69.493 Y94.670 E0.04492
G1 X68.246 Y93.964 E0.04492
G1 X66.966 Y93.320 E0.04492
G1 X65.657 Y92.739 E0.04492
G1 X64.320 Y92.224 E0.04492
G1 X62.951 Y91.772 E0.04520
G1 X61.579 Y91.392 E0.04463
G1 X60.181 Y91.078 E0.04492
G1 X58.770 Y90.834 E0.04492
G1 X57.348 Y90.658 E0.04492
G1 X55.919 Y90.553 E0.04492
G1 X54.487 Y90.518 E0.04492
G1 X53.055 Y90.553 E0.04492
G1 X51.626 Y90.658 E0.04492
G1 X50.205 Y90.834 E0.04492
G1 X48.791 Y91.079 E0.04500
G1 X48.791 Y83.917 E0.22456
G1 X49.523 Y82.522 E0.04941
G1 X50.820 Y81.627 E0.04941
G1 X52.511 Y81.421 E0.05341
G1 X177.343 Y81.421 E3.91404
G1 X178.858 Y81.995 E0.05077
G1 X179.903 Y83.175 E0.04941
G1 X180.300 Y84.788 E0.05210
G1 X180.300 Y154.622 E2.18957
G1 X179.903 Y156.235 E0.05210
G1 X178.858 Y157.414 E0.04941
G1 X177.343 Y157.989 E0.05077
G1 X52.511 Y157.989 E3.91404
G1 X50.820 Y157.783 E0.05341
G1 X49.523 Y156.888 E0.04941
G1 X48.791 Y155.493 E0.04941
G1 X48.791 Y148.331 E0.22456
G1 X50.205 Y148.576 E0.04500
G1 X51.626 Y148.752 E0.04492
G1 X53.055 Y148.857 E0.04492
G1 X54.487 Y148.892 E0.04492
G1 X55.919 Y148.857 E0.04492
G1 X57.348 Y148.752 E0.04492
G1 X58.770 Y148.576 E0.04492
G1 X60.181 Y148.331 E0.04492
G1 X61.579 Y148.018 E0.04492
G1 X62.960 Y147.635 E0.04492
G1 X64.320 Y147.186 E0.04492
G1 X65.657 Y146.671 E0.04492
G1 X66.967 Y146.090 E0.04492
G1 X68.254 Y145.441 E0.04520
G1 X69.493 Y144.740 E0.04463
G1 X70.703 Y143.973 E0.04492
G1 X71.874 Y143.148 E0.04492
G1 X73.003 Y142.267 E0.04492
G1 X74.088 Y141.331 E0.04492
G1 X75.126 Y140.343 E0.04492
G1 X76.114 Y139.306 E0.04492
G1 X77.049 Y138.221 E0.04492
G1 X77.931 Y137.092 E0.04492
G1 X78.756 Y135.921 E0.04492
G1 X79.522 Y134.710 E0.04492
G1 X79.986 Y133.892 E0.02948
G1 X105.114 Y133.892 E0.78790
G1 X104.797 Y133.515 F9000.000
;TYPE:External perimeter
G1 F1200.000
G1 X104.797 Y127.395 E0.19189
G1 X82.243 Y127.395 E0.70717
G1 X82.434 Y126.705 E0.02244
G1 X82.744 Y125.326 E0.04434
G1 X82.986 Y123.932 E0.04434
G1 X83.159 Y122.529 E0.04434
G1 X83.263 Y121.119 E0.04434
G1 X83.297 Y119.705 E0.04434
G1 X83.263 Y118.291 E0.04434
G1 X83.159 Y116.881 E0.04434
G1 X82.986 Y115.478 E0.04434
G1 X82.744 Y114.084 E0.04434
G1 X82.616 Y113.515 E0.01830
G1 X104.797 Y113.515 E0.69548
G1 X104.797 Y107.395 E0.19189
G1 X80.528 Y107.395 E0.76094
G1 X79.896 Y106.124 E0.04450
G1 X79.199 Y104.894 E0.04435
G1 X78.442 Y103.699 E0.04434
G1 X77.628 Y102.543 E0.04434
G1 X76.758 Y101.428 E0.04434
G1 X75.834 Y100.357 E0.04434
G1 X74.859 Y99.333 E0.04434
G1 X73.835 Y98.358 E0.04434
G1 X72.764 Y97.434 E0.04434
G1 X71.649 Y96.564 E0.04434
G1 X70.493 Y95.750 E0.04434
G1 X69.299 Y94.994 E0.04434
G1 X68.068 Y94.297 E0.04434
G1 X66.805 Y93.661 E0.04434
G1 X65.512 Y93.088 E0.04434
G1 X64.193 Y92.579 E0.04434
G1 X62.842 Y92.133 E0.04462
G1 X61.488 Y91.758 E0.04405
G1 X60.108 Y91.448 E0.04434
G1 X58.715 Y91.207 E0.04434
G1 X57.311 Y91.034 E0.04434
G1 X55.901 Y90.930 E0.04434
G1 X54.487 Y90.895 E0.04434
G1 X53.074 Y90.930 E0.04434
G1 X51.663 Y91.034 E0.04434
G1 X50.260 Y91.207 E0.04434
G1 X48.867 Y91.448 E0.04434
G1 X48.413 Y91.550 E0.01456
G1 X48.413 Y83.824 E0.24225
G1 X49.232 Y82.264 E0.05524
G1 X50.682 Y81.263 E0.05524
G1 X52.488 Y81.044 E0.05704
G1 X177.413 Y81.044 E3.91692
G1 X179.078 Y81.676 E0.05585
G1 X180.246 Y82.994 E0.05523
G1 X180.677 Y84.743 E0.05645
G1 X180.677 Y154.667 E2.19244
G1 X180.246 Y156.415 E0.05645
G1 X179.078 Y157.734 E0.05523
G1 X177.413 Y158.366 E0.05585
G1 X52.488 Y158.366 E3.91692
G1 X50.682 Y158.147 E0.05704
G1 X49.232 Y157.146 E0.05524
G1 X48.413 Y155.586 E0.05524
G1 X48.413 Y147.860 E0.24225
G1 X48.867 Y147.961 E0.01456
G1 X50.260 Y148.203 E0.04434
G1 X51.663 Y148.376 E0.04434
G1 X53.074 Y148.480 E0.04434
G1 X54.487 Y148.515 E0.04434
G1 X55.901 Y148.480 E0.04434
G1 X57.311 Y148.376 E0.04434
G1 X58.715 Y148.203 E0.04434
G1 X60.108 Y147.961 E0.04434
G1 X61.488 Y147.652 E0.04434
G1 X62.850 Y147.275 E0.04434
G1 X64.193 Y146.831 E0.04434
G1 X65.512 Y146.322 E0.04434
G1 X66.805 Y145.749 E0.04434
G1 X68.076 Y145.109 E0.04462
G1 X69.299 Y144.416 E0.04405
G1 X70.493 Y143.660 E0.04434
G1 X71.649 Y142.845 E0.04434
G1 X72.764 Y141.975 E0.04434
G1 X73.835 Y141.052 E0.04434
G1 X74.859 Y140.077 E0.04434
G1 X75.834 Y139.053 E0.04434
G1 X76.758 Y137.982 E0.04434
G1 X77.628 Y136.867 E0.04434
G1 X78.442 Y135.711 E0.04434
G1 X79.199 Y134.516 E0.04434
G1 X79.766 Y133.515 E0.03608
G1 X104.737 Y133.515 E0.78296
G1 X105.197 Y133.510 F9000.000
G1 E-4.55000 F3000.000
;WIPE_START
G1 F7200.000
G1 X104.783 Y128.835 E-1.85250
;WIPE_END
G1 E-0.09750 F3000.000
G1 X105.457 Y114.175 F9000.000
G1 E6.50000 F2400.000
;TYPE:Solid infill
;WIDTH:0.42028
G1 F1200.000
G1 X105.457 Y106.735 E0.23344
G1 X80.937 Y106.735 E0.76939
G1 X80.479 Y105.815 E0.03227
G1 X79.765 Y104.554 E0.04545
G1 X78.991 Y103.332 E0.04539
G1 X78.158 Y102.150 E0.04539
G1 X77.268 Y101.009 E0.04539
G1 X76.323 Y99.914 E0.04539
G1 X75.326 Y98.866 E0.04539
G1 X74.278 Y97.869 E0.04539
G1 X73.183 Y96.924 E0.04539
G1 X72.043 Y96.034 E0.04539
G1 X70.860 Y95.201 E0.04539
G1 X69.638 Y94.428 E0.04539
G1 X68.379 Y93.715 E0.04539
G1 X67.087 Y93.064 E0.04539
G1 X65.765 Y92.478 E0.04539
G1 X64.415 Y91.957 E0.04539
G1 X63.033 Y91.501 E0.04567
G1 X61.648 Y91.118 E0.04510
G1 X60.237 Y90.801 E0.04539
G1 X58.811 Y90.554 E0.04539
G1 X57.376 Y90.377 E0.04539
G1 X55.933 Y90.270 E0.04539
G1 X54.487 Y90.235 E0.04539
G1 X53.041 Y90.270 E0.04539
G1 X51.599 Y90.377 E0.04539
G1 X50.163 Y90.554 E0.04539
G1 X49.073 Y90.743 E0.03470
G1 X49.073 Y83.987 E0.21199
G1 X49.741 Y82.715 E0.04507
G1 X50.923 Y81.899 E0.04507
G1 X52.528 Y81.704 E0.05073
G1 X177.292 Y81.704 E3.91478
G1 X178.692 Y82.235 E0.04700
G1 X179.645 Y83.310 E0.04507
G1 X180.017 Y84.823 E0.04888
G1 X180.017 Y154.587 E2.18904
G1 X179.645 Y156.100 E0.04888
G1 X178.692 Y157.175 E0.04507
G1 X177.292 Y157.706 E0.04700
G1 X52.528 Y157.706 E3.91478
G1 X50.923 Y157.511 E0.05073
G1 X49.741 Y156.695 E0.04507
G1 X49.073 Y155.423 E0.04507
G1 X49.073 Y148.667 E0.21199
G1 X50.163 Y148.856 E0.03470
G1 X51.599 Y149.033 E0.04539
G1 X53.041 Y149.140 E0.04539
G1 X54.487 Y149.175 E0.04539
G1 X55.933 Y149.140 E0.04539
G1 X57.376 Y149.033 E0.04539
G1 X58.811 Y148.856 E0.04539
G1 X60.237 Y148.609 E0.04539
G1 X61.648 Y148.292 E0.04539
G1 X63.042 Y147.906 E0.04539
G1 X64.416 Y147.452 E0.04539
G1 X65.765 Y146.932 E0.04539
G1 X67.088 Y146.346 E0.04539
G1 X68.387 Y145.691 E0.04567
G1 X69.638 Y144.982 E0.04510
G1 X70.860 Y144.209 E0.04539
G1 X72.043 Y143.376 E0.04539
G1 X73.183 Y142.486 E0.04539
G1 X74.278 Y141.541 E0.04539
G1 X75.326 Y140.543 E0.04539
G1 X76.323 Y139.496 E0.04539
G1 X77.268 Y138.401 E0.04539
G1 X78.158 Y137.260 E0.04539
G1 X78.991 Y136.078 E0.04539
G1 X79.765 Y134.856 E0.04539
G1 X80.150 Y134.175 E0.02455
G1 X105.457 Y134.175 E0.79407
G1 X105.457 Y126.735 E0.23344
G1 X83.095 Y126.735 E0.70169
G1 X83.391 Y125.455 E0.04122
G1 X83.638 Y124.029 E0.04542
G1 X83.816 Y122.594 E0.04539
G1 X83.922 Y121.151 E0.04539
G1 X83.957 Y119.705 E0.04539
G1 X83.922 Y118.259 E0.04539
G1 X83.816 Y116.816 E0.04539
G1 X83.638 Y115.380 E0.04540
G1 X83.424 Y114.175 E0.03841
G1 X105.397 Y114.175 E0.68945
G1 X105.835 Y114.552 F9000.000
G1 F1200.000
G1 X105.835 Y106.358 E0.25712
G1 X81.171 Y106.358 E0.77390
G1 X80.812 Y105.637 E0.02525
G1 X80.088 Y104.360 E0.04606
G1 X79.305 Y103.122 E0.04597
G1 X78.461 Y101.925 E0.04597
G1 X77.560 Y100.770 E0.04597
G1 X76.603 Y99.661 E0.04597
G1 X75.593 Y98.600 E0.04597
G1 X74.532 Y97.589 E0.04597
G1 X73.422 Y96.632 E0.04597
G1 X72.267 Y95.731 E0.04597
G1 X71.070 Y94.888 E0.04597
G1 X69.832 Y94.104 E0.04597
G1 X68.557 Y93.382 E0.04597
G1 X67.249 Y92.723 E0.04597
G1 X65.910 Y92.129 E0.04597
G1 X64.542 Y91.602 E0.04597
G1 X63.143 Y91.140 E0.04625
G1 X61.740 Y90.752 E0.04568
G1 X60.310 Y90.431 E0.04597
G1 X58.867 Y90.180 E0.04597
G1 X57.413 Y90.001 E0.04597
G1 X55.952 Y89.893 E0.04597
G1 X54.487 Y89.857 E0.04597
G1 X53.023 Y89.893 E0.04597
G1 X51.562 Y90.001 E0.04597
G1 X50.108 Y90.180 E0.04597
G1 X49.451 Y90.294 E0.02092
G1 X49.451 Y84.080 E0.19500
G1 X50.032 Y82.973 E0.03924
G1 X51.061 Y82.262 E0.03923
G1 X52.551 Y82.081 E0.04709
G1 X177.223 Y82.081 E3.91190
G1 X178.471 Y82.555 E0.04191
G1 X179.300 Y83.491 E0.03923
G1 X179.640 Y84.869 E0.04452
G1 X179.640 Y154.541 E2.18617
G1 X179.300 Y155.919 E0.04452
G1 X178.471 Y156.855 E0.03923
G1 X177.223 Y157.329 E0.04191
G1 X52.551 Y157.329 E3.91190
G1 X51.061 Y157.148 E0.04709
G1 X50.032 Y156.437 E0.03923
G1 X49.451 Y155.330 E0.03924
G1 X49.451 Y149.115 E0.19500
G1 X50.108 Y149.230 E0.02092
G1 X51.562 Y149.409 E0.04597
G1 X53.023 Y149.517 E0.04597
G1 X54.487 Y149.553 E0.04597
G1 X55.952 Y149.517 E0.04597
G1 X57.413 Y149.409 E0.04597
G1 X58.867 Y149.230 E0.04597
G1 X60.310 Y148.979 E0.04597
G1 X61.740 Y148.658 E0.04597
G1 X63.152 Y148.267 E0.04597
G1 X64.543 Y147.808 E0.04597
G1 X65.910 Y147.281 E0.04597
G1 X67.249 Y146.687 E0.04597
G1 X68.565 Y146.024 E0.04625
G1 X69.832 Y145.306 E0.04568
G1 X71.070 Y144.522 E0.04597
G1 X72.267 Y143.679 E0.04597
G1 X73.422 Y142.778 E0.04597
G1 X74.532 Y141.821 E0.04597
G1 X75.593 Y140.810 E0.04597
G1 X76.603 Y139.749 E0.04597
G1 X77.560 Y138.640 E0.04597
G1 X78.461 Y137.485 E0.04597
G1 X79.305 Y136.287 E0.04597
G1 X80.089 Y135.050 E0.04597
G1 X80.370 Y134.552 E0.01794
G1 X105.835 Y134.552 E0.79901
G1 X105.835 Y126.358 E0.25712
G1 X83.569 Y126.358 E0.69863
G1 X83.761 Y125.530 E0.02666
G1 X84.012 Y124.085 E0.04604
G1 X84.191 Y122.631 E0.04597
G1 X84.299 Y121.169 E0.04597
G1 X84.335 Y119.705 E0.04597
G1 X84.299 Y118.240 E0.04597
G1 X84.191 Y116.779 E0.04597
G1 X84.012 Y115.324 E0.04601
G1 X83.875 Y114.552 E0.02460
G1 X105.775 Y114.552 E0.68716
G1 X106.212 Y114.930 F9000.000
G1 F1200.000
G1 X106.212 Y105.980 E0.28080
G1 X81.404 Y105.980 E0.77840
G1 X81.145 Y105.460 E0.01823
G1 X80.412 Y104.166 E0.04666
G1 X79.619 Y102.913 E0.04655
G1 X78.764 Y101.700 E0.04655
G1 X77.852 Y100.530 E0.04655
G1 X76.883 Y99.407 E0.04655
G1 X75.860 Y98.333 E0.04655
G1 X74.785 Y97.310 E0.04655
G1 X73.662 Y96.341 E0.04655
G1 X72.492 Y95.428 E0.04655
G1 X71.280 Y94.574 E0.04655
G1 X70.026 Y93.780 E0.04655
G1 X68.735 Y93.049 E0.04655
G1 X67.410 Y92.382 E0.04655
G1 X66.054 Y91.781 E0.04655
G1 X64.670 Y91.247 E0.04656
