; generated by PrusaSlicer 2.3.3+x64 on 2021-09-27 at 22:56:45 UTC

; 

; external perimeters extrusion width = 0.45mm
; perimeters extrusion width = 0.45mm
; infill extrusion width = 0.45mm
; solid infill extrusion width = 0.45mm
; top infill extrusion width = 0.40mm
; first layer extrusion width = 0.42mm

M201 X500 Y500 Z100 E5000 ; sets maximum accelerations, mm/sec^2
M203 X500 Y500 Z10 E60 ; sets maximum feedrates, mm/sec
M204 P500 R1000 T500 ; sets acceleration (P, T) and retract acceleration (R), mm/sec^2
M205 X8.00 Y8.00 Z0.40 E5.00 ; sets the jerk limits, mm/sec
M205 S0 T0 ; sets the minimum extruding and travel feed rate, mm/sec
M107
;TYPE:Custom
G90 ; use absolute coordinates
M83 ; extruder relative mode
M104 S200 ; set extruder temp
M140 S60 ; set bed temp
M190 S60 ; wait for bed temp
M109 S200 ; wait for extruder temp
G28 ; home all
G29 ; Level Bed
G1 Z2 F240
G1 X2 Y10 F3000
G1 Z0.28 F240
G92 E0
G1 Y190 E15 F1500 ; intro line
G1 X2.3 F5000
G92 E0
G1 Y10 E15 F1200 ; intro line
G92 E0
G21 ; set units to millimeters
G90 ; use absolute coordinates
M83 ; use relative distances for extrusion
; Filament gcode
;LAYER_CHANGE
;Z:0.2
;HEIGHT:0.2
;BEFORE_LAYER_CHANGE
G92 E0
;0.2


G1 E-6.50000 F3000.000
G1 Z0.200 F9000.000
;AFTER_LAYER_CHANGE
;0.2
G1 X48.053 Y76.412
G1 E6.50000 F2400.000
;TYPE:Skirt
;WIDTH:0.42
G1 F1200.000
G1 X48.519 Y75.948 E0.02060
G1 X50.278 Y74.735 E0.06702
G1 X51.088 Y74.423 E0.02720
G1 X53.415 Y74.152 E0.07346
G1 X178.428 Y74.152 E3.91969
G1 X179.144 Y74.264 E0.02272
G1 X181.107 Y75.005 E0.06579
G1 X181.556 Y75.246 E0.01597
G1 X181.946 Y75.579 E0.01609
G1 X183.313 Y77.123 E0.06464
G1 X183.618 Y77.595 E0.01763
G1 X183.791 Y78.070 E0.01585
G1 X184.317 Y80.413 E0.07530
G1 X184.317 Y150.591 E2.20039
G1 X183.786 Y152.950 E0.07581
G1 X183.568 Y153.501 E0.01858
G1 X181.971 Y155.394 E0.07766
G1 X181.459 Y155.817 E0.02083
G1 X179.192 Y156.721 E0.07652
G1 X178.444 Y156.848 E0.02378
G1 X53.397 Y156.848 E3.92075
G1 X51.162 Y156.589 E0.07057
G1 X50.553 Y156.410 E0.01989
G1 X48.502 Y155.039 E0.07735
G1 X47.923 Y154.398 E0.02708
G1 X46.873 Y152.394 E0.07096
G1 X46.681 Y151.498 E0.02872
G1 X46.682 Y79.474 E2.25825
G1 X46.889 Y78.570 E0.02907
G1 X48.025 Y76.465 E0.07501
G1 E-4.55000 F3000.000
;WIPE_START
G1 F7200.000
G1 X48.519 Y75.948 E-0.28283
G1 X50.278 Y74.735 E-0.84612
G1 X51.088 Y74.423 E-0.34334
G1 X52.042 Y74.312 E-0.38022
;WIPE_END
G1 E-0.09750 F3000.000
G1 X143.189 Y110.530 F9000.000
G1 E6.50000 F2400.000
;TYPE:Perimeter
G1 F1200.000
G1 X143.591 Y109.636 E0.03073
G1 X144.059 Y108.795 E0.03016
G1 X144.589 Y108.016 E0.02955
G1 X145.177 Y107.306 E0.02891
G1 X145.818 Y106.671 E0.02828
G1 X146.507 Y106.120 E0.02768
G1 X147.240 Y105.659 E0.02713
G1 X148.007 Y105.292 E0.02667
G1 X148.803 Y105.027 E0.02629
G1 X149.617 Y104.866 E0.02604
G1 X150.426 Y104.812 E0.02541
G1 X150.855 Y104.826 E0.01345
G1 X151.276 Y104.867 E0.01328
G1 X152.081 Y105.027 E0.02574
G1 X152.877 Y105.292 E0.02629
G1 X153.644 Y105.659 E0.02667
G1 X154.376 Y106.120 E0.02713
G1 X155.066 Y106.671 E0.02768
G1 X155.707 Y107.306 E0.02828
G1 X156.295 Y108.016 E0.02891
G1 X156.825 Y108.795 E0.02955
G1 X157.293 Y109.636 E0.03016
G1 X157.694 Y110.530 E0.03073
G1 X158.028 Y111.469 E0.03124
G1 X158.289 Y112.444 E0.03167
G1 X158.478 Y113.448 E0.03200
G1 X158.591 Y114.469 E0.03223
G1 X158.629 Y115.500 E0.03234
G1 X158.591 Y116.531 E0.03234
G1 X158.478 Y117.552 E0.03223
G1 X158.289 Y118.556 E0.03200
G1 X158.028 Y119.531 E0.03167
G1 X157.694 Y120.470 E0.03124
G1 X157.293 Y121.364 E0.03073
G1 X156.825 Y122.205 E0.03016
G1 X156.295 Y122.984 E0.02955
G1 X155.707 Y123.694 E0.02891
G1 X155.066 Y124.329 E0.02828
G1 X154.376 Y124.880 E0.02768
G1 X153.644 Y125.341 E0.02713
G1 X152.877 Y125.708 E0.02667
G1 X152.081 Y125.973 E0.02629
G1 X151.266 Y126.134 E0.02604
G1 X150.442 Y126.188 E0.02591
G1 X149.617 Y126.134 E0.02591
G1 X148.803 Y125.973 E0.02604
G1 X148.007 Y125.708 E0.02629
G1 X147.240 Y125.341 E0.02667
G1 X146.507 Y124.880 E0.02713
G1 X145.818 Y124.329 E0.02768
G1 X145.177 Y123.694 E0.02828
G1 X144.589 Y122.984 E0.02891
G1 X144.059 Y122.205 E0.02955
G1 X143.591 Y121.364 E0.03016
G1 X143.189 Y120.470 E0.03073
G1 X142.856 Y119.531 E0.03124
G1 X142.594 Y118.556 E0.03167
G1 X142.406 Y117.552 E0.03200
G1 X142.292 Y116.531 E0.03223
G1 X142.254 Y115.500 E0.03234
G1 X142.292 Y114.469 E0.03234
G1 X142.406 Y113.448 E0.03223
G1 X142.594 Y112.444 E0.03200
G1 X142.856 Y111.469 E0.03167
G1 X143.169 Y110.586 E0.02936
G1 X143.525 Y110.713 F9000.000
;TYPE:External perimeter
G1 F1200.000
G1 X143.929 Y109.805 E0.03114
G1 X144.380 Y108.993 E0.02913
G1 X144.890 Y108.243 E0.02846
G1 X145.455 Y107.560 E0.02776
G1 X146.069 Y106.953 E0.02706
G1 X146.726 Y106.428 E0.02639
G1 X147.422 Y105.989 E0.02578
G1 X148.149 Y105.643 E0.02524
G1 X148.899 Y105.392 E0.02481
G1 X149.666 Y105.240 E0.02452
G1 X150.432 Y105.190 E0.02406
G1 X150.830 Y105.203 E0.01248
G1 X151.221 Y105.241 E0.01231
G1 X151.985 Y105.392 E0.02441
G1 X152.735 Y105.643 E0.02481
G1 X153.462 Y105.989 E0.02524
G1 X154.157 Y106.428 E0.02578
G1 X154.815 Y106.953 E0.02639
G1 X155.429 Y107.560 E0.02706
G1 X155.993 Y108.243 E0.02776
G1 X156.504 Y108.993 E0.02846
G1 X156.955 Y109.805 E0.02913
G1 X157.344 Y110.671 E0.02975
G1 X157.667 Y111.581 E0.03029
G1 X157.921 Y112.528 E0.03075
G1 X158.105 Y113.503 E0.03111
G1 X158.215 Y114.497 E0.03135
G1 X158.252 Y115.500 E0.03147
G1 X158.215 Y116.503 E0.03147
G1 X158.105 Y117.497 E0.03135
G1 X157.921 Y118.472 E0.03111
G1 X157.667 Y119.419 E0.03075
G1 X157.344 Y120.329 E0.03029
G1 X156.955 Y121.195 E0.02975
G1 X156.504 Y122.007 E0.02913
G1 X155.993 Y122.757 E0.02846
G1 X155.429 Y123.440 E0.02776
G1 X154.815 Y124.047 E0.02706
G1 X154.157 Y124.572 E0.02639
G1 X153.462 Y125.011 E0.02578
G1 X152.735 Y125.357 E0.02524
G1 X151.985 Y125.608 E0.02481
G1 X151.217 Y125.760 E0.02452
G1 X150.442 Y125.811 E0.02437
G1 X149.666 Y125.760 E0.02437
G1 X148.899 Y125.608 E0.02452
G1 X148.149 Y125.357 E0.02481
G1 X147.422 Y125.011 E0.02524
G1 X146.726 Y124.572 E0.02578
G1 X146.069 Y124.047 E0.02639
G1 X145.455 Y123.440 E0.02706
G1 X144.890 Y122.757 E0.02776
G1 X144.380 Y122.007 E0.02846
G1 X143.929 Y121.195 E0.02913
G1 X143.540 Y120.329 E0.02975
G1 X143.217 Y119.419 E0.03029
G1 X142.962 Y118.472 E0.03075
G1 X142.779 Y117.497 E0.03111
G1 X142.669 Y116.503 E0.03135
G1 X142.632 Y115.500 E0.03147
G1 X142.669 Y114.497 E0.03147
G1 X142.779 Y113.503 E0.03135
G1 X142.962 Y112.528 E0.03111
G1 X143.217 Y111.581 E0.03075
G1 X143.505 Y110.769 E0.02701
G1 X143.277 Y110.399 F9000.000
G1 E-4.55000 F3000.000
;WIPE_START
G1 F7200.000
G1 X143.929 Y109.805 E-0.41682
G1 X144.380 Y108.993 E-0.36773
G1 X144.890 Y108.243 E-0.35930
G1 X145.455 Y107.560 E-0.35052
G1 X146.069 Y106.953 E-0.34167
G1 X146.101 Y106.928 E-0.01645
;WIPE_END
G1 E-0.09750 F3000.000
G1 X49.745 Y136.162 F9000.000
G1 E6.50000 F2400.000
;TYPE:Perimeter
G1 F1200.000
G1 X50.439 Y136.187 E0.02175
G1 X51.457 Y136.162 E0.03194
G1 X52.470 Y136.088 E0.03183
G1 X53.477 Y135.963 E0.03184
G1 X54.478 Y135.790 E0.03184
G1 X55.468 Y135.567 E0.03184
G1 X56.447 Y135.296 E0.03184
G1 X57.411 Y134.978 E0.03184
G1 X58.359 Y134.613 E0.03184
G1 X59.287 Y134.201 E0.03184
G1 X60.194 Y133.745 E0.03184
G1 X61.077 Y133.244 E0.03184
G1 X61.935 Y132.701 E0.03184
G1 X62.765 Y132.116 E0.03184
G1 X63.566 Y131.491 E0.03184
G1 X64.335 Y130.828 E0.03184
G1 X65.070 Y130.128 E0.03183
G1 X65.770 Y129.393 E0.03183
G1 X66.433 Y128.624 E0.03184
G1 X67.058 Y127.823 E0.03184
G1 X67.643 Y126.993 E0.03184
G1 X68.186 Y126.135 E0.03184
G1 X68.686 Y125.252 E0.03184
G1 X69.143 Y124.345 E0.03184
G1 X69.554 Y123.417 E0.03184
G1 X69.920 Y122.469 E0.03184
G1 X70.238 Y121.505 E0.03184
G1 X70.509 Y120.527 E0.03184
G1 X70.732 Y119.536 E0.03184
G1 X70.905 Y118.535 E0.03184
G1 X71.030 Y117.528 E0.03184
G1 X71.104 Y116.515 E0.03184
G1 X71.129 Y115.500 E0.03184
G1 X71.104 Y114.485 E0.03184
G1 X71.030 Y113.472 E0.03184
G1 X70.905 Y112.465 E0.03184
G1 X70.732 Y111.464 E0.03184
G1 X70.509 Y110.473 E0.03184
G1 X70.238 Y109.495 E0.03184
G1 X69.920 Y108.531 E0.03184
G1 X69.554 Y107.583 E0.03184
G1 X69.143 Y106.655 E0.03184
G1 X68.686 Y105.748 E0.03184
G1 X68.186 Y104.865 E0.03184
G1 X67.643 Y104.007 E0.03184
G1 X67.058 Y103.177 E0.03184
G1 X66.433 Y102.376 E0.03184
G1 X65.770 Y101.607 E0.03184
G1 X65.070 Y100.872 E0.03183
G1 X64.335 Y100.172 E0.03183
G1 X63.566 Y99.509 E0.03184
G1 X62.765 Y98.884 E0.03184
G1 X61.935 Y98.299 E0.03184
G1 X61.077 Y97.756 E0.03184
G1 X60.194 Y97.255 E0.03184
G1 X59.287 Y96.799 E0.03184
G1 X58.359 Y96.387 E0.03184
G1 X57.411 Y96.022 E0.03184
G1 X56.447 Y95.704 E0.03184
G1 X55.468 Y95.433 E0.03184
G1 X54.478 Y95.210 E0.03184
G1 X53.477 Y95.037 E0.03184
G1 X52.470 Y94.912 E0.03184
G1 X51.457 Y94.838 E0.03183
G1 X50.439 Y94.813 E0.03194
G1 X49.745 Y94.838 E0.02175
G1 X49.745 Y79.712 E0.47425
G1 X50.478 Y78.317 E0.04941
G1 X51.774 Y77.422 E0.04941
G1 X53.466 Y77.216 E0.05341
G1 X178.298 Y77.216 E3.91404
G1 X179.812 Y77.790 E0.05077
G1 X180.857 Y78.970 E0.04941
G1 X181.255 Y80.583 E0.05210
G1 X181.255 Y150.417 E2.18957
G1 X180.857 Y152.030 E0.05210
G1 X179.812 Y153.210 E0.04941
G1 X178.298 Y153.784 E0.05077
G1 X53.466 Y153.784 E3.91404
G1 X51.774 Y153.578 E0.05341
G1 X50.478 Y152.683 E0.04941
G1 X49.745 Y151.288 E0.04941
G1 X49.745 Y136.222 E0.47237
G1 X49.368 Y135.772 F9000.000
;TYPE:External perimeter
G1 F1200.000
G1 X50.441 Y135.810 E0.03365
G1 X51.439 Y135.786 E0.03130
G1 X52.433 Y135.712 E0.03125
G1 X53.422 Y135.590 E0.03126
G1 X54.404 Y135.420 E0.03126
G1 X55.377 Y135.201 E0.03126
G1 X56.338 Y134.936 E0.03126
G1 X57.284 Y134.623 E0.03126
G1 X58.214 Y134.264 E0.03126
G1 X59.126 Y133.860 E0.03126
G1 X60.016 Y133.412 E0.03126
G1 X60.883 Y132.921 E0.03126
G1 X61.726 Y132.387 E0.03126
G1 X62.541 Y131.813 E0.03126
G1 X63.327 Y131.200 E0.03126
G1 X64.081 Y130.549 E0.03126
G1 X64.803 Y129.861 E0.03125
G1 X65.491 Y129.139 E0.03125
G1 X66.142 Y128.385 E0.03126
G1 X66.755 Y127.599 E0.03126
G1 X67.329 Y126.784 E0.03126
G1 X67.862 Y125.942 E0.03126
G1 X68.354 Y125.074 E0.03126
G1 X68.802 Y124.184 E0.03126
G1 X69.206 Y123.272 E0.03126
G1 X69.565 Y122.342 E0.03126
G1 X69.877 Y121.396 E0.03126
G1 X70.143 Y120.435 E0.03126
G1 X70.362 Y119.462 E0.03126
G1 X70.532 Y118.480 E0.03126
G1 X70.654 Y117.491 E0.03126
G1 X70.728 Y116.497 E0.03126
G1 X70.752 Y115.500 E0.03126
G1 X70.728 Y114.503 E0.03126
G1 X70.654 Y113.509 E0.03126
G1 X70.532 Y112.520 E0.03126
G1 X70.362 Y111.538 E0.03126
G1 X70.143 Y110.565 E0.03126
G1 X69.877 Y109.604 E0.03126
G1 X69.565 Y108.658 E0.03126
G1 X69.206 Y107.728 E0.03126
G1 X68.802 Y106.816 E0.03126
G1 X68.354 Y105.926 E0.03126
G1 X67.862 Y105.058 E0.03126
G1 X67.329 Y104.216 E0.03126
G1 X66.755 Y103.401 E0.03126
G1 X66.142 Y102.615 E0.03126
G1 X65.491 Y101.861 E0.03126
G1 X64.803 Y101.139 E0.03125
G1 X64.081 Y100.451 E0.03125
G1 X63.327 Y99.800 E0.03126
G1 X62.541 Y99.187 E0.03126
G1 X61.726 Y98.613 E0.03126
G1 X60.883 Y98.079 E0.03126
G1 X60.016 Y97.588 E0.03126
G1 X59.126 Y97.140 E0.03126
G1 X58.214 Y96.736 E0.03126
G1 X57.284 Y96.377 E0.03126
G1 X56.338 Y96.064 E0.03126
G1 X55.377 Y95.799 E0.03126
G1 X54.404 Y95.580 E0.03126
G1 X53.422 Y95.410 E0.03126
G1 X52.433 Y95.288 E0.03126
G1 X51.439 Y95.214 E0.03125
G1 X50.441 Y95.190 E0.03130
G1 X49.368 Y95.228 E0.03365
G1 X49.368 Y79.619 E0.48942
G1 X50.187 Y78.059 E0.05524
G1 X51.637 Y77.058 E0.05524
G1 X53.443 Y76.839 E0.05704
G1 X178.367 Y76.839 E3.91692
G1 X180.033 Y77.471 E0.05585
G1 X181.201 Y78.789 E0.05523
G1 X181.632 Y80.538 E0.05645
G1 X181.632 Y150.462 E2.19244
G1 X181.201 Y152.211 E0.05645
G1 X180.033 Y153.529 E0.05523
G1 X178.367 Y154.161 E0.05585
G1 X53.443 Y154.161 E3.91692
G1 X51.637 Y153.942 E0.05704
G1 X50.187 Y152.941 E0.05524
G1 X49.368 Y151.381 E0.05524
G1 X49.368 Y135.832 E0.48754
G1 X49.713 Y135.974 F9000.000
G1 E-4.55000 F3000.000
;WIPE_START
G1 F7200.000
G1 X50.441 Y135.810 E-0.42465
G1 X51.439 Y135.786 E-0.39509
G1 X52.433 Y135.712 E-0.39456
G1 X53.422 Y135.590 E-0.39461
G1 X54.028 Y135.485 E-0.24359
;WIPE_END
G1 E-0.09750 F3000.000
G1 X178.499 Y77.414 F9000.000
G1 E6.50000 F2400.000
;TYPE:Solid infill
;WIDTH:0.420454
G1 F1200.000
G1 X180.733 Y79.647 E0.09915
G1 X180.907 Y80.356 E0.02291
G1 X178.051 Y77.499 E0.12681
G1 X177.517 Y77.499 E0.01676
G1 X180.972 Y80.954 E0.15339
G1 X180.972 Y81.488 E0.01676
G1 X176.983 Y77.499 E0.17709
G1 X176.449 Y77.499 E0.01676
G1 X180.972 Y82.022 E0.20079
G1 X180.972 Y82.556 E0.01676
G1 X175.915 Y77.499 E0.22450
G1 X175.381 Y77.499 E0.01676
G1 X180.972 Y83.090 E0.24820
G1 X180.972 Y83.624 E0.01676
G1 X174.847 Y77.499 E0.27190
G1 X174.314 Y77.499 E0.01676
G1 X180.972 Y84.158 E0.29560
G1 X180.972 Y84.691 E0.01676
G1 X173.780 Y77.499 E0.31931
G1 X173.246 Y77.499 E0.01676
G1 X180.972 Y85.225 E0.34301
G1 X180.972 Y85.759 E0.01676
G1 X172.712 Y77.499 E0.36671
G1 X172.178 Y77.499 E0.01676
G1 X180.972 Y86.293 E0.39042
G1 X180.972 Y86.827 E0.01676
G1 X171.644 Y77.499 E0.41412
G1 X171.110 Y77.499 E0.01676
G1 X180.972 Y87.361 E0.43782
G1 X180.972 Y87.895 E0.01676
G1 X170.576 Y77.499 E0.46153
G1 X170.042 Y77.499 E0.01676
G1 X180.972 Y88.429 E0.48523
G1 X180.972 Y88.963 E0.01676
G1 X169.508 Y77.499 E0.50893
G1 X168.974 Y77.499 E0.01676
G1 X180.972 Y89.497 E0.53264
G1 X180.972 Y90.031 E0.01676
G1 X168.440 Y77.499 E0.55634
G1 X167.907 Y77.499 E0.01676
G1 X180.972 Y90.565 E0.58004
G1 X180.972 Y91.098 E0.01676
G1 X167.373 Y77.499 E0.60375
G1 X166.839 Y77.499 E0.01676
G1 X180.972 Y91.632 E0.62745
G1 X180.972 Y92.166 E0.01676
G1 X166.305 Y77.499 E0.65115
G1 X165.771 Y77.499 E0.01676
G1 X180.972 Y92.700 E0.67486
G1 X180.972 Y93.234 E0.01676
G1 X165.237 Y77.499 E0.69856
G1 X164.703 Y77.499 E0.01676
G1 X180.972 Y93.768 E0.72226
G1 X180.972 Y94.302 E0.01676
G1 X164.169 Y77.499 E0.74596
G1 X163.635 Y77.499 E0.01676
G1 X180.972 Y94.836 E0.76967
G1 X180.972 Y95.370 E0.01676
G1 X163.101 Y77.499 E0.79337
G1 X162.567 Y77.499 E0.01676
G1 X180.972 Y95.904 E0.81707
G1 X180.972 Y96.438 E0.01676
G1 X162.034 Y77.499 E0.84078
G1 X161.500 Y77.499 E0.01676
G1 X180.972 Y96.972 E0.86448
G1 X180.972 Y97.505 E0.01676
G1 X160.966 Y77.499 E0.88818
G1 X160.432 Y77.499 E0.01676
G1 X180.972 Y98.039 E0.91189
G1 X180.972 Y98.573 E0.01676
G1 X159.898 Y77.499 E0.93559
G1 X159.364 Y77.499 E0.01676
G1 X180.972 Y99.107 E0.95929
G1 X180.972 Y99.641 E0.01676
G1 X158.830 Y77.499 E0.98300
G1 X158.296 Y77.499 E0.01676
G1 X180.972 Y100.175 E1.00670
G1 X180.972 Y100.709 E0.01676
G1 X157.762 Y77.499 E1.03040
G1 X157.228 Y77.499 E0.01676
G1 X180.972 Y101.243 E1.05411
G1 X180.972 Y101.777 E0.01676
G1 X156.694 Y77.499 E1.07781
G1 X156.160 Y77.499 E0.01676
G1 X180.972 Y102.311 E1.10151
G1 X180.972 Y102.845 E0.01676
G1 X155.627 Y77.499 E1.12522
G1 X155.093 Y77.499 E0.01676
G1 X180.972 Y103.378 E1.14892
G1 X180.972 Y103.912 E0.01676
G1 X154.559 Y77.499 E1.17262
G1 X154.025 Y77.499 E0.01676
G1 X180.972 Y104.446 E1.19632
G1 X180.972 Y104.980 E0.01676
G1 X153.491 Y77.499 E1.22003
G1 X152.957 Y77.499 E0.01676
G1 X180.972 Y105.514 E1.24373
G1 X180.972 Y106.048 E0.01676
G1 X152.423 Y77.499 E1.26743
G1 X151.889 Y77.499 E0.01676
G1 X180.972 Y106.582 E1.29114
G1 X180.972 Y107.116 E0.01676
G1 X151.355 Y77.499 E1.31484
G1 X150.821 Y77.499 E0.01676
G1 X180.972 Y107.650 E1.33854
G1 X180.972 Y108.184 E0.01676
G1 X150.287 Y77.499 E1.36225
G1 X149.753 Y77.499 E0.01676
G1 X180.972 Y108.718 E1.38595
G1 X180.972 Y109.252 E0.01676
G1 X149.220 Y77.499 E1.40965
G1 X148.686 Y77.499 E0.01676
G1 X180.972 Y109.785 E1.43336
G1 X180.972 Y110.319 E0.01676
G1 X148.152 Y77.499 E1.45706
G1 X147.618 Y77.499 E0.01676
G1 X180.972 Y110.853 E1.48076
G1 X180.972 Y111.387 E0.01676
G1 X147.084 Y77.499 E1.50447
G1 X146.550 Y77.499 E0.01676
G1 X180.972 Y111.921 E1.52817
G1 X180.972 Y112.455 E0.01676
G1 X146.016 Y77.499 E1.55187
G1 X145.482 Y77.499 E0.01676
G1 X180.972 Y112.989 E1.57558
G1 X180.972 Y113.523 E0.01676
G1 X144.948 Y77.499 E1.59928
G1 X144.414 Y77.499 E0.01676
G1 X180.972 Y114.057 E1.62298
G1 X180.972 Y114.591 E0.01676
G1 X143.880 Y77.499 E1.64668
G1 X143.347 Y77.499 E0.01676
G1 X180.972 Y115.125 E1.67039
G1 X180.972 Y115.658 E0.01676
G1 X142.813 Y77.499 E1.69409
