; generated by PrusaSlicer 2.3.3+x64 on 2021-10-23 at 15:09:34 UTC

; 

; external perimeters extrusion width = 0.45mm
; perimeters extrusion width = 0.45mm
; infill extrusion width = 0.45mm
; solid infill extrusion width = 0.45mm
; top infill extrusion width = 0.40mm
; first layer extrusion width = 0.42mm

M201 X500 Y500 Z100 E5000 ; sets maximum accelerations, mm/sec^2
M203 X500 Y500 Z10 E60 ; sets maximum feedrates, mm/sec
M204 P500 R1000 T500 ; sets acceleration (P, T) and retract acceleration (R), mm/sec^2
M205 X8.00 Y8.00 Z0.40 E5.00 ; sets the jerk limits, mm/sec
M205 S0 T0 ; sets the minimum extruding and travel feed rate, mm/sec
M107
;TYPE:Custom
G90 ; use absolute coordinates
M83 ; extruder relative mode
M104 S200 ; set extruder temp
M140 S60 ; set bed temp
M190 S60 ; wait for bed temp
M109 S200 ; wait for extruder temp
G28 ; home all
G1 Z2 F240
G1 X2 Y10 F3000
G1 Z0.28 F240
G92 E0
G1 Y190 E15 F1500 ; intro line
G1 X2.3 F5000
G92 E0
G1 Y10 E15 F1200 ; intro line
G92 E0
G21 ; set units to millimeters
G90 ; use absolute coordinates
M83 ; use relative distances for extrusion
; Filament gcode
;LAYER_CHANGE
;Z:0.2
;HEIGHT:0.2
;BEFORE_LAYER_CHANGE
G92 E0
;0.2


G1 E-6.50000 F3000.000
G1 Z0.200 F9000.000
;AFTER_LAYER_CHANGE
;0.2
G1 X83.974 Y64.858
G1 E6.50000 F2400.000
;TYPE:Skirt
;WIDTH:0.42
G1 F1200.000
G1 X84.817 Y64.454 E0.02931
G1 X85.325 Y64.382 E0.01609
G1 X106.657 Y63.742 E0.66915
G1 X111.725 Y63.742 E0.15889
G1 X133.905 Y64.149 E0.69558
G1 X134.514 Y64.242 E0.01929
G1 X135.225 Y64.583 E0.02473
G1 X135.785 Y65.138 E0.02473
G1 X138.422 Y69.683 E0.16477
G1 X138.715 Y70.575 E0.02942
G1 X138.638 Y71.514 E0.02954
G1 X138.423 Y72.026 E0.01740
G1 X135.762 Y76.603 E0.16601
G1 X135.058 Y77.235 E0.02966
G1 X134.160 Y77.543 E0.02977
G1 X90.408 Y77.795 E1.37182
G1 X85.266 Y77.791 E0.16123
G1 X84.684 Y77.684 E0.01858
G1 X84.145 Y77.435 E0.01858
G1 X83.718 Y77.094 E0.01716
G1 X83.379 Y76.664 E0.01716
G1 X80.826 Y72.244 E0.16006
G1 X80.600 Y71.675 E0.01917
G1 X80.535 Y70.882 E0.02496
G1 X80.736 Y70.111 E0.02496
G1 X83.351 Y65.560 E0.16458
G1 X83.934 Y64.903 E0.02754
G1 E-4.55000 F3000.000
;WIPE_START
G1 F7200.000
G1 X84.817 Y64.454 E-0.39200
G1 X85.325 Y64.382 E-0.20315
G1 X88.500 Y64.287 E-1.25736
;WIPE_END
G1 E-0.09750 F3000.000
G1 X127.147 Y70.856 F9000.000
G1 E6.50000 F2400.000
;TYPE:Perimeter
G1 F1200.000
G1 X129.251 Y67.212 E0.13190
G1 X133.457 Y67.212 E0.13190
G1 X135.561 Y70.856 E0.13190
G1 X133.457 Y74.499 E0.13190
G1 X129.251 Y74.499 E0.13190
G1 X127.177 Y70.907 E0.13001
G1 X126.712 Y70.856 F9000.000
;TYPE:External perimeter
G1 F1200.000
G1 X129.033 Y66.835 E0.14555
G1 X133.675 Y66.835 E0.14555
G1 X135.996 Y70.856 E0.14555
G1 X133.675 Y74.876 E0.14555
G1 X129.033 Y74.876 E0.14555
G1 X126.742 Y70.907 E0.14367
G1 X127.058 Y70.656 F9000.000
G1 E-4.55000 F3000.000
;WIPE_START
G1 F7200.000
G1 X129.033 Y66.835 E-1.84947
G1 X129.041 Y66.835 E-0.00303
;WIPE_END
G1 E-0.09750 F3000.000
G1 X134.499 Y69.242 F9000.000
G1 E6.50000 F2400.000
;TYPE:Solid infill
;WIDTH:0.438736
G1 F1200.000
G1 X132.752 Y67.495 E0.08130
G1 X132.192 Y67.495 E0.01842
G1 X134.800 Y70.103 E0.12137
G1 X135.234 Y70.856 E0.02860
G1 X135.146 Y71.009 E0.00582
G1 X131.632 Y67.495 E0.16353
G1 X131.072 Y67.495 E0.01842
G1 X134.941 Y71.364 E0.18005
G1 X134.736 Y71.718 E0.01349
G1 X130.513 Y67.495 E0.19657
G1 X129.953 Y67.495 E0.01842
G1 X134.531 Y72.073 E0.21309
G1 X134.326 Y72.428 E0.01349
G1 X129.406 Y67.508 E0.22899
G1 X129.202 Y67.863 E0.01349
G1 X134.121 Y72.783 E0.22899
G1 X133.916 Y73.138 E0.01349
G1 X128.997 Y68.218 E0.22899
G1 X128.792 Y68.573 E0.01349
G1 X133.711 Y73.493 E0.22899
G1 X133.507 Y73.848 E0.01349
G1 X128.587 Y68.928 E0.22899
G1 X128.382 Y69.283 E0.01349
G1 X133.302 Y74.203 E0.22899
G1 X133.294 Y74.216 E0.00050
G1 X132.755 Y74.216 E0.01774
G1 X128.177 Y69.638 E0.21308
G1 X127.972 Y69.993 E0.01349
G1 X132.195 Y74.216 E0.19657
G1 X131.636 Y74.216 E0.01842
G1 X127.767 Y70.348 E0.18005
G1 X127.562 Y70.702 E0.01349
G1 X131.076 Y74.216 E0.16353
G1 X130.516 Y74.216 E0.01842
G1 X127.909 Y71.608 E0.12136
G1 X128.673 Y72.933 E0.05033
G1 X130.126 Y74.385 E0.06761
G1 E-4.55000 F3000.000
;WIPE_START
G1 F7200.000
G1 X128.673 Y72.933 E-0.81312
G1 X127.909 Y71.608 E-0.60536
G1 X128.684 Y72.384 E-0.43403
;WIPE_END
G1 E-0.09750 F3000.000
G1 X113.427 Y70.449 F9000.000
G1 E6.50000 F2400.000
;TYPE:Perimeter
;WIDTH:0.42
G1 F1200.000
G1 X111.324 Y74.092 E0.13190
G1 X107.118 Y74.092 E0.13190
G1 X105.014 Y70.449 E0.13190
G1 X107.118 Y66.806 E0.13190
G1 X111.324 Y66.806 E0.13190
G1 X113.397 Y70.397 E0.13001
G1 X113.863 Y70.449 F9000.000
;TYPE:External perimeter
G1 F1200.000
G1 X111.542 Y74.469 E0.14555
G1 X106.900 Y74.469 E0.14555
G1 X104.579 Y70.449 E0.14555
G1 X106.900 Y66.429 E0.14555
G1 X111.542 Y66.429 E0.14555
G1 X113.833 Y70.397 E0.14367
G1 X113.516 Y70.649 F9000.000
G1 E-4.55000 F3000.000
;WIPE_START
G1 F7200.000
G1 X111.542 Y74.469 E-1.84947
G1 X111.534 Y74.469 E-0.00303
;WIPE_END
G1 E-0.09750 F3000.000
G1 X112.365 Y68.835 F9000.000
G1 E6.50000 F2400.000
;TYPE:Solid infill
;WIDTH:0.438736
G1 F1200.000
G1 X110.619 Y67.088 E0.08130
G1 X110.059 Y67.088 E0.01842
G1 X112.666 Y69.696 E0.12137
G1 X113.101 Y70.449 E0.02860
G1 X113.012 Y70.602 E0.00582
G1 X109.499 Y67.088 E0.16353
G1 X108.939 Y67.088 E0.01842
G1 X112.808 Y70.957 E0.18005
G1 X112.603 Y71.312 E0.01349
G1 X108.379 Y67.088 E0.19657
G1 X107.820 Y67.088 E0.01842
G1 X112.398 Y71.667 E0.21309
G1 X112.193 Y72.021 E0.01349
G1 X107.273 Y67.102 E0.22899
G1 X107.068 Y67.457 E0.01349
G1 X111.988 Y72.376 E0.22899
G1 X111.783 Y72.731 E0.01349
G1 X106.863 Y67.811 E0.22899
G1 X106.659 Y68.166 E0.01349
G1 X111.578 Y73.086 E0.22899
G1 X111.373 Y73.441 E0.01349
G1 X106.454 Y68.521 E0.22899
G1 X106.249 Y68.876 E0.01349
G1 X111.168 Y73.796 E0.22899
G1 X111.161 Y73.809 E0.00050
G1 X110.622 Y73.809 E0.01774
G1 X106.044 Y69.231 E0.21308
G1 X105.839 Y69.586 E0.01349
G1 X110.062 Y73.809 E0.19657
G1 X109.502 Y73.809 E0.01842
G1 X105.634 Y69.941 E0.18005
G1 X105.429 Y70.296 E0.01349
G1 X108.943 Y73.809 E0.16353
G1 X108.383 Y73.809 E0.01842
G1 X105.776 Y71.202 E0.12136
G1 X106.540 Y72.526 E0.05033
G1 X107.993 Y73.979 E0.06761
G1 E-4.55000 F3000.000
;WIPE_START
G1 F7200.000
G1 X106.540 Y72.526 E-0.81312
G1 X105.776 Y71.202 E-0.60536
G1 X106.551 Y71.977 E-0.43403
;WIPE_END
G1 E-0.09750 F3000.000
G1 X92.110 Y71.088 F9000.000
G1 E6.50000 F2400.000
;TYPE:Perimeter
;WIDTH:0.42
G1 F1200.000
G1 X90.007 Y74.731 E0.13190
G1 X85.800 Y74.731 E0.13190
G1 X83.697 Y71.088 E0.13190
G1 X85.800 Y67.445 E0.13190
G1 X90.007 Y67.445 E0.13190
G1 X92.080 Y71.036 E0.13001
G1 X92.545 Y71.088 F9000.000
;TYPE:External perimeter
G1 F1200.000
G1 X90.224 Y75.108 E0.14555
G1 X85.582 Y75.108 E0.14555
G1 X83.261 Y71.088 E0.14555
G1 X85.582 Y67.068 E0.14555
G1 X90.224 Y67.068 E0.14555
G1 X92.515 Y71.036 E0.14367
G1 X92.199 Y71.288 F9000.000
G1 E-4.55000 F3000.000
;WIPE_START
G1 F7200.000
G1 X90.224 Y75.108 E-1.84947
G1 X90.217 Y75.108 E-0.00303
;WIPE_END
G1 E-0.09750 F3000.000
G1 X91.048 Y69.475 F9000.000
G1 E6.50000 F2400.000
;TYPE:Solid infill
;WIDTH:0.438736
G1 F1200.000
G1 X89.301 Y67.728 E0.08130
G1 X88.741 Y67.728 E0.01842
G1 X91.349 Y70.335 E0.12137
G1 X91.783 Y71.088 E0.02860
G1 X91.695 Y71.241 E0.00582
G1 X88.182 Y67.728 E0.16353
G1 X87.622 Y67.728 E0.01842
G1 X91.490 Y71.596 E0.18005
G1 X91.285 Y71.951 E0.01349
G1 X87.062 Y67.728 E0.19657
G1 X86.502 Y67.728 E0.01842
G1 X91.080 Y72.306 E0.21309
G1 X90.875 Y72.661 E0.01349
G1 X85.956 Y67.741 E0.22899
G1 X85.751 Y68.096 E0.01349
G1 X90.671 Y73.016 E0.22899
G1 X90.466 Y73.371 E0.01349
G1 X85.546 Y68.451 E0.22899
G1 X85.341 Y68.806 E0.01349
G1 X90.261 Y73.726 E0.22899
G1 X90.056 Y74.080 E0.01349
G1 X85.136 Y69.161 E0.22899
G1 X84.931 Y69.516 E0.01349
G1 X89.851 Y74.435 E0.22899
G1 X89.843 Y74.448 E0.00050
G1 X89.304 Y74.448 E0.01774
G1 X84.726 Y69.870 E0.21308
G1 X84.521 Y70.225 E0.01349
G1 X88.745 Y74.448 E0.19657
G1 X88.185 Y74.448 E0.01842
G1 X84.317 Y70.580 E0.18005
G1 X84.112 Y70.935 E0.01349
G1 X87.625 Y74.448 E0.16353
G1 X87.065 Y74.448 E0.01842
G1 X84.458 Y71.841 E0.12136
G1 X85.223 Y73.166 E0.05033
G1 X86.675 Y74.618 E0.06761
M106 S255
;LAYER_CHANGE
;Z:0.4
;HEIGHT:0.2
;BEFORE_LAYER_CHANGE
G92 E0
;0.4


G1 E-4.55000 F3000.000
;WIPE_START
G1 F7200.000
G1 X85.223 Y73.166 E-0.81312
G1 X84.458 Y71.841 E-0.60536
G1 X85.233 Y72.616 E-0.43403
;WIPE_END
G1 E-0.09750 F3000.000
G1 Z0.400 F9000.000
;AFTER_LAYER_CHANGE
;0.4
M104 S190 ; set temperature
G1 X83.974 Y64.858
G1 E6.50000 F2400.000
;TYPE:Skirt
;WIDTH:0.42
G1 X84.817 Y64.454 E0.02931
G1 X85.325 Y64.382 E0.01609
G1 X106.657 Y63.742 E0.66915
G1 X111.725 Y63.742 E0.15889
G1 X133.905 Y64.149 E0.69558
G1 X134.514 Y64.242 E0.01929
G1 X135.225 Y64.583 E0.02473
G1 X135.785 Y65.138 E0.02473
G1 X138.422 Y69.683 E0.16477
G1 X138.715 Y70.575 E0.02942
G1 X138.638 Y71.514 E0.02954
G1 X138.423 Y72.026 E0.01740
G1 X135.762 Y76.603 E0.16601
G1 X135.058 Y77.235 E0.02966
G1 X134.160 Y77.543 E0.02977
G1 X90.408 Y77.795 E1.37182
G1 X85.266 Y77.791 E0.16123
G1 X84.684 Y77.684 E0.01858
G1 X84.145 Y77.435 E0.01858
G1 X83.718 Y77.094 E0.01716
G1 X83.379 Y76.664 E0.01716
G1 X80.826 Y72.244 E0.16006
G1 X80.600 Y71.675 E0.01917
G1 X80.535 Y70.882 E0.02496
G1 X80.736 Y70.111 E0.02496
G1 X83.351 Y65.560 E0.16458
G1 X83.934 Y64.903 E0.02754
G1 E-4.55000 F3000.000
;WIPE_START
G1 F7200.000
G1 X84.817 Y64.454 E-0.39200
G1 X85.325 Y64.382 E-0.20315
G1 X88.500 Y64.287 E-1.25736
;WIPE_END
G1 E-0.09750 F3000.000
G1 X127.084 Y70.856 F9000.000
G1 E6.50000 F2400.000
;TYPE:Perimeter
;WIDTH:0.45
G1 F1500.000
G1 X129.219 Y67.157 E0.14454
G1 X133.489 Y67.157 E0.14454
G1 X135.624 Y70.856 E0.14454
G1 X133.489 Y74.554 E0.14454
G1 X129.219 Y74.554 E0.14454
G1 X127.114 Y70.907 E0.14251
G1 X126.614 Y70.856 F9000.000
;TYPE:External perimeter
G1 F1500.000
G1 X128.984 Y66.750 E0.16045
G1 X133.724 Y66.750 E0.16045
G1 X136.094 Y70.856 E0.16045
G1 X133.724 Y74.961 E0.16045
G1 X128.984 Y74.961 E0.16045
G1 X126.644 Y70.907 E0.15842
G1 X126.960 Y70.656 F9000.000
G1 E-4.55000 F3000.000
;WIPE_START
G1 F7200.000
G1 X128.940 Y66.829 E-1.85250
;WIPE_END
G1 E-0.09750 F3000.000
G1 X134.585 Y72.401 F9000.000
G1 E6.50000 F2400.000
;TYPE:Solid infill
;WIDTH:0.465138
G1 X132.738 Y74.248 E0.09171
G1 X132.141 Y74.248 E0.02096
G1 X134.895 Y71.494 E0.13674
G1 X135.267 Y70.847 E0.02620
G1 X135.149 Y70.643 E0.00827
G1 X131.544 Y74.248 E0.17900
G1 X130.947 Y74.248 E0.02096
G1 X134.930 Y70.265 E0.19779
G1 X134.712 Y69.886 E0.01535
G1 X130.350 Y74.248 E0.21659
G1 X129.753 Y74.248 E0.02096
G1 X134.493 Y69.507 E0.23538
G1 X134.275 Y69.129 E0.01535
G1 X129.307 Y74.096 E0.24663
G1 X129.089 Y73.718 E0.01535
G1 X134.056 Y68.750 E0.24663
G1 X133.838 Y68.372 E0.01535
G1 X128.870 Y73.339 E0.24663
G1 X128.652 Y72.961 E0.01535
G1 X133.619 Y67.993 E0.24663
G1 X133.401 Y67.615 E0.01535
G1 X128.433 Y72.582 E0.24663
G1 X128.215 Y72.203 E0.01535
G1 X132.955 Y67.463 E0.23537
G1 X132.358 Y67.463 E0.02096
G1 X127.996 Y71.825 E0.21658
G1 X127.778 Y71.446 E0.01535
G1 X131.761 Y67.463 E0.19778
G1 X131.164 Y67.463 E0.02096
G1 X127.559 Y71.068 E0.17899
G1 X127.436 Y70.856 E0.00861
G1 X127.795 Y70.235 E0.02516
G1 X130.567 Y67.463 E0.13764
G1 X129.970 Y67.463 E0.02096
G1 X128.110 Y69.323 E0.09234
G1 E-4.55000 F3000.000
;WIPE_START
G1 F7200.000
G1 X129.970 Y67.463 E-1.04116
G1 X130.567 Y67.463 E-0.23635
G1 X129.540 Y68.490 E-0.57499
;WIPE_END
G1 E-0.09750 F3000.000
G1 X113.491 Y70.449 F9000.000
G1 E6.50000 F2400.000
;TYPE:Perimeter
;WIDTH:0.45
G1 F1500.000
G1 X111.356 Y74.147 E0.14454
G1 X107.086 Y74.147 E0.14454
G1 X104.951 Y70.449 E0.14454
G1 X107.086 Y66.751 E0.14454
G1 X111.356 Y66.751 E0.14454
G1 X113.461 Y70.397 E0.14251
G1 X113.961 Y70.449 F9000.000
;TYPE:External perimeter
G1 F1500.000
G1 X111.591 Y74.554 E0.16045
G1 X106.851 Y74.554 E0.16045
G1 X104.481 Y70.449 E0.16045
G1 X106.851 Y66.344 E0.16045
G1 X111.591 Y66.344 E0.16045
G1 X113.931 Y70.397 E0.15842
G1 X113.615 Y70.649 F9000.000
G1 E-4.55000 F3000.000
;WIPE_START
G1 F7200.000
G1 X111.635 Y74.475 E-1.85250
;WIPE_END
G1 E-0.09750 F3000.000
G1 X112.452 Y71.994 F9000.000
G1 E6.50000 F2400.000
;TYPE:Solid infill
;WIDTH:0.465138
G1 X110.605 Y73.841 E0.09171
G1 X110.008 Y73.841 E0.02096
G1 X112.762 Y71.087 E0.13674
G1 X113.134 Y70.440 E0.02620
G1 X113.016 Y70.236 E0.00827
G1 X109.411 Y73.841 E0.17900
G1 X108.814 Y73.841 E0.02096
G1 X112.797 Y69.858 E0.19779
G1 X112.579 Y69.479 E0.01535
G1 X108.216 Y73.841 E0.21659
G1 X107.619 Y73.841 E0.02096
G1 X112.360 Y69.101 E0.23538
G1 X112.142 Y68.722 E0.01535
G1 X107.174 Y73.689 E0.24663
G1 X106.956 Y73.311 E0.01535
G1 X111.923 Y68.344 E0.24663
G1 X111.704 Y67.965 E0.01535
G1 X106.737 Y72.932 E0.24663
G1 X106.519 Y72.554 E0.01535
G1 X111.486 Y67.586 E0.24663
G1 X111.267 Y67.208 E0.01535
G1 X106.300 Y72.175 E0.24663
G1 X106.081 Y71.797 E0.01535
G1 X110.822 Y67.056 E0.23537
G1 X110.225 Y67.056 E0.02096
G1 X105.863 Y71.418 E0.21658
G1 X105.644 Y71.040 E0.01535
G1 X109.628 Y67.056 E0.19778
G1 X109.031 Y67.056 E0.02096
G1 X105.426 Y70.661 E0.17899
G1 X105.303 Y70.449 E0.00861
G1 X105.662 Y69.828 E0.02516
G1 X108.434 Y67.056 E0.13764
G1 X107.837 Y67.056 E0.02096
G1 X105.977 Y68.916 E0.09234
G1 E-4.55000 F3000.000
;WIPE_START
G1 F7200.000
G1 X107.837 Y67.056 E-1.04116
G1 X108.434 Y67.056 E-0.23635
G1 X107.407 Y68.083 E-0.57499
;WIPE_END
G1 E-0.09750 F3000.000
G1 X92.174 Y71.088 F9000.000
G1 E6.50000 F2400.000
;TYPE:Perimeter
;WIDTH:0.45
G1 F1500.000
G1 X90.038 Y74.786 E0.14454
G1 X85.768 Y74.786 E0.14454
G1 X83.633 Y71.088 E0.14454
G1 X85.768 Y67.390 E0.14454
G1 X90.038 Y67.390 E0.14454
G1 X92.144 Y71.036 E0.14251
G1 X92.644 Y71.088 F9000.000
;TYPE:External perimeter
G1 F1500.000
G1 X90.273 Y75.193 E0.16045
G1 X85.533 Y75.193 E0.16045
G1 X83.163 Y71.088 E0.16045
G1 X85.533 Y66.983 E0.16045
G1 X90.273 Y66.983 E0.16045
G1 X92.614 Y71.036 E0.15842
G1 X92.297 Y71.288 F9000.000
G1 E-4.55000 F3000.000
;WIPE_START
G1 F7200.000
G1 X90.318 Y75.114 E-1.85250
;WIPE_END
G1 E-0.09750 F3000.000
G1 X91.134 Y72.634 F9000.000
G1 E6.50000 F2400.000
;TYPE:Solid infill
;WIDTH:0.465138
G1 X89.287 Y74.481 E0.09171
G1 X88.690 Y74.481 E0.02096
G1 X91.444 Y71.727 E0.13674
G1 X91.816 Y71.080 E0.02620
G1 X91.698 Y70.876 E0.00827
G1 X88.093 Y74.481 E0.17900
G1 X87.496 Y74.481 E0.02096
G1 X91.480 Y70.497 E0.19779
G1 X91.261 Y70.119 E0.01535
G1 X86.899 Y74.481 E0.21659
G1 X86.302 Y74.481 E0.02096
G1 X91.043 Y69.740 E0.23538
G1 X90.824 Y69.362 E0.01535
G1 X85.857 Y74.329 E0.24663
G1 X85.638 Y73.950 E0.01535
G1 X90.606 Y68.983 E0.24663
G1 X90.387 Y68.604 E0.01535
G1 X85.420 Y73.572 E0.24663
G1 X85.201 Y73.193 E0.01535
G1 X90.168 Y68.226 E0.24663
G1 X89.950 Y67.847 E0.01535
G1 X84.983 Y72.815 E0.24663
G1 X84.764 Y72.436 E0.01535
G1 X89.505 Y67.695 E0.23537
G1 X88.908 Y67.695 E0.02096
G1 X84.545 Y72.058 E0.21658
G1 X84.327 Y71.679 E0.01535
G1 X88.310 Y67.695 E0.19778
G1 X87.713 Y67.695 E0.02096
G1 X84.108 Y71.300 E0.17899
G1 X83.986 Y71.088 E0.00861
G1 X84.344 Y70.468 E0.02516
G1 X87.116 Y67.695 E0.13764
G1 X86.519 Y67.695 E0.02096
G1 X84.659 Y69.555 E0.09234
;LAYER_CHANGE
;Z:0.6
;HEIGHT:0.2
;BEFORE_LAYER_CHANGE
G92 E0
;0.6


G1 E-4.55000 F3000.000
;WIPE_START
G1 F7200.000
G1 X86.519 Y67.695 E-1.04116
G1 X87.116 Y67.695 E-0.23635
G1 X86.089 Y68.723 E-0.57499
;WIPE_END
G1 E-0.09750 F3000.000
G1 Z0.600 F9000.000
;AFTER_LAYER_CHANGE
;0.6
G1 X127.084 Y70.856
G1 E6.50000 F2400.000
;TYPE:Perimeter
;WIDTH:0.45
G1 F1500.000
G1 X129.219 Y67.157 E0.14454
G1 X133.489 Y67.157 E0.14454
G1 X135.624 Y70.856 E0.14454
G1 X133.489 Y74.554 E0.14454
G1 X129.219 Y74.554 E0.14454
G1 X127.114 Y70.907 E0.14251
G1 X126.614 Y70.856 F9000.000
;TYPE:External perimeter
G1 F1500.000
G1 X128.984 Y66.750 E0.16045
G1 X133.724 Y66.750 E0.16045
G1 X136.094 Y70.856 E0.16045
G1 X133.724 Y74.961 E0.16045
G1 X128.984 Y74.961 E0.16045
G1 X126.644 Y70.907 E0.15842
G1 X126.960 Y70.656 F9000.000
G1 E-4.55000 F3000.000
;WIPE_START
G1 F7200.000
G1 X128.940 Y66.829 E-1.85250
;WIPE_END
G1 E-0.09750 F3000.000
G1 X134.598 Y69.323 F9000.000
G1 E6.50000 F2400.000
;TYPE:Solid infill
;WIDTH:0.465144
G1 F1975
