; generated by PrusaSlicer 2.3.3+x64 on 2021-12-11 at 18:55:00 UTC

; 

; external perimeters extrusion width = 0.45mm
; perimeters extrusion width = 0.45mm
; infill extrusion width = 0.45mm
; solid infill extrusion width = 0.45mm
; top infill extrusion width = 0.40mm
; first layer extrusion width = 0.42mm

M201 X500 Y500 Z100 E5000 ; sets maximum accelerations, mm/sec^2
M203 X500 Y500 Z10 E60 ; sets maximum feedrates, mm/sec
M204 P500 R1000 T500 ; sets acceleration (P, T) and retract acceleration (R), mm/sec^2
M205 X8.00 Y8.00 Z0.40 E5.00 ; sets the jerk limits, mm/sec
M205 S0 T0 ; sets the minimum extruding and travel feed rate, mm/sec
M107
;TYPE:Custom
G90 ; use absolute coordinates
M83 ; extruder relative mode
M104 S200 ; set extruder temp
M140 S60 ; set bed temp
M190 S60 ; wait for bed temp
M109 S200 ; wait for extruder temp
G28 ; home all
G29 ; Bed-Level
G1 Z2 F240
G1 X2 Y10 F3000
G1 Z0.28 F240
G92 E0
G1 Y190 E15 F1500 ; intro line
G1 X2.3 F5000
G92 E0
G1 Y10 E15 F1200 ; intro line
G92 E0
G21 ; set units to millimeters
G90 ; use absolute coordinates
M83 ; use relative distances for extrusion
; Filament gcode
;LAYER_CHANGE
;Z:0.2
;HEIGHT:0.2
;BEFORE_LAYER_CHANGE
G92 E0
;0.2


G1 E-6.50000 F3000.000
G1 Z0.200 F9000.000
;AFTER_LAYER_CHANGE
;0.2
G1 X76.577 Y63.830
G1 E6.50000 F2400.000
;TYPE:Skirt
;WIDTH:0.42
G1 F1200.000
G1 X76.923 Y63.223 E0.02190
G1 X85.138 Y52.952 E0.41236
G1 X86.787 Y51.128 E0.07713
G1 X88.107 Y49.982 E0.05481
G1 X89.545 Y48.969 E0.05514
G1 X91.699 Y47.813 E0.07665
G1 X93.352 Y47.168 E0.05563
G1 X95.034 Y46.704 E0.05469
G1 X96.732 Y46.412 E0.05404
G1 X99.167 Y46.290 E0.07644
G1 X139.998 Y48.269 E1.28173
G1 X141.589 Y48.463 E0.05024
G1 X143.098 Y48.798 E0.04846
G1 X145.451 Y49.633 E0.07828
G1 X146.861 Y50.342 E0.04950
G1 X148.229 Y51.205 E0.05071
G1 X149.489 Y52.186 E0.05009
G1 X150.662 Y53.300 E0.05070
G1 X151.710 Y54.513 E0.05028
G1 X152.637 Y55.826 E0.05039
G1 X153.431 Y57.223 E0.05039
G1 X154.085 Y58.695 E0.05051
G1 X154.589 Y60.217 E0.05027
G1 X154.943 Y61.785 E0.05039
G1 X155.142 Y63.380 E0.05040
G1 X155.183 Y64.990 E0.05050
G1 X155.067 Y66.590 E0.05027
G1 X154.793 Y68.177 E0.05052
G1 X154.366 Y69.726 E0.05038
G1 X153.777 Y71.251 E0.05123
G1 X152.654 Y73.353 E0.07472
G1 X151.223 Y75.286 E0.07544
G1 X149.524 Y76.990 E0.07543
G1 X147.635 Y78.398 E0.07388
G1 X146.136 Y79.249 E0.05405
G1 X143.914 Y80.164 E0.07535
G1 X141.625 Y80.736 E0.07399
G1 X139.238 Y80.974 E0.07521
G1 X98.464 Y81.035 E1.27844
G1 X96.717 Y80.912 E0.05490
G1 X94.977 Y80.608 E0.05538
G1 X92.607 Y79.890 E0.07767
G1 X77.724 Y73.889 E0.50315
G1 X77.133 Y73.539 E0.02154
G1 X76.783 Y73.190 E0.01550
G1 X76.513 Y72.776 E0.01550
G1 X76.334 Y72.315 E0.01550
G1 X76.254 Y71.827 E0.01550
G1 X76.417 Y64.598 E0.22673
G1 X76.564 Y63.888 E0.02273
G1 E-4.55000 F3000.000
;WIPE_START
G1 F7200.000
G1 X76.923 Y63.223 E-0.29910
G1 X79.374 Y60.158 E-1.55340
;WIPE_END
G1 E-0.09750 F3000.000
G1 X79.463 Y65.395 F9000.000
G1 E6.50000 F2400.000
;TYPE:Perimeter
G1 F1200.000
G1 X84.588 Y65.515 E0.16075
G1 X84.514 Y64.028 E0.04668
G1 X84.513 Y63.326 E0.02203
G1 X84.547 Y62.624 E0.02203
G1 X84.615 Y61.925 E0.02203
G1 X84.717 Y61.230 E0.02203
G1 X84.853 Y60.541 E0.02203
G1 X85.023 Y59.859 E0.02202
G1 X85.227 Y59.187 E0.02203
G1 X85.463 Y58.525 E0.02203
G1 X85.731 Y57.876 E0.02203
G1 X86.030 Y57.241 E0.02203
G1 X86.363 Y56.617 E0.02217
G1 X86.722 Y56.018 E0.02189
G1 X87.111 Y55.433 E0.02203
G1 X87.529 Y54.868 E0.02203
G1 X87.974 Y54.325 E0.02203
G1 X88.445 Y53.804 E0.02203
G1 X88.942 Y53.307 E0.02203
G1 X89.462 Y52.834 E0.02203
G1 X90.004 Y52.388 E0.02203
G1 X90.568 Y51.969 E0.02203
G1 X91.152 Y51.578 E0.02203
G1 X91.754 Y51.216 E0.02203
G1 X92.373 Y50.885 E0.02203
G1 X93.008 Y50.584 E0.02203
G1 X93.657 Y50.314 E0.02203
G1 X94.318 Y50.077 E0.02203
G1 X94.990 Y49.872 E0.02203
G1 X95.671 Y49.701 E0.02203
G1 X96.360 Y49.563 E0.02202
G1 X97.055 Y49.459 E0.02203
G1 X97.754 Y49.390 E0.02203
G1 X98.451 Y49.355 E0.02188
G1 X99.504 Y49.371 E0.03302
G1 X100.564 Y49.456 E0.03334
G1 X101.254 Y49.558 E0.02188
G1 X101.943 Y49.694 E0.02203
G1 X102.625 Y49.864 E0.02203
G1 X103.297 Y50.068 E0.02203
G1 X103.959 Y50.303 E0.02203
G1 X104.608 Y50.572 E0.02203
G1 X105.244 Y50.871 E0.02203
G1 X105.863 Y51.202 E0.02203
G1 X106.466 Y51.562 E0.02203
G1 X107.051 Y51.952 E0.02203
G1 X107.609 Y52.365 E0.02178
G1 X108.159 Y52.815 E0.02228
G1 X108.680 Y53.286 E0.02202
G1 X109.177 Y53.783 E0.02203
G1 X109.650 Y54.303 E0.02203
G1 X110.096 Y54.845 E0.02203
G1 X110.515 Y55.409 E0.02202
G1 X110.906 Y55.993 E0.02203
G1 X111.268 Y56.595 E0.02203
G1 X111.599 Y57.214 E0.02203
G1 X111.900 Y57.849 E0.02203
G1 X112.170 Y58.498 E0.02203
G1 X112.407 Y59.159 E0.02203
G1 X112.612 Y59.831 E0.02203
G1 X112.783 Y60.512 E0.02203
G1 X112.921 Y61.201 E0.02203
G1 X113.025 Y61.896 E0.02203
G1 X113.094 Y62.595 E0.02203
G1 X113.130 Y63.296 E0.02203
G1 X113.130 Y63.999 E0.02203
G1 X113.097 Y64.701 E0.02203
G1 X112.952 Y66.182 E0.04668
G1 X118.078 Y66.303 E0.16075
G1 X117.945 Y71.927 E0.17639
G1 X110.633 Y71.755 E0.22934
G1 X110.114 Y72.456 E0.02735
G1 X109.669 Y73.000 E0.02203
G1 X109.198 Y73.521 E0.02203
G1 X108.701 Y74.018 E0.02203
G1 X108.181 Y74.491 E0.02203
G1 X107.639 Y74.937 E0.02203
G1 X107.075 Y75.356 E0.02203
G1 X106.491 Y75.747 E0.02203
G1 X105.889 Y76.108 E0.02203
G1 X105.270 Y76.440 E0.02203
G1 X104.635 Y76.741 E0.02203
G1 X103.986 Y77.011 E0.02203
G1 X103.325 Y77.248 E0.02203
G1 X102.653 Y77.453 E0.02203
G1 X101.972 Y77.624 E0.02203
G1 X101.283 Y77.762 E0.02203
G1 X100.588 Y77.866 E0.02203
G1 X99.889 Y77.935 E0.02203
G1 X99.188 Y77.970 E0.02203
G1 X98.485 Y77.971 E0.02203
G1 X97.783 Y77.937 E0.02203
G1 X97.084 Y77.869 E0.02203
G1 X96.389 Y77.767 E0.02203
G1 X95.700 Y77.631 E0.02203
G1 X95.018 Y77.461 E0.02203
G1 X94.346 Y77.257 E0.02203
G1 X93.684 Y77.021 E0.02203
G1 X93.035 Y76.753 E0.02203
G1 X92.400 Y76.454 E0.02203
G1 X91.780 Y76.123 E0.02203
G1 X91.177 Y75.762 E0.02203
G1 X90.592 Y75.373 E0.02203
G1 X90.028 Y74.955 E0.02203
G1 X89.484 Y74.510 E0.02203
G1 X88.963 Y74.039 E0.02203
G1 X88.466 Y73.542 E0.02203
G1 X87.993 Y73.022 E0.02203
G1 X87.547 Y72.480 E0.02203
G1 X87.128 Y71.916 E0.02203
G1 X86.643 Y71.191 E0.02735
G1 X79.330 Y71.019 E0.22934
G1 X79.461 Y65.455 E0.17451
G1 E-4.55000 F3000.000
;WIPE_START
G1 F7200.000
G1 X84.141 Y65.510 E-1.85250
;WIPE_END
G1 E-0.09750 F3000.000
G1 X113.367 Y65.815 F9000.000
G1 E6.50000 F2400.000
;TYPE:External perimeter
G1 F1200.000
G1 X118.464 Y65.935 E0.15985
G1 X118.314 Y72.313 E0.20004
G1 X110.820 Y72.137 E0.23503
G1 X110.412 Y72.688 E0.02151
G1 X109.955 Y73.246 E0.02261
G1 X109.471 Y73.781 E0.02261
G1 X108.962 Y74.291 E0.02261
G1 X108.428 Y74.776 E0.02261
G1 X107.871 Y75.234 E0.02261
G1 X107.292 Y75.664 E0.02261
G1 X106.693 Y76.065 E0.02261
G1 X106.075 Y76.436 E0.02261
G1 X105.440 Y76.777 E0.02261
G1 X104.788 Y77.086 E0.02261
G1 X104.122 Y77.363 E0.02261
G1 X103.444 Y77.606 E0.02261
G1 X102.754 Y77.816 E0.02261
G1 X102.055 Y77.992 E0.02261
G1 X101.348 Y78.134 E0.02261
G1 X100.635 Y78.240 E0.02261
G1 X99.917 Y78.311 E0.02261
G1 X99.197 Y78.348 E0.02261
G1 X98.476 Y78.348 E0.02261
G1 X97.756 Y78.314 E0.02261
G1 X97.038 Y78.244 E0.02261
G1 X96.325 Y78.139 E0.02261
G1 X95.618 Y77.999 E0.02261
G1 X94.918 Y77.824 E0.02261
G1 X94.228 Y77.616 E0.02261
G1 X93.549 Y77.374 E0.02261
G1 X92.882 Y77.098 E0.02261
G1 X92.230 Y76.791 E0.02261
G1 X91.594 Y76.451 E0.02261
G1 X90.975 Y76.081 E0.02261
G1 X90.375 Y75.681 E0.02261
G1 X89.796 Y75.252 E0.02261
G1 X89.238 Y74.796 E0.02261
G1 X88.703 Y74.312 E0.02261
G1 X88.193 Y73.803 E0.02261
G1 X87.708 Y73.269 E0.02261
G1 X87.250 Y72.712 E0.02261
G1 X86.820 Y72.133 E0.02261
G1 X86.438 Y71.564 E0.02151
G1 X78.944 Y71.387 E0.23503
G1 X79.094 Y65.009 E0.20004
G1 X84.191 Y65.129 E0.15985
G1 X84.136 Y64.038 E0.03424
G1 X84.136 Y63.317 E0.02261
G1 X84.170 Y62.597 E0.02261
G1 X84.240 Y61.879 E0.02261
G1 X84.345 Y61.166 E0.02261
G1 X84.485 Y60.459 E0.02261
G1 X84.660 Y59.759 E0.02261
G1 X84.868 Y59.069 E0.02261
G1 X85.110 Y58.390 E0.02261
G1 X85.386 Y57.723 E0.02261
G1 X85.693 Y57.071 E0.02261
G1 X86.035 Y56.431 E0.02275
G1 X86.403 Y55.816 E0.02247
G1 X86.803 Y55.216 E0.02261
G1 X87.232 Y54.637 E0.02261
G1 X87.688 Y54.079 E0.02261
G1 X88.172 Y53.544 E0.02261
G1 X88.681 Y53.034 E0.02261
G1 X89.215 Y52.549 E0.02261
G1 X89.772 Y52.091 E0.02261
G1 X90.351 Y51.661 E0.02261
G1 X90.950 Y51.260 E0.02261
G1 X91.568 Y50.888 E0.02261
G1 X92.203 Y50.548 E0.02261
G1 X92.855 Y50.239 E0.02261
G1 X93.521 Y49.962 E0.02261
G1 X94.199 Y49.719 E0.02261
G1 X94.889 Y49.509 E0.02261
G1 X95.588 Y49.333 E0.02261
G1 X96.295 Y49.191 E0.02261
G1 X97.008 Y49.085 E0.02261
G1 X97.726 Y49.013 E0.02261
G1 X98.444 Y48.977 E0.02255
G1 X99.522 Y48.994 E0.03379
G1 X100.606 Y49.081 E0.03412
G1 X101.318 Y49.186 E0.02255
G1 X102.025 Y49.326 E0.02261
G1 X102.725 Y49.501 E0.02261
G1 X103.415 Y49.709 E0.02261
G1 X104.094 Y49.951 E0.02261
G1 X104.761 Y50.227 E0.02261
G1 X105.413 Y50.534 E0.02261
G1 X106.049 Y50.874 E0.02261
G1 X106.668 Y51.244 E0.02261
G1 X107.268 Y51.644 E0.02261
G1 X107.841 Y52.068 E0.02236
G1 X108.405 Y52.529 E0.02286
G1 X108.940 Y53.013 E0.02261
G1 X109.450 Y53.522 E0.02261
G1 X109.935 Y54.056 E0.02261
G1 X110.393 Y54.613 E0.02261
G1 X110.823 Y55.192 E0.02261
G1 X111.224 Y55.791 E0.02261
G1 X111.596 Y56.409 E0.02261
G1 X111.936 Y57.044 E0.02261
G1 X112.245 Y57.696 E0.02261
G1 X112.522 Y58.362 E0.02261
G1 X112.765 Y59.040 E0.02261
G1 X112.975 Y59.730 E0.02261
G1 X113.151 Y60.429 E0.02261
G1 X113.293 Y61.136 E0.02261
G1 X113.399 Y61.849 E0.02261
G1 X113.471 Y62.567 E0.02261
G1 X113.507 Y63.287 E0.02261
G1 X113.507 Y64.008 E0.02261
G1 X113.473 Y64.728 E0.02261
G1 X113.373 Y65.755 E0.03236
G1 X113.350 Y66.215 F9000.000
G1 E-4.55000 F3000.000
;WIPE_START
G1 F7200.000
G1 X118.050 Y65.920 E-1.85250
;WIPE_END
G1 E-0.09750 F3000.000
G1 X117.085 Y66.393 F9000.000
G1 E6.50000 F2400.000
;TYPE:Solid infill
;WIDTH:0.422984
G1 F1200.000
G1 X117.776 Y67.084 E0.03088
G1 X117.764 Y67.609 E0.01660
G1 X116.709 Y66.554 E0.04716
G1 X116.158 Y66.541 E0.01740
G1 X117.752 Y68.134 E0.07121
G1 X117.739 Y68.659 E0.01660
G1 X115.608 Y66.528 E0.09526
G1 X115.058 Y66.515 E0.01740
G1 X117.727 Y69.184 E0.11931
G1 X117.715 Y69.710 E0.01660
G1 X114.507 Y66.502 E0.14336
G1 X113.957 Y66.489 E0.01740
G1 X117.702 Y70.235 E0.16740
G1 X117.690 Y70.760 E0.01660
G1 X113.232 Y66.302 E0.19922
G1 E-4.55000 F3000.000
;WIPE_START
G1 F7200.000
G1 X116.542 Y69.611 E-1.85250
;WIPE_END
G1 E-0.09750 F3000.000
G1 X107.184 Y52.191 F9000.000
G1 E6.50000 F2400.000
G1 F1200.000
G1 X108.994 Y54.002 E0.08090
G1 X109.436 Y54.488 E0.02075
G1 X109.873 Y55.019 E0.02176
G1 X110.284 Y55.572 E0.02176
G1 X110.768 Y56.313 E0.02799
G1 X106.170 Y51.715 E0.20553
G1 X105.724 Y51.448 E0.01640
G1 X104.975 Y51.057 E0.02670
G1 X111.426 Y57.508 E0.28830
G1 X111.642 Y57.964 E0.01593
G1 X111.854 Y58.474 E0.01744
G1 X104.011 Y50.631 E0.35050
G1 X103.166 Y50.323 E0.02843
G1 X112.160 Y59.317 E0.40196
G1 X112.382 Y60.077 E0.02502
G1 X102.406 Y50.101 E0.44584
G1 X101.703 Y49.935 E0.02285
G1 X112.549 Y60.781 E0.48474
G1 X112.671 Y61.441 E0.02120
G1 X101.043 Y49.813 E0.51969
G1 X100.421 Y49.728 E0.01983
G1 X112.757 Y62.065 E0.55134
G1 X112.814 Y62.659 E0.01888
G1 X99.836 Y49.681 E0.58002
G1 X99.268 Y49.650 E0.01800
G1 X112.843 Y63.225 E0.60671
G1 X112.847 Y63.767 E0.01713
G1 X98.722 Y49.642 E0.63130
G1 X98.193 Y49.651 E0.01670
G1 X112.833 Y64.290 E0.65429
G1 X112.803 Y64.798 E0.01606
G1 X97.686 Y49.681 E0.67563
G1 X97.197 Y49.729 E0.01552
G1 X112.755 Y65.288 E0.69534
G1 X112.708 Y65.777 E0.01555
G1 X96.725 Y49.794 E0.71432
G1 X96.263 Y49.871 E0.01477
G1 X117.678 Y71.285 E0.95706
G1 X117.669 Y71.638 E0.01116
G1 X117.489 Y71.634 E0.00570
G1 X95.816 Y49.960 E0.96864
G1 X95.383 Y50.065 E0.01407
G1 X116.939 Y71.621 E0.96339
G1 X116.388 Y71.608 E0.01740
G1 X94.958 Y50.178 E0.95777
G1 X94.546 Y50.303 E0.01361
G1 X115.838 Y71.595 E0.95159
G1 X115.287 Y71.582 E0.01740
G1 X94.145 Y50.439 E0.94491
G1 X93.750 Y50.582 E0.01327
G1 X114.737 Y71.569 E0.93797
G1 X114.186 Y71.556 E0.01740
G1 X93.370 Y50.740 E0.93034
G1 X92.995 Y50.903 E0.01291
G1 X113.636 Y71.543 E0.92248
G1 X113.085 Y71.530 E0.01740
G1 X92.631 Y51.075 E0.91417
G1 X92.276 Y51.258 E0.01262
G1 X112.535 Y71.517 E0.90545
G1 X111.985 Y71.504 E0.01740
G1 X91.926 Y51.445 E0.89649
G1 X91.589 Y51.646 E0.01239
G1 X111.434 Y71.491 E0.88695
G1 X110.884 Y71.478 E0.01740
G1 X91.255 Y51.850 E0.87726
G1 X90.933 Y52.065 E0.01224
G1 X110.427 Y71.559 E0.87122
G1 X110.198 Y71.868 E0.01214
G1 X90.616 Y52.286 E0.87516
G1 X90.308 Y52.515 E0.01214
G1 X109.969 Y72.176 E0.87873
G1 X109.732 Y72.477 E0.01209
G1 X90.007 Y52.752 E0.88155
G1 X89.712 Y52.994 E0.01207
G1 X109.490 Y72.772 E0.88392
G1 X109.237 Y73.056 E0.01203
G1 X89.428 Y53.247 E0.88532
G1 X89.146 Y53.503 E0.01202
G1 X108.981 Y73.338 E0.88647
G1 X108.712 Y73.607 E0.01201
G1 X88.877 Y53.772 E0.88649
G1 X88.611 Y54.043 E0.01201
G1 X108.441 Y73.873 E0.88626
G1 X108.159 Y74.129 E0.01202
G1 X88.355 Y54.325 E0.88508
G1 X88.105 Y54.612 E0.01204
G1 X107.872 Y74.379 E0.88345
G1 X107.577 Y74.622 E0.01207
G1 X87.863 Y54.907 E0.88108
G1 X87.628 Y55.210 E0.01211
G1 X107.274 Y74.856 E0.87802
G1 X106.965 Y75.085 E0.01214
G1 X87.399 Y55.519 E0.87445
G1 X87.181 Y55.838 E0.01222
G1 X106.646 Y75.303 E0.86993
G1 X106.323 Y75.518 E0.01225
G1 X86.966 Y56.161 E0.86512
G1 X86.765 Y56.497 E0.01238
G1 X105.987 Y75.719 E0.85912
G1 X105.648 Y75.917 E0.01242
G1 X86.567 Y56.836 E0.85277
G1 X86.380 Y57.187 E0.01255
G1 X105.298 Y76.105 E0.84549
G1 X104.939 Y76.284 E0.01266
G1 X86.200 Y57.544 E0.83752
G1 X86.028 Y57.910 E0.01276
G1 X104.575 Y76.457 E0.82893
G1 X104.197 Y76.617 E0.01296
G1 X85.867 Y58.287 E0.81923
G1 X85.712 Y58.669 E0.01303
G1 X103.815 Y76.772 E0.80908
G1 X103.419 Y76.914 E0.01328
G1 X85.570 Y59.065 E0.79772
G1 X85.437 Y59.469 E0.01345
G1 X103.015 Y77.047 E0.78562
G1 X102.603 Y77.172 E0.01361
G1 X85.312 Y59.881 E0.77278
G1 X85.203 Y60.309 E0.01396
G1 X102.175 Y77.282 E0.75853
G1 X101.738 Y77.383 E0.01416
G1 X85.101 Y60.746 E0.74355
G1 X85.012 Y61.194 E0.01446
G1 X101.290 Y77.472 E0.72750
G1 X100.825 Y77.544 E0.01488
G1 X84.940 Y61.659 E0.70996
G1 X84.878 Y62.135 E0.01517
G1 X100.348 Y77.605 E0.69140
G1 X99.859 Y77.654 E0.01553
G1 X84.831 Y62.625 E0.67167
G1 X84.805 Y63.137 E0.01620
G1 X99.347 Y77.679 E0.64994
G1 X98.819 Y77.688 E0.01671
G1 X84.796 Y63.665 E0.62671
G1 X84.806 Y64.213 E0.01730
G1 X98.271 Y77.678 E0.60179
G1 X97.701 Y77.645 E0.01804
G1 X84.834 Y64.779 E0.57505
G1 X84.863 Y65.344 E0.01790
G1 X97.105 Y77.587 E0.54713
G1 X96.474 Y77.494 E0.02014
G1 X84.784 Y65.803 E0.52249
G1 X84.233 Y65.790 E0.01740
G1 X95.807 Y77.363 E0.51725
G1 X95.094 Y77.188 E0.02320
G1 X83.683 Y65.777 E0.50999
G1 X83.132 Y65.764 E0.01740
G1 X94.314 Y76.946 E0.49974
G1 X93.449 Y76.618 E0.02923
G1 X82.582 Y65.751 E0.48569
G1 X82.031 Y65.738 E0.01740
G1 X92.457 Y76.164 E0.46594
G1 X91.919 Y75.877 E0.01926
G1 X91.181 Y75.426 E0.02732
G1 X81.481 Y65.725 E0.43354
G1 X80.930 Y65.712 E0.01740
G1 X86.114 Y70.896 E0.23167
G1 X85.564 Y70.883 E0.01740
G1 X80.380 Y65.699 E0.23167
G1 X79.830 Y65.686 E0.01740
G1 X85.013 Y70.870 E0.23167
G1 X84.463 Y70.857 E0.01740
G1 X79.728 Y66.123 E0.21159
G1 X79.716 Y66.648 E0.01660
G1 X83.912 Y70.844 E0.18755
G1 X83.362 Y70.831 E0.01740
G1 X79.704 Y67.173 E0.16350
G1 X79.691 Y67.698 E0.01660
G1 X82.811 Y70.818 E0.13945
G1 X82.261 Y70.805 E0.01740
G1 X79.679 Y68.223 E0.11540
G1 X79.667 Y68.748 E0.01660
G1 X81.711 Y70.792 E0.09135
G1 X81.160 Y70.779 E0.01740
G1 X79.654 Y69.273 E0.06730
G1 X79.642 Y69.799 E0.01660
G1 X80.610 Y70.766 E0.04326
G1 X80.059 Y70.753 E0.01740
G1 X79.464 Y70.158 E0.02662
G1 E-4.55000 F3000.000
;WIPE_START
G1 F7200.000
G1 X80.059 Y70.753 E-0.33341
G1 X80.610 Y70.766 E-0.21794
G1 X79.642 Y69.799 E-0.54179
G1 X79.654 Y69.273 E-0.20793
G1 X80.639 Y70.258 E-0.55143
;WIPE_END
G1 E-0.09750 F3000.000
G1 X125.535 Y65.596 F9000.000
G1 E6.50000 F2400.000
;TYPE:Perimeter
;WIDTH:0.42
G1 F1200.000
G1 X125.502 Y64.943 E0.02049
G1 X125.501 Y64.290 E0.02049
G1 X125.533 Y63.637 E0.02049
G1 X125.596 Y62.987 E0.02049
