; generated by PrusaSlicer 2.3.3+x64 on 2021-09-24 at 20:25:09 UTC

; 

; external perimeters extrusion width = 0.45mm
; perimeters extrusion width = 0.45mm
; infill extrusion width = 0.45mm
; solid infill extrusion width = 0.45mm
; top infill extrusion width = 0.40mm
; first layer extrusion width = 0.42mm

M201 X500 Y500 Z100 E5000 ; sets maximum accelerations, mm/sec^2
M203 X500 Y500 Z10 E60 ; sets maximum feedrates, mm/sec
M204 P500 R1000 T500 ; sets acceleration (P, T) and retract acceleration (R), mm/sec^2
M205 X8.00 Y8.00 Z0.40 E5.00 ; sets the jerk limits, mm/sec
M205 S0 T0 ; sets the minimum extruding and travel feed rate, mm/sec
M107
;TYPE:Custom
G90 ; use absolute coordinates
M83 ; extruder relative mode
M104 S200 ; set extruder temp
M140 S60 ; set bed temp
M190 S60 ; wait for bed temp
M109 S200 ; wait for extruder temp
G28 ; home all
G29 ; Level Bed
G1 Z2 F240
G1 X2 Y10 F3000
G1 Z0.28 F240
G92 E0
G1 Y190 E15 F1500 ; intro line
G1 X2.3 F5000
G92 E0
G1 Y10 E15 F1200 ; intro line
G92 E0
G21 ; set units to millimeters
G90 ; use absolute coordinates
M83 ; use relative distances for extrusion
; Filament gcode
;LAYER_CHANGE
;Z:0.2
;HEIGHT:0.2
;BEFORE_LAYER_CHANGE
G92 E0
;0.2


G1 E-6.50000 F3000.000
G1 Z0.200 F9000.000
;AFTER_LAYER_CHANGE
;0.2
G1 X62.870 Y47.343
G1 E6.50000 F2400.000
;TYPE:Skirt
;WIDTH:0.42
G1 F1200.000
G1 X63.559 Y47.229 E0.02190
G1 X88.602 Y47.228 E0.78520
G1 X173.297 Y47.596 E2.65559
G1 X173.995 Y47.863 E0.02343
G1 X174.576 Y48.333 E0.02343
G1 X174.982 Y48.961 E0.02343
G1 X175.173 Y49.679 E0.02331
G1 X175.134 Y65.410 E0.49324
G1 X174.839 Y66.157 E0.02520
G1 X174.311 Y66.764 E0.02520
G1 X173.612 Y67.159 E0.02520
G1 X172.820 Y67.299 E0.02520
G1 X147.799 Y67.299 E0.78453
G1 X63.570 Y66.982 E2.64097
G1 X63.008 Y66.908 E0.01775
G1 X62.484 Y66.705 E0.01763
G1 X62.022 Y66.385 E0.01763
G1 X61.646 Y65.962 E0.01775
G1 X61.339 Y65.347 E0.02154
G1 X61.221 Y64.666 E0.02166
G1 X61.222 Y49.529 E0.47461
G1 X61.303 Y48.984 E0.01728
G1 X61.508 Y48.473 E0.01728
G1 X61.828 Y48.019 E0.01740
G1 X62.240 Y47.654 E0.01728
G1 X62.816 Y47.369 E0.02013
G1 E-4.55000 F3000.000
;WIPE_START
G1 F7200.000
G1 X63.559 Y47.229 E-0.29922
G1 X67.483 Y47.229 E-1.55328
;WIPE_END
G1 E-0.09750 F3000.000
G1 X64.285 Y50.293 F9000.000
G1 E6.50000 F2400.000
;TYPE:Perimeter
G1 F1200.000
G1 X87.911 Y50.293 E0.74077
G1 X87.911 Y63.918 E0.42723
G1 X64.285 Y63.918 E0.74077
G1 X64.285 Y50.353 E0.42535
G1 X63.908 Y49.915 F9000.000
;TYPE:External perimeter
G1 F1200.000
G1 X88.288 Y49.915 E0.76442
G1 X88.288 Y64.295 E0.45087
G1 X63.908 Y64.295 E0.76442
G1 X63.908 Y49.975 E0.44899
G1 X64.301 Y49.986 F9000.000
G1 E-4.55000 F3000.000
;WIPE_START
G1 F7200.000
G1 X68.588 Y49.964 E-1.85250
;WIPE_END
G1 E-0.09750 F3000.000
G1 X87.034 Y50.406 F9000.000
G1 E6.50000 F2400.000
;TYPE:Solid infill
;WIDTH:0.420808
G1 F1200.000
G1 X87.628 Y51.000 E0.02641
G1 X87.628 Y51.534 E0.01679
G1 X86.669 Y50.575 E0.04262
G1 X86.134 Y50.575 E0.01679
G1 X87.628 Y52.069 E0.06636
G1 X87.628 Y52.603 E0.01679
G1 X85.600 Y50.575 E0.09011
G1 X85.066 Y50.575 E0.01679
G1 X87.628 Y53.138 E0.11386
G1 X87.628 Y53.672 E0.01679
G1 X84.531 Y50.575 E0.13761
G1 X83.997 Y50.575 E0.01679
G1 X87.628 Y54.206 E0.16135
G1 X87.628 Y54.741 E0.01679
G1 X83.462 Y50.575 E0.18510
G1 X82.928 Y50.575 E0.01679
G1 X87.628 Y55.275 E0.20885
G1 X87.628 Y55.810 E0.01679
G1 X82.394 Y50.575 E0.23260
G1 X81.859 Y50.575 E0.01679
G1 X87.628 Y56.344 E0.25634
G1 X87.628 Y56.879 E0.01679
G1 X81.325 Y50.575 E0.28009
G1 X80.790 Y50.575 E0.01679
G1 X87.628 Y57.413 E0.30384
G1 X87.628 Y57.947 E0.01679
G1 X80.256 Y50.575 E0.32759
G1 X79.721 Y50.575 E0.01679
G1 X87.628 Y58.482 E0.35134
G1 X87.628 Y59.016 E0.01679
G1 X79.187 Y50.575 E0.37508
G1 X78.653 Y50.575 E0.01679
G1 X87.628 Y59.551 E0.39883
G1 X87.628 Y60.085 E0.01679
G1 X78.118 Y50.575 E0.42258
G1 X77.584 Y50.575 E0.01679
G1 X87.628 Y60.619 E0.44633
G1 X87.628 Y61.154 E0.01679
G1 X77.049 Y50.575 E0.47007
G1 X76.515 Y50.575 E0.01679
G1 X87.628 Y61.688 E0.49382
G1 X87.628 Y62.223 E0.01679
G1 X75.981 Y50.575 E0.51757
G1 X75.446 Y50.575 E0.01679
G1 X87.628 Y62.757 E0.54132
G1 X87.628 Y63.292 E0.01679
G1 X74.912 Y50.575 E0.56506
G1 X74.377 Y50.575 E0.01679
G1 X87.438 Y63.636 E0.58035
G1 X86.903 Y63.636 E0.01679
G1 X73.843 Y50.575 E0.58035
G1 X73.309 Y50.575 E0.01679
G1 X86.369 Y63.636 E0.58035
G1 X85.834 Y63.636 E0.01679
G1 X72.774 Y50.575 E0.58035
G1 X72.240 Y50.575 E0.01679
G1 X85.300 Y63.636 E0.58035
G1 X84.766 Y63.636 E0.01679
G1 X71.705 Y50.575 E0.58035
G1 X71.171 Y50.575 E0.01679
G1 X84.231 Y63.636 E0.58035
G1 X83.697 Y63.636 E0.01679
G1 X70.636 Y50.575 E0.58035
G1 X70.102 Y50.575 E0.01679
G1 X83.162 Y63.636 E0.58035
G1 X82.628 Y63.636 E0.01679
G1 X69.568 Y50.575 E0.58035
G1 X69.033 Y50.575 E0.01679
G1 X82.093 Y63.636 E0.58035
G1 X81.559 Y63.636 E0.01679
G1 X68.499 Y50.575 E0.58035
G1 X67.964 Y50.575 E0.01679
G1 X81.025 Y63.636 E0.58035
G1 X80.490 Y63.636 E0.01679
G1 X67.430 Y50.575 E0.58035
G1 X66.896 Y50.575 E0.01679
G1 X79.956 Y63.636 E0.58035
G1 X79.421 Y63.636 E0.01679
G1 X66.361 Y50.575 E0.58035
G1 X65.827 Y50.575 E0.01679
G1 X78.887 Y63.636 E0.58035
G1 X78.353 Y63.636 E0.01679
G1 X65.292 Y50.575 E0.58035
G1 X64.758 Y50.575 E0.01679
G1 X77.818 Y63.636 E0.58035
G1 X77.284 Y63.636 E0.01679
G1 X64.568 Y50.920 E0.56506
G1 X64.568 Y51.454 E0.01679
G1 X76.749 Y63.636 E0.54131
G1 X76.215 Y63.636 E0.01679
G1 X64.568 Y51.988 E0.51756
G1 X64.568 Y52.523 E0.01679
G1 X75.680 Y63.636 E0.49382
G1 X75.146 Y63.636 E0.01679
G1 X64.568 Y53.057 E0.47007
G1 X64.568 Y53.592 E0.01679
G1 X74.612 Y63.636 E0.44632
G1 X74.077 Y63.636 E0.01679
G1 X64.568 Y54.126 E0.42257
G1 X64.568 Y54.660 E0.01679
G1 X73.543 Y63.636 E0.39883
G1 X73.008 Y63.636 E0.01679
G1 X64.568 Y55.195 E0.37508
G1 X64.568 Y55.729 E0.01679
G1 X72.474 Y63.636 E0.35133
G1 X71.940 Y63.636 E0.01679
G1 X64.568 Y56.264 E0.32758
G1 X64.568 Y56.798 E0.01679
G1 X71.405 Y63.636 E0.30384
G1 X70.871 Y63.636 E0.01679
G1 X64.568 Y57.333 E0.28009
G1 X64.568 Y57.867 E0.01679
G1 X70.336 Y63.636 E0.25634
G1 X69.802 Y63.636 E0.01679
G1 X64.568 Y58.401 E0.23259
G1 X64.568 Y58.936 E0.01679
G1 X69.267 Y63.636 E0.20885
G1 X68.733 Y63.636 E0.01679
G1 X64.568 Y59.470 E0.18510
G1 X64.568 Y60.005 E0.01679
G1 X68.199 Y63.636 E0.16135
G1 X67.664 Y63.636 E0.01679
G1 X64.568 Y60.539 E0.13760
G1 X64.568 Y61.073 E0.01679
G1 X67.130 Y63.636 E0.11386
G1 X66.595 Y63.636 E0.01679
G1 X64.568 Y61.608 E0.09011
G1 X64.568 Y62.142 E0.01679
G1 X66.061 Y63.636 E0.06636
G1 X65.527 Y63.636 E0.01679
G1 X64.568 Y62.677 E0.04261
G1 X64.568 Y63.211 E0.01679
G1 X65.162 Y63.805 E0.02640
G1 E-4.55000 F3000.000
;WIPE_START
G1 F7200.000
G1 X64.568 Y63.211 E-0.33264
G1 X64.568 Y62.677 E-0.21154
G1 X65.527 Y63.636 E-0.53681
G1 X66.061 Y63.636 E-0.21154
G1 X65.061 Y62.635 E-0.55997
;WIPE_END
G1 E-0.09750 F3000.000
G1 X148.495 Y64.235 F9000.000
G1 E6.50000 F2400.000
;TYPE:Perimeter
;WIDTH:0.42
G1 F1200.000
G1 X148.495 Y50.609 E0.42723
G1 X172.121 Y50.609 E0.74077
G1 X172.121 Y64.235 E0.42723
G1 X148.555 Y64.235 E0.73889
G1 X148.118 Y64.612 F9000.000
;TYPE:External perimeter
G1 F1200.000
G1 X148.118 Y50.232 E0.45087
G1 X172.498 Y50.232 E0.76442
G1 X172.498 Y64.612 E0.45087
G1 X148.178 Y64.612 E0.76254
G1 X148.254 Y64.236 F9000.000
G1 E-4.55000 F3000.000
;WIPE_START
G1 F7200.000
G1 X148.158 Y59.932 E-1.85250
;WIPE_END
G1 E-0.09750 F3000.000
G1 X171.244 Y50.722 F9000.000
G1 E6.50000 F2400.000
;TYPE:Solid infill
;WIDTH:0.420808
G1 F1200.000
G1 X171.838 Y51.317 E0.02641
G1 X171.838 Y51.851 E0.01679
G1 X170.879 Y50.892 E0.04262
G1 X170.345 Y50.892 E0.01679
G1 X171.838 Y52.386 E0.06636
G1 X171.838 Y52.920 E0.01679
G1 X169.810 Y50.892 E0.09011
G1 X169.276 Y50.892 E0.01679
G1 X171.838 Y53.454 E0.11386
G1 X171.838 Y53.989 E0.01679
G1 X168.741 Y50.892 E0.13761
G1 X168.207 Y50.892 E0.01679
G1 X171.838 Y54.523 E0.16135
G1 X171.838 Y55.058 E0.01679
G1 X167.673 Y50.892 E0.18510
G1 X167.138 Y50.892 E0.01679
G1 X171.838 Y55.592 E0.20885
G1 X171.838 Y56.126 E0.01679
G1 X166.604 Y50.892 E0.23260
G1 X166.069 Y50.892 E0.01679
G1 X171.838 Y56.661 E0.25634
G1 X171.838 Y57.195 E0.01679
G1 X165.535 Y50.892 E0.28009
G1 X165.000 Y50.892 E0.01679
G1 X171.838 Y57.730 E0.30384
G1 X171.838 Y58.264 E0.01679
G1 X164.466 Y50.892 E0.32759
G1 X163.932 Y50.892 E0.01679
G1 X171.838 Y58.799 E0.35134
G1 X171.838 Y59.333 E0.01679
G1 X163.397 Y50.892 E0.37508
G1 X162.863 Y50.892 E0.01679
G1 X171.838 Y59.867 E0.39883
G1 X171.838 Y60.402 E0.01679
G1 X162.328 Y50.892 E0.42258
G1 X161.794 Y50.892 E0.01679
G1 X171.838 Y60.936 E0.44633
G1 X171.838 Y61.471 E0.01679
G1 X161.260 Y50.892 E0.47007
G1 X160.725 Y50.892 E0.01679
G1 X171.838 Y62.005 E0.49382
G1 X171.838 Y62.539 E0.01679
G1 X160.191 Y50.892 E0.51757
G1 X159.656 Y50.892 E0.01679
G1 X171.838 Y63.074 E0.54132
G1 X171.838 Y63.608 E0.01679
G1 X159.122 Y50.892 E0.56506
G1 X158.587 Y50.892 E0.01679
G1 X171.648 Y63.952 E0.58035
G1 X171.113 Y63.952 E0.01679
G1 X158.053 Y50.892 E0.58035
G1 X157.519 Y50.892 E0.01679
G1 X170.579 Y63.952 E0.58035
G1 X170.044 Y63.952 E0.01679
G1 X156.984 Y50.892 E0.58035
G1 X156.450 Y50.892 E0.01679
G1 X169.510 Y63.952 E0.58035
G1 X168.976 Y63.952 E0.01679
G1 X155.915 Y50.892 E0.58035
G1 X155.381 Y50.892 E0.01679
G1 X168.441 Y63.952 E0.58035
G1 X167.907 Y63.952 E0.01679
G1 X154.847 Y50.892 E0.58035
G1 X154.312 Y50.892 E0.01679
G1 X167.372 Y63.952 E0.58035
G1 X166.838 Y63.952 E0.01679
G1 X153.778 Y50.892 E0.58035
G1 X153.243 Y50.892 E0.01679
G1 X166.304 Y63.952 E0.58035
G1 X165.769 Y63.952 E0.01679
G1 X152.709 Y50.892 E0.58035
G1 X152.174 Y50.892 E0.01679
G1 X165.235 Y63.952 E0.58035
G1 X164.700 Y63.952 E0.01679
G1 X151.640 Y50.892 E0.58035
G1 X151.106 Y50.892 E0.01679
G1 X164.166 Y63.952 E0.58035
G1 X163.631 Y63.952 E0.01679
G1 X150.571 Y50.892 E0.58035
G1 X150.037 Y50.892 E0.01679
G1 X163.097 Y63.952 E0.58035
G1 X162.563 Y63.952 E0.01679
G1 X149.502 Y50.892 E0.58035
G1 X148.968 Y50.892 E0.01679
G1 X162.028 Y63.952 E0.58035
G1 X161.494 Y63.952 E0.01679
G1 X148.778 Y51.236 E0.56506
G1 X148.778 Y51.771 E0.01679
G1 X160.959 Y63.952 E0.54131
G1 X160.425 Y63.952 E0.01679
G1 X148.778 Y52.305 E0.51756
G1 X148.778 Y52.840 E0.01679
G1 X159.891 Y63.952 E0.49382
G1 X159.356 Y63.952 E0.01679
G1 X148.778 Y53.374 E0.47007
G1 X148.778 Y53.908 E0.01679
G1 X158.822 Y63.952 E0.44632
G1 X158.287 Y63.952 E0.01679
G1 X148.778 Y54.443 E0.42257
G1 X148.778 Y54.977 E0.01679
G1 X157.753 Y63.952 E0.39883
G1 X157.219 Y63.952 E0.01679
G1 X148.778 Y55.512 E0.37508
G1 X148.778 Y56.046 E0.01679
G1 X156.684 Y63.952 E0.35133
G1 X156.150 Y63.952 E0.01679
G1 X148.778 Y56.580 E0.32758
G1 X148.778 Y57.115 E0.01679
G1 X155.615 Y63.952 E0.30384
G1 X155.081 Y63.952 E0.01679
G1 X148.778 Y57.649 E0.28009
G1 X148.778 Y58.184 E0.01679
G1 X154.546 Y63.952 E0.25634
G1 X154.012 Y63.952 E0.01679
G1 X148.778 Y58.718 E0.23259
G1 X148.778 Y59.253 E0.01679
G1 X153.478 Y63.952 E0.20885
G1 X152.943 Y63.952 E0.01679
G1 X148.778 Y59.787 E0.18510
G1 X148.778 Y60.321 E0.01679
G1 X152.409 Y63.952 E0.16135
G1 X151.874 Y63.952 E0.01679
G1 X148.778 Y60.856 E0.13760
G1 X148.778 Y61.390 E0.01679
G1 X151.340 Y63.952 E0.11386
G1 X150.806 Y63.952 E0.01679
G1 X148.778 Y61.925 E0.09011
G1 X148.778 Y62.459 E0.01679
G1 X150.271 Y63.952 E0.06636
G1 X149.737 Y63.952 E0.01679
G1 X148.778 Y62.993 E0.04261
G1 X148.778 Y63.528 E0.01679
G1 X149.372 Y64.122 E0.02640
M106 S255
;LAYER_CHANGE
;Z:0.4
;HEIGHT:0.2
;BEFORE_LAYER_CHANGE
G92 E0
;0.4


G1 E-4.55000 F3000.000
;WIPE_START
G1 F7200.000
G1 X148.778 Y63.528 E-0.33264
G1 X148.778 Y62.993 E-0.21154
G1 X149.737 Y63.952 E-0.53681
G1 X150.271 Y63.952 E-0.21154
G1 X149.271 Y62.952 E-0.55997
;WIPE_END
G1 E-0.09750 F3000.000
G1 Z0.400 F9000.000
;AFTER_LAYER_CHANGE
;0.4
M104 S190 ; set temperature
G1 X175.134 Y65.410
G1 E6.50000 F2400.000
;TYPE:Skirt
;WIDTH:0.42
G1 X174.839 Y66.157 E0.02520
G1 X174.311 Y66.764 E0.02520
G1 X173.612 Y67.159 E0.02520
G1 X172.820 Y67.299 E0.02520
G1 X147.799 Y67.299 E0.78453
G1 X63.570 Y66.982 E2.64097
G1 X63.008 Y66.908 E0.01775
G1 X62.484 Y66.705 E0.01763
G1 X62.022 Y66.385 E0.01763
G1 X61.646 Y65.962 E0.01775
G1 X61.339 Y65.347 E0.02154
G1 X61.221 Y64.666 E0.02166
G1 X61.222 Y49.529 E0.47461
G1 X61.303 Y48.984 E0.01728
G1 X61.508 Y48.473 E0.01728
G1 X61.828 Y48.019 E0.01740
G1 X62.240 Y47.654 E0.01728
G1 X62.870 Y47.343 E0.02201
G1 X63.559 Y47.229 E0.02190
G1 X88.602 Y47.228 E0.78520
G1 X173.297 Y47.596 E2.65559
G1 X173.995 Y47.863 E0.02343
G1 X174.576 Y48.333 E0.02343
G1 X174.982 Y48.961 E0.02343
G1 X175.173 Y49.679 E0.02331
G1 X175.135 Y65.350 E0.49135
G1 E-4.55000 F3000.000
;WIPE_START
G1 F7200.000
G1 X174.839 Y66.157 E-0.34032
G1 X174.311 Y66.764 E-0.31810
G1 X173.612 Y67.159 E-0.31810
G1 X172.820 Y67.299 E-0.31810
G1 X171.411 Y67.299 E-0.55786
;WIPE_END
G1 E-0.09750 F3000.000
G1 X87.966 Y63.973 F9000.000
G1 E6.50000 F2400.000
;TYPE:Perimeter
;WIDTH:0.45
G1 X64.230 Y63.973 E0.80343
G1 X64.230 Y50.238 E0.46494
G1 X87.966 Y50.238 E0.80343
G1 X87.966 Y63.913 E0.46291
G1 X88.373 Y64.380 F9000.000
;TYPE:External perimeter
G1 F1500.000
G1 X63.823 Y64.380 E0.83099
G1 X63.823 Y49.830 E0.49250
G1 X88.373 Y49.830 E0.83099
G1 X88.373 Y64.320 E0.49047
G1 X87.979 Y64.310 F9000.000
G1 X87.016 Y63.851
;TYPE:Solid infill
;WIDTH:0.452429
G1 F2400.000
G1 X87.660 Y63.206 E0.03105
G1 X87.660 Y62.627 E0.01972
G1 X86.620 Y63.668 E0.05012
G1 X86.040 Y63.668 E0.01972
G1 X87.660 Y62.048 E0.07801
G1 X87.660 Y61.469 E0.01972
G1 X85.461 Y63.668 E0.10590
G1 X84.882 Y63.668 E0.01972
G1 X87.660 Y60.890 E0.13379
G1 X87.660 Y60.311 E0.01972
G1 X84.303 Y63.668 E0.16167
G1 X83.724 Y63.668 E0.01972
G1 X87.660 Y59.732 E0.18956
G1 X87.660 Y59.152 E0.01972
G1 X83.145 Y63.668 E0.21745
G1 X82.566 Y63.668 E0.01972
G1 X87.660 Y58.573 E0.24534
G1 X87.660 Y57.994 E0.01972
G1 X81.986 Y63.668 E0.27323
G1 X81.407 Y63.668 E0.01972
G1 X87.660 Y57.415 E0.30112
G1 X87.660 Y56.836 E0.01972
G1 X80.828 Y63.668 E0.32900
G1 X80.249 Y63.668 E0.01972
G1 X87.660 Y56.257 E0.35689
G1 X87.660 Y55.678 E0.01972
G1 X79.670 Y63.668 E0.38478
G1 X79.091 Y63.668 E0.01972
G1 X87.660 Y55.099 E0.41267
G1 X87.660 Y54.519 E0.01972
G1 X78.512 Y63.668 E0.44056
G1 X77.933 Y63.668 E0.01972
G1 X87.660 Y53.940 E0.46844
G1 X87.660 Y53.361 E0.01972
G1 X77.353 Y63.668 E0.49633
G1 X76.774 Y63.668 E0.01972
G1 X87.660 Y52.782 E0.52422
G1 X87.660 Y52.203 E0.01972
G1 X76.195 Y63.668 E0.55211
G1 X75.616 Y63.668 E0.01972
G1 X87.660 Y51.624 E0.58000
G1 X87.660 Y51.045 E0.01972
G1 X75.037 Y63.668 E0.60789
G1 X74.458 Y63.668 E0.01972
G1 X87.583 Y50.543 E0.63205
G1 X87.004 Y50.543 E0.01972
G1 X73.879 Y63.668 E0.63205
G1 X73.299 Y63.668 E0.01972
G1 X86.425 Y50.543 E0.63205
G1 X85.846 Y50.543 E0.01972
G1 X72.720 Y63.668 E0.63205
G1 X72.141 Y63.668 E0.01972
G1 X85.266 Y50.543 E0.63205
G1 X84.687 Y50.543 E0.01972
G1 X71.562 Y63.668 E0.63205
G1 X70.983 Y63.668 E0.01972
G1 X84.108 Y50.543 E0.63205
G1 X83.529 Y50.543 E0.01972
G1 X70.404 Y63.668 E0.63205
G1 X69.825 Y63.668 E0.01972
G1 X82.950 Y50.543 E0.63205
G1 X82.371 Y50.543 E0.01972
G1 X69.246 Y63.668 E0.63205
G1 X68.666 Y63.668 E0.01972
G1 X81.792 Y50.543 E0.63205
G1 X81.213 Y50.543 E0.01972
G1 X68.087 Y63.668 E0.63205
G1 X67.508 Y63.668 E0.01972
G1 X80.633 Y50.543 E0.63205
G1 X80.054 Y50.543 E0.01972
G1 X66.929 Y63.668 E0.63205
G1 X66.350 Y63.668 E0.01972
G1 X79.475 Y50.543 E0.63205
G1 X78.896 Y50.543 E0.01972
G1 X65.771 Y63.668 E0.63205
G1 X65.192 Y63.668 E0.01972
G1 X78.317 Y50.543 E0.63205
G1 X77.738 Y50.543 E0.01972
G1 X64.612 Y63.668 E0.63205
G1 X64.535 Y63.668 E0.00263
G1 X64.535 Y63.166 E0.01709
G1 X77.159 Y50.543 E0.60788
G1 X76.579 Y50.543 E0.01972
G1 X64.535 Y62.587 E0.57999
G1 X64.535 Y62.008 E0.01972
G1 X76.000 Y50.543 E0.55211
G1 X75.421 Y50.543 E0.01972
G1 X64.535 Y61.429 E0.52422
G1 X64.535 Y60.850 E0.01972
G1 X74.842 Y50.543 E0.49633
G1 X74.263 Y50.543 E0.01972
G1 X64.535 Y60.271 E0.46844
G1 X64.535 Y59.692 E0.01972
G1 X73.684 Y50.543 E0.44055
G1 X73.105 Y50.543 E0.01972
G1 X64.535 Y59.112 E0.41267
G1 X64.535 Y58.533 E0.01972
G1 X72.526 Y50.543 E0.38478
G1 X71.946 Y50.543 E0.01972
G1 X64.535 Y57.954 E0.35689
G1 X64.535 Y57.375 E0.01972
