; generated by PrusaSlicer 2.3.3+x64 on 2021-10-02 at 21:06:37 UTC

; 

; external perimeters extrusion width = 0.45mm
; perimeters extrusion width = 0.45mm
; infill extrusion width = 0.45mm
; solid infill extrusion width = 0.45mm
; top infill extrusion width = 0.40mm
; support material extrusion width = 0.38mm
; first layer extrusion width = 0.42mm

M201 X500 Y500 Z100 E5000 ; sets maximum accelerations, mm/sec^2
M203 X500 Y500 Z10 E60 ; sets maximum feedrates, mm/sec
M204 P500 R1000 T500 ; sets acceleration (P, T) and retract acceleration (R), mm/sec^2
M205 X8.00 Y8.00 Z0.40 E5.00 ; sets the jerk limits, mm/sec
M205 S0 T0 ; sets the minimum extruding and travel feed rate, mm/sec
M107
;TYPE:Custom
G90 ; use absolute coordinates
M83 ; extruder relative mode
M104 S200 ; set extruder temp
M140 S60 ; set bed temp
M190 S60 ; wait for bed temp
M109 S200 ; wait for extruder temp
G28 ; home all
G29 ; Level Bed
G1 Z2 F240
G1 X2 Y10 F3000
G1 Z0.28 F240
G92 E0
G1 Y190 E15 F1500 ; intro line
G1 X2.3 F5000
G92 E0
G1 Y10 E15 F1200 ; intro line
G92 E0
G21 ; set units to millimeters
G90 ; use absolute coordinates
M83 ; use relative distances for extrusion
; Filament gcode
;LAYER_CHANGE
;Z:0.2
;HEIGHT:0.2
;BEFORE_LAYER_CHANGE
G92 E0
;0.2


G1 E-6.50000 F3000.000
G1 Z0.200 F9000.000
;AFTER_LAYER_CHANGE
;0.2
G1 X43.047 Y21.681
G1 E6.50000 F2400.000
;TYPE:Skirt
;WIDTH:0.42
G1 F1200.000
G1 X43.374 Y21.029 E0.02284
G1 X43.882 Y20.508 E0.02284
G1 X44.521 Y20.166 E0.02272
G1 X45.237 Y20.032 E0.02284
G1 X95.814 Y20.031 E1.58581
G1 X185.933 Y21.738 E2.82611
G1 X186.587 Y21.853 E0.02083
G1 X187.184 Y22.145 E0.02083
G1 X187.677 Y22.590 E0.02083
G1 X188.028 Y23.154 E0.02083
G1 X188.179 Y23.621 E0.01538
G1 X188.231 Y24.110 E0.01541
G1 X188.468 Y148.070 E3.88670
G1 X188.455 Y178.318 E0.94840
G1 X188.344 Y178.831 E0.01645
G1 X188.122 Y179.310 E0.01657
G1 X187.801 Y179.725 E0.01645
G1 X187.398 Y180.060 E0.01645
G1 X170.963 Y189.832 E0.59951
G1 X170.492 Y189.984 E0.01550
G1 X170.000 Y190.036 E0.01553
G1 X78.743 Y190.036 E2.86130
G1 X63.473 Y189.858 E0.47880
G1 X62.595 Y189.612 E0.02860
G1 X45.470 Y180.811 E0.60371
G1 X44.848 Y180.332 E0.02461
G1 X44.416 Y179.677 E0.02461
G1 X44.213 Y178.741 E0.03001
G1 X42.933 Y52.428 E3.96067
G1 X42.933 Y22.400 E0.94150
G1 X43.038 Y21.740 E0.02096
G1 E-4.55000 F3000.000
;WIPE_START
G1 F7200.000
G1 X43.374 Y21.029 E-0.31106
G1 X43.882 Y20.508 E-0.28834
G1 X44.521 Y20.166 E-0.28685
G1 X45.237 Y20.032 E-0.28834
G1 X46.950 Y20.032 E-0.67790
;WIPE_END
G1 E-0.09750 F3000.000
G1 X63.664 Y179.004 F9000.000
G1 E6.50000 F2400.000
;TYPE:Support material
G1 F1200.000
G1 X63.664 Y187.489 E0.26605
G1 X64.418 Y187.489 E0.02365
G1 X64.418 Y179.173 E0.26073
G1 X65.172 Y179.173 E0.02365
G1 X65.172 Y187.489 E0.26073
G1 X65.926 Y187.489 E0.02365
G1 X65.926 Y179.173 E0.26073
G1 X66.680 Y179.173 E0.02365
G1 X66.680 Y187.489 E0.26073
G1 X67.434 Y187.489 E0.02365
G1 X67.434 Y179.173 E0.26073
G1 X68.189 Y179.173 E0.02365
G1 X68.189 Y187.489 E0.26073
G1 X68.943 Y187.489 E0.02365
G1 X68.943 Y179.173 E0.26073
G1 X69.697 Y179.173 E0.02365
G1 X69.697 Y187.489 E0.26073
G1 X70.451 Y187.489 E0.02365
G1 X70.451 Y179.173 E0.26073
G1 X71.205 Y179.173 E0.02365
G1 X71.205 Y187.489 E0.26073
G1 X71.959 Y187.489 E0.02365
G1 X71.959 Y179.173 E0.26073
G1 X72.713 Y179.173 E0.02365
G1 X72.713 Y187.489 E0.26073
G1 X73.468 Y187.489 E0.02365
G1 X73.468 Y179.173 E0.26073
G1 X74.222 Y179.173 E0.02365
G1 X74.222 Y187.489 E0.26073
G1 X74.976 Y187.489 E0.02365
G1 X74.976 Y179.173 E0.26073
G1 X75.730 Y179.173 E0.02365
G1 X75.730 Y187.489 E0.26073
G1 X76.484 Y187.489 E0.02365
G1 X76.484 Y179.173 E0.26073
G1 X77.238 Y179.173 E0.02365
G1 X77.238 Y187.489 E0.26073
G1 X77.993 Y187.489 E0.02365
G1 X77.993 Y179.173 E0.26073
G1 X78.747 Y179.173 E0.02365
G1 X78.747 Y187.659 E0.26605
G1 E-4.55000 F3000.000
;WIPE_START
G1 F7200.000
G1 X78.747 Y182.979 E-1.85250
;WIPE_END
G1 E-0.09750 F3000.000
G1 X152.654 Y187.659 F9000.000
G1 E6.50000 F2400.000
G1 F1200.000
G1 X152.654 Y178.533 E0.28612
G1 X153.408 Y178.533 E0.02365
G1 X153.408 Y187.489 E0.28080
G1 X154.163 Y187.489 E0.02365
G1 X154.163 Y178.533 E0.28080
G1 X154.917 Y178.533 E0.02365
G1 X154.917 Y187.489 E0.28080
G1 X155.671 Y187.489 E0.02365
G1 X155.671 Y178.533 E0.28080
G1 X156.425 Y178.533 E0.02365
G1 X156.425 Y187.489 E0.28080
G1 X157.179 Y187.489 E0.02365
G1 X157.179 Y178.533 E0.28080
G1 X157.933 Y178.533 E0.02365
G1 X157.933 Y187.489 E0.28080
G1 X158.688 Y187.489 E0.02365
G1 X158.688 Y178.533 E0.28080
G1 X159.442 Y178.533 E0.02365
G1 X159.442 Y187.489 E0.28080
G1 X160.196 Y187.489 E0.02365
G1 X160.196 Y178.533 E0.28080
G1 X160.950 Y178.533 E0.02365
G1 X160.950 Y187.489 E0.28080
G1 X161.704 Y187.489 E0.02365
G1 X161.704 Y178.533 E0.28080
G1 X162.458 Y178.533 E0.02365
G1 X162.458 Y187.489 E0.28080
G1 X163.213 Y187.489 E0.02365
G1 X163.213 Y178.533 E0.28080
G1 X163.967 Y178.533 E0.02365
G1 X163.967 Y187.489 E0.28080
G1 X164.721 Y187.489 E0.02365
G1 X164.721 Y178.533 E0.28080
G1 X165.475 Y178.533 E0.02365
G1 X165.475 Y187.489 E0.28080
G1 X166.229 Y187.489 E0.02365
G1 X166.229 Y178.533 E0.28080
G1 X166.983 Y178.533 E0.02365
G1 X166.983 Y187.489 E0.28080
G1 X167.737 Y187.489 E0.02365
G1 X167.737 Y178.533 E0.28080
G1 X168.492 Y178.533 E0.02365
G1 X168.492 Y187.489 E0.28080
G1 X169.246 Y187.489 E0.02365
G1 X169.246 Y178.533 E0.28080
G1 X170.000 Y178.533 E0.02365
G1 X170.000 Y187.659 E0.28612
G1 E-4.55000 F3000.000
;WIPE_START
G1 F7200.000
G1 X170.000 Y182.979 E-1.85250
;WIPE_END
G1 E-0.09750 F3000.000
G1 X96.403 Y178.028 F9000.000
G1 E6.50000 F2400.000
;TYPE:Perimeter
G1 F1200.000
G1 X47.277 Y178.028 E1.54031
G1 X47.277 Y149.402 E0.89754
G1 X96.403 Y149.402 E1.54031
G1 X96.403 Y177.968 E0.89566
G1 X96.780 Y178.405 F9000.000
;TYPE:External perimeter
G1 F1200.000
G1 X46.900 Y178.405 E1.56395
G1 X46.900 Y149.025 E0.92119
G1 X96.780 Y149.025 E1.56395
G1 X96.780 Y178.345 E0.91931
G1 X96.386 Y178.334 F9000.000
G1 E-4.55000 F3000.000
;WIPE_START
G1 F7200.000
G1 X92.100 Y178.350 E-1.85250
;WIPE_END
G1 E-0.09750 F3000.000
G1 X95.527 Y149.515 F9000.000
G1 E6.50000 F2400.000
;TYPE:Solid infill
;WIDTH:0.420245
G1 F1200.000
G1 X96.120 Y150.108 E0.02632
G1 X96.120 Y150.642 E0.01674
G1 X95.163 Y149.685 E0.04246
G1 X94.629 Y149.685 E0.01674
G1 X96.120 Y151.175 E0.06614
G1 X96.120 Y151.709 E0.01674
G1 X94.096 Y149.685 E0.08982
G1 X93.562 Y149.685 E0.01674
G1 X96.120 Y152.242 E0.11350
G1 X96.120 Y152.776 E0.01674
G1 X93.028 Y149.685 E0.13717
G1 X92.495 Y149.685 E0.01674
G1 X96.120 Y153.310 E0.16085
G1 X96.120 Y153.843 E0.01674
G1 X91.961 Y149.685 E0.18453
G1 X91.428 Y149.685 E0.01674
G1 X96.120 Y154.377 E0.20820
G1 X96.120 Y154.911 E0.01674
G1 X90.894 Y149.685 E0.23188
G1 X90.360 Y149.685 E0.01674
G1 X96.120 Y155.444 E0.25556
G1 X96.120 Y155.978 E0.01674
G1 X89.827 Y149.685 E0.27923
G1 X89.293 Y149.685 E0.01674
G1 X96.120 Y156.511 E0.30291
G1 X96.120 Y157.045 E0.01674
G1 X88.759 Y149.685 E0.32659
G1 X88.226 Y149.685 E0.01674
G1 X96.120 Y157.579 E0.35026
G1 X96.120 Y158.112 E0.01674
G1 X87.692 Y149.685 E0.37394
G1 X87.159 Y149.685 E0.01674
G1 X96.120 Y158.646 E0.39762
G1 X96.120 Y159.179 E0.01674
G1 X86.625 Y149.685 E0.42129
G1 X86.091 Y149.685 E0.01674
G1 X96.120 Y159.713 E0.44497
G1 X96.120 Y160.247 E0.01674
G1 X85.558 Y149.685 E0.46865
G1 X85.024 Y149.685 E0.01674
G1 X96.120 Y160.780 E0.49233
G1 X96.120 Y161.314 E0.01674
G1 X84.491 Y149.685 E0.51600
G1 X83.957 Y149.685 E0.01674
G1 X96.120 Y161.848 E0.53968
G1 X96.120 Y162.381 E0.01674
G1 X83.423 Y149.685 E0.56336
G1 X82.890 Y149.685 E0.01674
G1 X96.120 Y162.915 E0.58703
G1 X96.120 Y163.448 E0.01674
G1 X82.356 Y149.685 E0.61071
G1 X81.822 Y149.685 E0.01674
G1 X96.120 Y163.982 E0.63439
G1 X96.120 Y164.516 E0.01674
G1 X81.289 Y149.685 E0.65806
G1 X80.755 Y149.685 E0.01674
G1 X96.120 Y165.049 E0.68174
G1 X96.120 Y165.583 E0.01674
G1 X80.222 Y149.685 E0.70542
G1 X79.688 Y149.685 E0.01674
G1 X96.120 Y166.116 E0.72909
G1 X96.120 Y166.650 E0.01674
G1 X79.154 Y149.685 E0.75277
G1 X78.621 Y149.685 E0.01674
G1 X96.120 Y167.184 E0.77645
G1 X96.120 Y167.717 E0.01674
G1 X78.087 Y149.685 E0.80013
G1 X77.554 Y149.685 E0.01674
G1 X96.120 Y168.251 E0.82380
G1 X96.120 Y168.785 E0.01674
G1 X77.020 Y149.685 E0.84748
G1 X76.486 Y149.685 E0.01674
G1 X96.120 Y169.318 E0.87116
G1 X96.120 Y169.852 E0.01674
G1 X75.953 Y149.685 E0.89483
G1 X75.419 Y149.685 E0.01674
G1 X96.120 Y170.385 E0.91851
G1 X96.120 Y170.919 E0.01674
G1 X74.885 Y149.685 E0.94219
G1 X74.352 Y149.685 E0.01674
G1 X96.120 Y171.453 E0.96586
G1 X96.120 Y171.986 E0.01674
G1 X73.818 Y149.685 E0.98954
G1 X73.285 Y149.685 E0.01674
G1 X96.120 Y172.520 E1.01322
G1 X96.120 Y173.054 E0.01674
G1 X72.751 Y149.685 E1.03689
G1 X72.217 Y149.685 E0.01674
G1 X96.120 Y173.587 E1.06057
G1 X96.120 Y174.121 E0.01674
G1 X71.684 Y149.685 E1.08425
G1 X71.150 Y149.685 E0.01674
G1 X96.120 Y174.654 E1.10793
G1 X96.120 Y175.188 E0.01674
G1 X70.616 Y149.685 E1.13160
G1 X70.083 Y149.685 E0.01674
G1 X96.120 Y175.722 E1.15528
G1 X96.120 Y176.255 E0.01674
G1 X69.549 Y149.685 E1.17896
G1 X69.016 Y149.685 E0.01674
G1 X96.120 Y176.789 E1.20263
G1 X96.120 Y177.322 E0.01674
G1 X68.482 Y149.685 E1.22631
G1 X67.948 Y149.685 E0.01674
G1 X96.009 Y177.745 E1.24505
G1 X95.475 Y177.745 E0.01674
G1 X67.415 Y149.685 E1.24505
G1 X66.881 Y149.685 E0.01674
G1 X94.941 Y177.745 E1.24505
G1 X94.408 Y177.745 E0.01674
G1 X66.348 Y149.685 E1.24505
G1 X65.814 Y149.685 E0.01674
G1 X93.874 Y177.745 E1.24505
G1 X93.341 Y177.745 E0.01674
G1 X65.280 Y149.685 E1.24505
G1 X64.747 Y149.685 E0.01674
G1 X92.807 Y177.745 E1.24505
G1 X92.273 Y177.745 E0.01674
G1 X64.213 Y149.685 E1.24505
G1 X63.679 Y149.685 E0.01674
G1 X91.740 Y177.745 E1.24505
G1 X91.206 Y177.745 E0.01674
G1 X63.146 Y149.685 E1.24505
G1 X62.612 Y149.685 E0.01674
G1 X90.672 Y177.745 E1.24505
G1 X90.139 Y177.745 E0.01674
G1 X62.079 Y149.685 E1.24505
G1 X61.545 Y149.685 E0.01674
G1 X89.605 Y177.745 E1.24505
G1 X89.072 Y177.745 E0.01674
G1 X61.011 Y149.685 E1.24505
G1 X60.478 Y149.685 E0.01674
G1 X88.538 Y177.745 E1.24505
G1 X88.004 Y177.745 E0.01674
G1 X59.944 Y149.685 E1.24505
G1 X59.410 Y149.685 E0.01674
G1 X87.471 Y177.745 E1.24505
G1 X86.937 Y177.745 E0.01674
G1 X58.877 Y149.685 E1.24505
G1 X58.343 Y149.685 E0.01674
G1 X86.404 Y177.745 E1.24505
G1 X85.870 Y177.745 E0.01674
G1 X57.810 Y149.685 E1.24505
G1 X57.276 Y149.685 E0.01674
G1 X85.336 Y177.745 E1.24505
G1 X84.803 Y177.745 E0.01674
G1 X56.742 Y149.685 E1.24505
G1 X56.209 Y149.685 E0.01674
G1 X84.269 Y177.745 E1.24505
G1 X83.735 Y177.745 E0.01674
G1 X55.675 Y149.685 E1.24505
G1 X55.142 Y149.685 E0.01674
G1 X83.202 Y177.745 E1.24505
G1 X82.668 Y177.745 E0.01674
G1 X54.608 Y149.685 E1.24505
G1 X54.074 Y149.685 E0.01674
G1 X82.135 Y177.745 E1.24505
G1 X81.601 Y177.745 E0.01674
G1 X53.541 Y149.685 E1.24505
G1 X53.007 Y149.685 E0.01674
G1 X81.067 Y177.745 E1.24505
G1 X80.534 Y177.745 E0.01674
G1 X52.473 Y149.685 E1.24505
G1 X51.940 Y149.685 E0.01674
G1 X80.000 Y177.745 E1.24505
G1 X79.466 Y177.745 E0.01674
G1 X51.406 Y149.685 E1.24505
G1 X50.873 Y149.685 E0.01674
G1 X78.933 Y177.745 E1.24505
G1 X78.399 Y177.745 E0.01674
G1 X50.339 Y149.685 E1.24505
G1 X49.805 Y149.685 E0.01674
G1 X77.866 Y177.745 E1.24505
G1 X77.332 Y177.745 E0.01674
G1 X49.272 Y149.685 E1.24505
G1 X48.738 Y149.685 E0.01674
G1 X76.798 Y177.745 E1.24505
G1 X76.265 Y177.745 E0.01674
G1 X48.205 Y149.685 E1.24505
G1 X47.671 Y149.685 E0.01674
G1 X75.731 Y177.745 E1.24505
G1 X75.198 Y177.745 E0.01674
G1 X47.560 Y150.107 E1.22631
G1 X47.560 Y150.641 E0.01674
G1 X74.664 Y177.745 E1.20263
G1 X74.130 Y177.745 E0.01674
G1 X47.560 Y151.174 E1.17895
G1 X47.560 Y151.708 E0.01674
G1 X73.597 Y177.745 E1.15528
G1 X73.063 Y177.745 E0.01674
G1 X47.560 Y152.241 E1.13160
G1 X47.560 Y152.775 E0.01674
G1 X72.529 Y177.745 E1.10792
G1 X71.996 Y177.745 E0.01674
G1 X47.560 Y153.309 E1.08424
G1 X47.560 Y153.842 E0.01674
G1 X71.462 Y177.745 E1.06057
G1 X70.929 Y177.745 E0.01674
G1 X47.560 Y154.376 E1.03689
G1 X47.560 Y154.909 E0.01674
G1 X70.395 Y177.745 E1.01321
G1 X69.861 Y177.745 E0.01674
G1 X47.560 Y155.443 E0.98954
G1 X47.560 Y155.977 E0.01674
G1 X69.328 Y177.745 E0.96586
G1 X68.794 Y177.745 E0.01674
G1 X47.560 Y156.510 E0.94218
G1 X47.560 Y157.044 E0.01674
G1 X68.261 Y177.745 E0.91851
G1 X67.727 Y177.745 E0.01674
G1 X47.560 Y157.578 E0.89483
G1 X47.560 Y158.111 E0.01674
G1 X67.193 Y177.745 E0.87115
G1 X66.660 Y177.745 E0.01674
G1 X47.560 Y158.645 E0.84748
G1 X47.560 Y159.178 E0.01674
G1 X66.126 Y177.745 E0.82380
G1 X65.592 Y177.745 E0.01674
G1 X47.560 Y159.712 E0.80012
G1 X47.560 Y160.246 E0.01674
G1 X65.059 Y177.745 E0.77645
G1 X64.525 Y177.745 E0.01674
G1 X47.560 Y160.779 E0.75277
G1 X47.560 Y161.313 E0.01674
G1 X63.992 Y177.745 E0.72909
G1 X63.458 Y177.745 E0.01674
G1 X47.560 Y161.847 E0.70541
G1 X47.560 Y162.380 E0.01674
G1 X62.924 Y177.745 E0.68174
G1 X62.391 Y177.745 E0.01674
G1 X47.560 Y162.914 E0.65806
G1 X47.560 Y163.447 E0.01674
G1 X61.857 Y177.745 E0.63438
G1 X61.323 Y177.745 E0.01674
G1 X47.560 Y163.981 E0.61071
G1 X47.560 Y164.515 E0.01674
G1 X60.790 Y177.745 E0.58703
G1 X60.256 Y177.745 E0.01674
G1 X47.560 Y165.048 E0.56335
G1 X47.560 Y165.582 E0.01674
G1 X59.723 Y177.745 E0.53968
G1 X59.189 Y177.745 E0.01674
G1 X47.560 Y166.115 E0.51600
G1 X47.560 Y166.649 E0.01674
G1 X58.655 Y177.745 E0.49232
G1 X58.122 Y177.745 E0.01674
G1 X47.560 Y167.183 E0.46865
G1 X47.560 Y167.716 E0.01674
G1 X57.588 Y177.745 E0.44497
G1 X57.055 Y177.745 E0.01674
G1 X47.560 Y168.250 E0.42129
G1 X47.560 Y168.784 E0.01674
G1 X56.521 Y177.745 E0.39761
G1 X55.987 Y177.745 E0.01674
G1 X47.560 Y169.317 E0.37394
G1 X47.560 Y169.851 E0.01674
G1 X55.454 Y177.745 E0.35026
G1 X54.920 Y177.745 E0.01674
G1 X47.560 Y170.384 E0.32658
G1 X47.560 Y170.918 E0.01674
G1 X54.386 Y177.745 E0.30291
G1 X53.853 Y177.745 E0.01674
G1 X47.560 Y171.452 E0.27923
G1 X47.560 Y171.985 E0.01674
G1 X53.319 Y177.745 E0.25555
G1 X52.786 Y177.745 E0.01674
G1 X47.560 Y172.519 E0.23188
G1 X47.560 Y173.052 E0.01674
G1 X52.252 Y177.745 E0.20820
G1 X51.718 Y177.745 E0.01674
G1 X47.560 Y173.586 E0.18452
G1 X47.560 Y174.120 E0.01674
G1 X51.185 Y177.745 E0.16085
G1 X50.651 Y177.745 E0.01674
G1 X47.560 Y174.653 E0.13717
G1 X47.560 Y175.187 E0.01674
G1 X50.117 Y177.745 E0.11349
G1 X49.584 Y177.745 E0.01674
G1 X47.560 Y175.721 E0.08981
G1 X47.560 Y176.254 E0.01674
G1 X49.050 Y177.745 E0.06614
G1 X48.517 Y177.745 E0.01674
G1 X47.560 Y176.788 E0.04246
G1 X47.560 Y177.321 E0.01674
G1 X48.153 Y177.914 E0.02631
G1 E-4.55000 F3000.000
;WIPE_START
G1 F7200.000
G1 X47.560 Y177.321 E-0.33197
G1 X47.560 Y176.788 E-0.21122
G1 X48.517 Y177.745 E-0.53570
G1 X49.050 Y177.745 E-0.21122
G1 X48.046 Y176.740 E-0.56239
;WIPE_END
G1 E-0.09750 F3000.000
G1 X136.278 Y177.387 F9000.000
G1 E6.50000 F2400.000
;TYPE:Perimeter
;WIDTH:0.42
G1 F1200.000
G1 X136.278 Y148.762 E0.89754
G1 X185.404 Y148.762 E1.54031
G1 X185.404 Y177.387 E0.89754
G1 X136.338 Y177.387 E1.53842
G1 X135.901 Y177.765 F9000.000
;TYPE:External perimeter
G1 F1200.000
G1 X135.901 Y148.385 E0.92119
G1 X185.781 Y148.385 E1.56395
G1 X185.781 Y177.765 E0.92119
G1 X135.961 Y177.765 E1.56207
G1 X136.036 Y177.388 F9000.000
G1 E-4.55000 F3000.000
;WIPE_START
G1 F7200.000
G1 X135.951 Y173.085 E-1.85250
;WIPE_END
G1 E-0.09750 F3000.000
G1 X184.528 Y148.875 F9000.000
G1 E6.50000 F2400.000
;TYPE:Solid infill
;WIDTH:0.420245
G1 F1200.000
G1 X185.121 Y149.468 E0.02632
G1 X185.121 Y150.001 E0.01674
G1 X184.164 Y149.044 E0.04246
G1 X183.630 Y149.044 E0.01674
G1 X185.121 Y150.535 E0.06614
G1 X185.121 Y151.069 E0.01674
G1 X183.097 Y149.044 E0.08982
G1 X182.563 Y149.044 E0.01674
G1 X185.121 Y151.602 E0.11350
G1 X185.121 Y152.136 E0.01674
G1 X182.029 Y149.044 E0.13717
G1 X181.496 Y149.044 E0.01674
G1 X185.121 Y152.670 E0.16085
G1 X185.121 Y153.203 E0.01674
G1 X180.962 Y149.044 E0.18453
G1 X180.428 Y149.044 E0.01674
G1 X185.121 Y153.737 E0.20820
G1 X185.121 Y154.270 E0.01674
G1 X179.895 Y149.044 E0.23188
G1 X179.361 Y149.044 E0.01674
G1 X185.121 Y154.804 E0.25556
G1 X185.121 Y155.338 E0.01674
G1 X178.828 Y149.044 E0.27923
G1 X178.294 Y149.044 E0.01674
