; generated by PrusaSlicer 2.3.0+ on 2021-05-05 at 21:43:15 UTC

; 

; external perimeters extrusion width = 0.45mm
; perimeters extrusion width = 0.45mm
; infill extrusion width = 0.45mm
; solid infill extrusion width = 0.45mm
; top infill extrusion width = 0.40mm
; first layer extrusion width = 0.42mm

M201 X500 Y500 Z100 E5000 ; sets maximum accelerations, mm/sec^2
M203 X500 Y500 Z10 E60 ; sets maximum feedrates, mm/sec
M204 P500 R1000 T500 ; sets acceleration (P, T) and retract acceleration (R), mm/sec^2
M205 X8.00 Y8.00 Z0.40 E5.00 ; sets the jerk limits, mm/sec
M205 S0 T0 ; sets the minimum extruding and travel feed rate, mm/sec
M107
;TYPE:Custom
G90 ; use absolute coordinates
M83 ; extruder relative mode
M104 S200 ; set extruder temp
M140 S60 ; set bed temp
M190 S60 ; wait for bed temp
M109 S200 ; wait for extruder temp
G28 ; home all
G1 Z2 F240
G1 X2 Y10 F3000
G1 Z0.28 F240
G92 E0
G1 Y190 E15 F1500 ; intro line
G1 X2.3 F5000
G92 E0
G1 Y10 E15 F1200 ; intro line
G92 E0
G21 ; set units to millimeters
G90 ; use absolute coordinates
M83 ; use relative distances for extrusion
; Filament gcode
;LAYER_CHANGE
;Z:0.2
;HEIGHT:0.2
;BEFORE_LAYER_CHANGE
G92 E0
;0.2


G1 E-6.50000 F3300.000
G1 Z0.200 F9000.000
;AFTER_LAYER_CHANGE
;0.2
G1 X99.722 Y59.239
G1 E6.50000 F2400.000
;TYPE:Skirt
;WIDTH:0.42
G1 F1200.000
G1 X101.013 Y56.971 E0.08183
G1 X101.996 Y55.648 E0.05167
G1 X103.104 Y54.423 E0.05181
G1 X105.070 Y52.720 E0.08155
G1 X107.240 Y51.345 E0.08055
G1 X109.628 Y50.292 E0.08183
G1 X111.206 Y49.815 E0.05168
G1 X112.826 Y49.491 E0.05181
G1 X115.432 Y49.294 E0.08194
G1 X118.035 Y49.491 E0.08184
G1 X119.651 Y49.815 E0.05167
G1 X121.228 Y50.291 E0.05168
G1 X123.617 Y51.344 E0.08183
G1 X125.780 Y52.713 E0.08028
G1 X127.719 Y54.386 E0.08029
G1 X129.415 Y56.359 E0.08158
G1 X130.782 Y58.532 E0.08048
G1 X131.483 Y60.020 E0.05160
G1 X132.044 Y61.582 E0.05204
G1 X132.472 Y63.276 E0.05478
G1 X132.722 Y64.955 E0.05322
G1 X137.881 Y116.506 E1.62442
G1 X137.984 Y118.570 E0.06478
G1 X137.882 Y120.696 E0.06673
G1 X137.574 Y122.771 E0.06578
G1 X137.064 Y124.806 E0.06577
G1 X136.358 Y126.781 E0.06578
G1 X135.461 Y128.678 E0.06578
G1 X134.382 Y130.477 E0.06577
G1 X133.133 Y132.162 E0.06577
G1 X131.727 Y133.714 E0.06567
G1 X130.170 Y135.125 E0.06589
G1 X128.485 Y136.375 E0.06578
G1 X126.686 Y137.454 E0.06577
G1 X124.789 Y138.351 E0.06578
G1 X122.814 Y139.058 E0.06577
G1 X120.779 Y139.568 E0.06578
G1 X118.704 Y139.876 E0.06578
G1 X116.639 Y139.978 E0.06482
G1 X114.513 Y139.876 E0.06673
G1 X112.438 Y139.568 E0.06578
G1 X110.403 Y139.059 E0.06577
G1 X108.428 Y138.352 E0.06578
G1 X106.531 Y137.455 E0.06578
G1 X104.732 Y136.377 E0.06578
G1 X103.047 Y135.127 E0.06577
G1 X101.495 Y133.721 E0.06566
G1 X100.083 Y132.164 E0.06589
G1 X98.834 Y130.479 E0.06578
G1 X97.755 Y128.680 E0.06577
G1 X96.858 Y126.783 E0.06578
G1 X96.151 Y124.808 E0.06577
G1 X95.641 Y122.773 E0.06578
G1 X95.333 Y120.698 E0.06578
G1 X95.230 Y118.633 E0.06482
G1 X98.075 Y65.787 E1.65936
G1 X98.376 Y63.339 E0.07734
G1 X98.793 Y61.654 E0.05443
G1 X99.701 Y59.295 E0.07923
G1 E-4.55000 F3300.000
;WIPE_START
G1 F7200.000
G1 X101.013 Y56.971 E-1.16216
G1 X101.959 Y55.699 E-0.69034
;WIPE_END
G1 E-0.09750 F3300.000
G1 X111.291 Y101.077 F9000.000
G1 E6.50000 F2400.000
;TYPE:Perimeter
G1 F1200.000
G1 X112.158 Y100.838 E0.02818
G1 X113.035 Y100.641 E0.02818
G1 X113.920 Y100.487 E0.02818
G1 X114.812 Y100.377 E0.02818
G1 X115.708 Y100.311 E0.02817
G1 X116.635 Y100.290 E0.02908
G1 X117.506 Y100.311 E0.02730
G1 X118.402 Y100.377 E0.02818
G1 X119.294 Y100.487 E0.02818
G1 X120.180 Y100.641 E0.02818
G1 X121.057 Y100.838 E0.02818
G1 X121.923 Y101.077 E0.02818
G1 X122.777 Y101.359 E0.02818
G1 X123.615 Y101.683 E0.02818
G1 X124.437 Y102.047 E0.02818
G1 X125.240 Y102.451 E0.02818
G1 X126.022 Y102.894 E0.02818
G1 X126.781 Y103.375 E0.02818
G1 X127.516 Y103.893 E0.02818
G1 X128.225 Y104.446 E0.02818
G1 X128.905 Y105.033 E0.02818
G1 X129.556 Y105.653 E0.02818
G1 X130.176 Y106.304 E0.02818
G1 X130.763 Y106.984 E0.02818
G1 X131.316 Y107.693 E0.02818
G1 X131.834 Y108.428 E0.02818
G1 X132.315 Y109.187 E0.02818
G1 X132.758 Y109.969 E0.02818
G1 X133.162 Y110.772 E0.02818
G1 X133.526 Y111.594 E0.02818
G1 X133.849 Y112.432 E0.02818
G1 X134.131 Y113.286 E0.02818
G1 X134.371 Y114.152 E0.02818
G1 X134.568 Y115.029 E0.02818
G1 X134.722 Y115.915 E0.02818
G1 X134.832 Y116.807 E0.02818
G1 X134.898 Y117.703 E0.02818
G1 X134.920 Y118.602 E0.02818
G1 X134.898 Y119.500 E0.02818
G1 X134.832 Y120.397 E0.02818
G1 X134.722 Y121.289 E0.02818
G1 X134.568 Y122.174 E0.02818
G1 X134.371 Y123.051 E0.02818
G1 X134.131 Y123.917 E0.02818
G1 X133.849 Y124.771 E0.02818
G1 X133.526 Y125.610 E0.02818
G1 X133.162 Y126.431 E0.02818
G1 X132.758 Y127.234 E0.02818
G1 X132.315 Y128.016 E0.02818
G1 X131.834 Y128.776 E0.02818
G1 X131.316 Y129.510 E0.02818
G1 X130.763 Y130.219 E0.02818
G1 X130.176 Y130.900 E0.02818
G1 X129.556 Y131.551 E0.02818
G1 X128.905 Y132.170 E0.02818
G1 X128.225 Y132.757 E0.02818
G1 X127.516 Y133.310 E0.02818
G1 X126.781 Y133.828 E0.02818
G1 X126.022 Y134.309 E0.02818
G1 X125.240 Y134.752 E0.02818
G1 X124.437 Y135.156 E0.02818
G1 X123.615 Y135.520 E0.02818
G1 X122.777 Y135.844 E0.02818
G1 X121.923 Y136.126 E0.02818
G1 X121.057 Y136.365 E0.02818
G1 X120.180 Y136.562 E0.02818
G1 X119.294 Y136.716 E0.02818
G1 X118.402 Y136.826 E0.02818
G1 X117.506 Y136.892 E0.02818
G1 X116.607 Y136.914 E0.02818
G1 X115.709 Y136.892 E0.02818
G1 X114.812 Y136.826 E0.02818
G1 X113.920 Y136.716 E0.02818
G1 X113.035 Y136.562 E0.02818
G1 X112.158 Y136.365 E0.02818
G1 X111.291 Y136.126 E0.02818
G1 X110.438 Y135.844 E0.02818
G1 X109.599 Y135.520 E0.02818
G1 X108.778 Y135.156 E0.02818
G1 X107.975 Y134.752 E0.02818
G1 X107.193 Y134.309 E0.02818
G1 X106.433 Y133.828 E0.02818
G1 X105.698 Y133.310 E0.02818
G1 X104.990 Y132.757 E0.02818
G1 X104.309 Y132.170 E0.02818
G1 X103.658 Y131.551 E0.02818
G1 X103.038 Y130.900 E0.02818
G1 X102.451 Y130.219 E0.02818
G1 X101.898 Y129.510 E0.02818
G1 X101.381 Y128.776 E0.02818
G1 X100.900 Y128.016 E0.02818
G1 X100.457 Y127.234 E0.02818
G1 X100.053 Y126.431 E0.02818
G1 X99.689 Y125.610 E0.02818
G1 X99.365 Y124.771 E0.02818
G1 X99.083 Y123.917 E0.02818
G1 X98.843 Y123.051 E0.02818
G1 X98.646 Y122.174 E0.02818
G1 X98.493 Y121.289 E0.02818
G1 X98.383 Y120.397 E0.02818
G1 X98.317 Y119.500 E0.02818
G1 X98.295 Y118.602 E0.02818
G1 X98.317 Y117.703 E0.02818
G1 X98.383 Y116.807 E0.02818
G1 X98.493 Y115.915 E0.02818
G1 X98.646 Y115.029 E0.02818
G1 X98.843 Y114.152 E0.02818
G1 X99.083 Y113.286 E0.02818
G1 X99.365 Y112.432 E0.02818
G1 X99.689 Y111.594 E0.02818
G1 X100.053 Y110.772 E0.02818
G1 X100.457 Y109.969 E0.02818
G1 X100.900 Y109.187 E0.02818
G1 X101.381 Y108.428 E0.02818
G1 X101.898 Y107.693 E0.02818
G1 X102.451 Y106.984 E0.02818
G1 X103.038 Y106.304 E0.02818
G1 X103.658 Y105.653 E0.02818
G1 X104.309 Y105.033 E0.02818
G1 X104.990 Y104.446 E0.02818
G1 X105.698 Y103.893 E0.02818
G1 X106.433 Y103.375 E0.02818
G1 X107.193 Y102.894 E0.02818
G1 X107.975 Y102.451 E0.02818
G1 X108.778 Y102.047 E0.02818
G1 X109.599 Y101.683 E0.02818
G1 X110.438 Y101.359 E0.02818
G1 X111.234 Y101.096 E0.02630
G1 X111.116 Y100.738 F9000.000
;TYPE:External perimeter
G1 F1200.000
G1 X112.066 Y100.472 E0.03093
G1 X112.961 Y100.271 E0.02876
G1 X113.865 Y100.114 E0.02876
G1 X114.775 Y100.002 E0.02876
G1 X115.690 Y99.934 E0.02876
G1 X116.636 Y99.912 E0.02966
G1 X117.524 Y99.934 E0.02787
G1 X118.439 Y100.002 E0.02876
G1 X119.350 Y100.114 E0.02876
G1 X120.253 Y100.271 E0.02876
G1 X121.149 Y100.472 E0.02876
G1 X122.033 Y100.716 E0.02876
G1 X122.904 Y101.004 E0.02876
G1 X123.760 Y101.334 E0.02876
G1 X124.598 Y101.706 E0.02876
G1 X125.418 Y102.119 E0.02876
G1 X126.216 Y102.571 E0.02876
G1 X126.991 Y103.061 E0.02876
G1 X127.741 Y103.590 E0.02876
G1 X128.464 Y104.154 E0.02876
G1 X129.159 Y104.753 E0.02876
G1 X129.823 Y105.386 E0.02876
G1 X130.456 Y106.050 E0.02876
G1 X131.055 Y106.745 E0.02876
G1 X131.619 Y107.468 E0.02876
G1 X132.147 Y108.218 E0.02876
G1 X132.638 Y108.993 E0.02876
G1 X133.090 Y109.791 E0.02876
G1 X133.503 Y110.611 E0.02876
G1 X133.874 Y111.449 E0.02876
G1 X134.205 Y112.305 E0.02876
G1 X134.492 Y113.176 E0.02876
G1 X134.737 Y114.060 E0.02876
G1 X134.938 Y114.955 E0.02876
G1 X135.095 Y115.859 E0.02876
G1 X135.207 Y116.770 E0.02876
G1 X135.275 Y117.684 E0.02876
G1 X135.297 Y118.602 E0.02876
G1 X135.275 Y119.519 E0.02876
G1 X135.207 Y120.433 E0.02876
G1 X135.095 Y121.344 E0.02876
G1 X134.938 Y122.248 E0.02876
G1 X134.737 Y123.143 E0.02876
G1 X134.492 Y124.027 E0.02876
G1 X134.205 Y124.898 E0.02876
G1 X133.874 Y125.754 E0.02876
G1 X133.503 Y126.593 E0.02876
G1 X133.090 Y127.412 E0.02876
G1 X132.638 Y128.210 E0.02876
G1 X132.147 Y128.985 E0.02876
G1 X131.619 Y129.735 E0.02876
G1 X131.055 Y130.458 E0.02876
G1 X130.456 Y131.153 E0.02876
G1 X129.823 Y131.817 E0.02876
G1 X129.159 Y132.450 E0.02876
G1 X128.464 Y133.049 E0.02876
G1 X127.741 Y133.613 E0.02876
G1 X126.991 Y134.142 E0.02876
G1 X126.216 Y134.632 E0.02876
G1 X125.418 Y135.085 E0.02876
G1 X124.598 Y135.497 E0.02876
G1 X123.760 Y135.869 E0.02876
G1 X122.904 Y136.199 E0.02876
G1 X122.033 Y136.487 E0.02876
G1 X121.149 Y136.731 E0.02876
G1 X120.253 Y136.932 E0.02876
G1 X119.350 Y137.089 E0.02876
G1 X118.439 Y137.201 E0.02876
G1 X117.524 Y137.269 E0.02876
G1 X116.607 Y137.291 E0.02876
G1 X115.690 Y137.269 E0.02876
G1 X114.775 Y137.201 E0.02876
G1 X113.865 Y137.089 E0.02876
G1 X112.961 Y136.932 E0.02876
G1 X112.066 Y136.731 E0.02876
G1 X111.182 Y136.487 E0.02876
G1 X110.311 Y136.199 E0.02876
G1 X109.455 Y135.869 E0.02876
G1 X108.616 Y135.497 E0.02876
G1 X107.797 Y135.085 E0.02876
G1 X106.999 Y134.632 E0.02876
G1 X106.224 Y134.142 E0.02876
G1 X105.474 Y133.613 E0.02876
G1 X104.750 Y133.049 E0.02876
G1 X104.056 Y132.450 E0.02876
G1 X103.392 Y131.817 E0.02876
G1 X102.759 Y131.153 E0.02876
G1 X102.160 Y130.458 E0.02876
G1 X101.595 Y129.735 E0.02876
G1 X101.067 Y128.985 E0.02876
G1 X100.576 Y128.210 E0.02876
G1 X100.124 Y127.412 E0.02876
G1 X99.712 Y126.593 E0.02876
G1 X99.340 Y125.754 E0.02876
G1 X99.010 Y124.898 E0.02876
G1 X98.722 Y124.027 E0.02876
G1 X98.477 Y123.143 E0.02876
G1 X98.277 Y122.248 E0.02876
G1 X98.120 Y121.344 E0.02876
G1 X98.007 Y120.433 E0.02876
G1 X97.940 Y119.519 E0.02876
G1 X97.917 Y118.602 E0.02876
G1 X97.940 Y117.684 E0.02876
G1 X98.007 Y116.770 E0.02876
G1 X98.120 Y115.859 E0.02876
G1 X98.277 Y114.955 E0.02876
G1 X98.477 Y114.060 E0.02876
G1 X98.722 Y113.176 E0.02876
G1 X99.010 Y112.305 E0.02876
G1 X99.340 Y111.449 E0.02876
G1 X99.712 Y110.611 E0.02876
G1 X100.124 Y109.791 E0.02876
G1 X100.576 Y108.993 E0.02876
G1 X101.067 Y108.218 E0.02876
G1 X101.595 Y107.468 E0.02876
G1 X102.160 Y106.745 E0.02876
G1 X102.759 Y106.050 E0.02876
G1 X103.392 Y105.386 E0.02876
G1 X104.056 Y104.753 E0.02876
G1 X104.750 Y104.154 E0.02876
G1 X105.474 Y103.590 E0.02876
G1 X106.224 Y103.061 E0.02876
G1 X106.999 Y102.571 E0.02876
G1 X107.797 Y102.119 E0.02876
G1 X108.616 Y101.706 E0.02876
G1 X109.455 Y101.334 E0.02876
G1 X110.311 Y101.004 E0.02876
G1 X111.059 Y100.757 E0.02471
G1 X111.409 Y101.011 F9000.000
G1 E-4.55000 F3300.000
;WIPE_START
G1 F7200.000
G1 X112.066 Y100.472 E-0.45565
G1 X112.961 Y100.271 E-0.39943
G1 X113.865 Y100.114 E-0.39943
G1 X114.775 Y100.002 E-0.39942
G1 X115.230 Y99.968 E-0.19857
;WIPE_END
G1 E-0.09750 F3300.000
G1 X127.616 Y104.114 F9000.000
G1 E6.50000 F2400.000
;TYPE:Solid infill
;WIDTH:0.422469
G1 F1200.000
G1 X129.391 Y105.889 E0.07921
G1 X129.967 Y106.493 E0.02635
G1 X130.545 Y107.164 E0.02793
G1 X131.089 Y107.861 E0.02793
G1 X131.682 Y108.717 E0.03287
G1 X126.492 Y103.526 E0.23167
G1 X125.876 Y103.137 E0.02298
G1 X125.159 Y102.730 E0.02604
G1 X132.479 Y110.050 E0.32670
G1 X133.003 Y111.111 E0.03735
G1 X124.098 Y102.206 E0.39746
G1 X123.169 Y101.814 E0.03183
G1 X133.395 Y112.040 E0.45644
G1 X133.700 Y112.882 E0.02826
G1 X122.327 Y101.508 E0.50763
G1 X121.548 Y101.267 E0.02571
G1 X133.942 Y113.660 E0.55314
G1 X134.135 Y114.390 E0.02383
G1 X120.819 Y101.074 E0.59433
G1 X120.126 Y100.919 E0.02239
G1 X134.290 Y115.082 E0.63216
G1 X134.403 Y115.732 E0.02081
G1 X119.477 Y100.806 E0.66619
G1 X118.852 Y100.717 E0.01992
G1 X134.491 Y116.357 E0.69803
G1 X134.560 Y116.962 E0.01922
G1 X118.247 Y100.649 E0.72808
G1 X117.667 Y100.606 E0.01834
G1 X134.602 Y117.542 E0.75586
G1 X134.625 Y118.101 E0.01766
G1 X117.108 Y100.584 E0.78181
G1 X116.561 Y100.574 E0.01726
G1 X134.636 Y118.649 E0.80670
G1 X134.623 Y119.173 E0.01654
G1 X116.037 Y100.586 E0.82955
G1 X115.522 Y100.608 E0.01626
G1 X134.601 Y119.687 E0.85152
G1 X134.564 Y120.187 E0.01582
G1 X115.022 Y100.645 E0.87218
G1 X114.536 Y100.696 E0.01542
G1 X134.513 Y120.673 E0.89160
G1 X134.454 Y121.150 E0.01520
G1 X114.058 Y100.755 E0.91030
G1 X113.597 Y100.830 E0.01476
G1 X134.379 Y121.612 E0.92753
G1 X134.299 Y122.069 E0.01465
G1 X113.139 Y100.910 E0.94440
G1 X112.699 Y101.006 E0.01423
G1 X134.203 Y122.510 E0.95976
G1 X134.104 Y122.948 E0.01418
G1 X112.261 Y101.104 E0.97493
G1 X111.839 Y101.219 E0.01380
G1 X133.990 Y123.370 E0.98863
G1 X133.873 Y123.790 E0.01377
G1 X111.418 Y101.336 E1.00220
G1 X111.013 Y101.467 E0.01345
G1 X133.742 Y124.196 E1.01442
G1 X133.608 Y124.599 E0.01341
G1 X110.610 Y101.600 E1.02648
G1 X110.219 Y101.747 E0.01316
G1 X133.462 Y124.989 E1.03737
G1 X133.313 Y125.377 E0.01310
G1 X109.832 Y101.896 E1.04799
G1 X109.455 Y102.056 E0.01292
G1 X133.153 Y125.754 E1.05767
G1 X132.988 Y126.126 E0.01284
G1 X109.083 Y102.221 E1.06692
G1 X108.719 Y102.393 E0.01272
G1 X132.816 Y126.490 E1.07549
G1 X132.636 Y126.847 E0.01262
G1 X108.362 Y102.573 E1.08340
G1 X108.009 Y102.757 E0.01256
G1 X132.452 Y127.200 E1.09095
G1 X132.258 Y127.543 E0.01243
G1 X107.666 Y102.951 E1.09757
G1 X107.324 Y103.146 E0.01242
G1 X132.063 Y127.885 E1.10415
G1 X131.855 Y128.213 E0.01228
G1 X106.996 Y103.354 E1.10953
G1 X106.667 Y103.562 E0.01228
G1 X131.647 Y128.542 E1.11491
G1 X131.428 Y128.860 E0.01218
G1 X106.349 Y103.781 E1.11935
G1 X106.034 Y104.002 E0.01216
G1 X131.206 Y129.175 E1.12351
G1 X130.978 Y129.484 E0.01211
G1 X105.725 Y104.230 E1.12710
G1 X105.424 Y104.466 E0.01207
G1 X130.743 Y129.785 E1.13006
G1 X130.506 Y130.085 E0.01206
G1 X105.124 Y104.703 E1.13283
G1 X104.836 Y104.952 E0.01201
G1 X130.257 Y130.373 E1.13459
G1 X130.009 Y130.661 E0.01201
G1 X104.548 Y105.200 E1.13636
G1 X104.271 Y105.460 E0.01198
G1 X129.749 Y130.938 E1.13715
G1 X129.487 Y131.213 E0.01198
G1 X103.996 Y105.722 E1.13773
G1 X103.727 Y105.990 E0.01198
G1 X129.219 Y131.481 E1.13773
G1 X128.944 Y131.743 E0.01198
G1 X103.466 Y106.265 E1.13715
G1 X103.206 Y106.542 E0.01198
G1 X128.667 Y132.003 E1.13636
G1 X128.378 Y132.251 E0.01201
G1 X102.957 Y106.830 E1.13459
G1 X102.709 Y107.119 E0.01201
G1 X128.090 Y132.500 E1.13283
G1 X127.791 Y132.737 E0.01206
G1 X102.471 Y107.418 E1.13006
G1 X102.236 Y107.719 E0.01207
G1 X127.489 Y132.973 E1.12710
G1 X127.181 Y133.201 E0.01211
G1 X102.008 Y108.028 E1.12351
G1 X101.786 Y108.343 E0.01216
G1 X126.866 Y133.423 E1.11935
G1 X126.548 Y133.641 E0.01218
G1 X101.568 Y108.661 E1.11491
G1 X101.360 Y108.990 E0.01228
G1 X126.219 Y133.849 E1.10953
G1 X125.890 Y134.057 E0.01228
G1 X101.151 Y109.318 E1.10415
G1 X100.957 Y109.661 E0.01242
G1 X125.548 Y134.252 E1.09757
G1 X125.206 Y134.446 E0.01243
G1 X100.763 Y110.003 E1.09094
G1 X100.579 Y110.356 E0.01256
G1 X124.853 Y134.630 E1.08340
G1 X124.496 Y134.810 E0.01262
G1 X100.399 Y110.713 E1.07549
G1 X100.227 Y111.078 E0.01272
G1 X124.131 Y134.982 E1.06692
G1 X123.759 Y135.147 E0.01284
G1 X100.062 Y111.449 E1.05767
G1 X99.902 Y111.826 E0.01292
G1 X123.383 Y135.307 E1.04799
G1 X122.995 Y135.456 E0.01310
G1 X99.752 Y112.214 E1.03737
G1 X99.606 Y112.604 E0.01316
G1 X122.605 Y135.603 E1.02648
G1 X122.201 Y135.736 E0.01341
G1 X99.473 Y113.008 E1.01442
G1 X99.341 Y113.413 E0.01345
G1 X121.796 Y135.868 E1.00220
G1 X121.376 Y135.984 E0.01377
G1 X99.225 Y113.833 E0.98863
G1 X99.110 Y114.255 E0.01380
G1 X120.954 Y136.099 E0.97493
G1 X120.515 Y136.197 E0.01418
G1 X99.012 Y114.693 E0.95976
G1 X98.915 Y115.134 E0.01423
G1 X120.075 Y136.294 E0.94440
G1 X119.618 Y136.373 E0.01465
