; generated by PrusaSlicer 2.3.0+ on 2021-02-26 at 12:01:19 UTC

; 

; external perimeters extrusion width = 0.45mm
; perimeters extrusion width = 0.45mm
; infill extrusion width = 0.45mm
; solid infill extrusion width = 0.45mm
; top infill extrusion width = 0.40mm
; first layer extrusion width = 0.42mm

M201 X500 Y500 Z100 E5000 ; sets maximum accelerations, mm/sec^2
M203 X500 Y500 Z10 E60 ; sets maximum feedrates, mm/sec
M204 P500 R1000 T500 ; sets acceleration (P, T) and retract acceleration (R), mm/sec^2
M205 X8.00 Y8.00 Z0.40 E5.00 ; sets the jerk limits, mm/sec
M205 S0 T0 ; sets the minimum extruding and travel feed rate, mm/sec
M107
;TYPE:Custom
G90 ; use absolute coordinates
M83 ; extruder relative mode
M104 S200 ; set extruder temp
M140 S60 ; set bed temp
M190 S60 ; wait for bed temp
M109 S200 ; wait for extruder temp
G28 ; home all
G1 Z2 F240
G1 X2 Y10 F3000
G1 Z0.28 F240
G92 E0
G1 Y190 E15 F1500 ; intro line
G1 X2.3 F5000
G92 E0
G1 Y10 E15 F1200 ; intro line
G92 E0
G21 ; set units to millimeters
G90 ; use absolute coordinates
M83 ; use relative distances for extrusion
; Filament gcode
;LAYER_CHANGE
;Z:0.2
;HEIGHT:0.2
;BEFORE_LAYER_CHANGE
G92 E0
;0.2


G1 E-6.50000 F3300.000
G1 Z0.200 F1200.000
;AFTER_LAYER_CHANGE
;0.2
G1 X108.111 Y46.884
G1 E6.50000 F2400.000
;TYPE:Skirt
;WIDTH:0.42
G1 F1200.000
G1 X108.677 Y46.460 E0.02218
G1 X109.333 Y46.194 E0.02218
G1 X110.034 Y46.104 E0.02218
G1 X120.577 Y46.444 E0.33072
G1 X121.355 Y46.730 E0.02600
G1 X122.013 Y47.235 E0.02600
G1 X122.490 Y47.912 E0.02600
G1 X122.746 Y48.705 E0.02612
G1 X122.753 Y81.193 E1.01862
G1 X121.295 Y95.666 E0.45609
G1 X120.861 Y96.752 E0.03668
G1 X120.323 Y97.446 E0.02752
G1 X119.620 Y97.923 E0.02663
G1 X118.439 Y98.337 E0.03923
G1 X111.979 Y98.385 E0.20257
G1 X111.223 Y98.273 E0.02396
G1 X110.195 Y97.841 E0.03497
G1 X109.520 Y97.300 E0.02714
G1 X109.063 Y96.612 E0.02587
G1 X108.656 Y95.446 E0.03872
G1 X107.257 Y81.135 E0.45087
G1 X107.221 Y50.779 E0.95177
G1 X107.301 Y48.490 E0.07182
G1 X107.432 Y47.945 E0.01758
G1 X107.671 Y47.438 E0.01758
G1 X108.073 Y46.931 E0.02030
G1 X107.959 Y47.693
G1 X108.335 Y47.192 E0.01965
G1 X108.833 Y46.805 E0.01977
G1 X109.411 Y46.563 E0.01965
G1 X110.036 Y46.481 E0.01977
G1 X120.457 Y46.805 E0.32691
G1 X121.142 Y47.043 E0.02272
G1 X121.725 Y47.479 E0.02284
G1 X122.147 Y48.069 E0.02272
G1 X122.373 Y48.761 E0.02284
G1 X122.378 Y81.145 E1.01538
G1 X120.937 Y95.541 E0.45361
G1 X120.542 Y96.549 E0.03396
G1 X120.078 Y97.159 E0.02402
G1 X119.462 Y97.581 E0.02343
G1 X118.382 Y97.964 E0.03591
G1 X111.988 Y98.008 E0.20051
G1 X111.371 Y97.923 E0.01953
G1 X110.411 Y97.530 E0.03251
G1 X109.814 Y97.063 E0.02378
G1 X109.407 Y96.458 E0.02284
G1 X109.029 Y95.389 E0.03556
G1 X107.634 Y81.122 E0.44947
G1 X107.597 Y50.809 E0.95043
G1 X107.669 Y48.586 E0.06976
G1 X107.940 Y47.750 E0.02754
G1 E-4.55000 F3300.000
;WIPE_START
G1 F960.000
G1 X108.268 Y47.287 E-1.85250
;WIPE_END
G1 E-0.09750 F3300.000
G1 X111.846 Y94.854 F1200.000
G1 E6.50000 F2400.000
;TYPE:External perimeter
G1 F1200.000
G1 X112.041 Y94.772 E0.00663
G1 X117.958 Y94.759 E0.18551
G1 X118.153 Y94.839 E0.00663
G1 X118.217 Y94.993 E0.00521
G1 X118.154 Y95.146 E0.00521
G1 X117.959 Y95.228 E0.00663
G1 X112.042 Y95.241 E0.18551
G1 X111.847 Y95.161 E0.00663
G1 X111.783 Y95.007 E0.00521
G1 X111.823 Y94.909 E0.00333
G1 X112.050 Y94.908
G1 E-4.55000 F3300.000
;WIPE_START
G1 F960.000
G1 X112.041 Y94.772 E-0.84035
G1 X112.351 Y94.772 E-1.01215
;WIPE_END
G1 E-0.09750 F3300.000
G1 X118.031 Y94.993 F1200.000
G1 E6.50000 F2400.000
;TYPE:Gap fill
;WIDTH:0.134672
G1 F1200.000
G1 X112.088 Y95.007 E0.04534
G1 E-4.55000 F3300.000
;WIPE_START
G1 F960.000
G1 X112.656 Y95.005 E-1.85250
;WIPE_END
G1 E-0.09750 F3300.000
G1 X110.690 Y80.353 F1200.000
G1 E6.50000 F2400.000
;TYPE:Perimeter
;WIDTH:0.42
G1 F1200.000
G1 X110.684 Y79.727 E0.01962
G1 X119.310 Y79.647 E0.27046
G1 X119.316 Y80.273 E0.01962
G1 X110.750 Y80.352 E0.26858
G1 X110.317 Y80.733
;TYPE:External perimeter
G1 X110.304 Y79.354 E0.04327
G1 X119.683 Y79.267 E0.29410
G1 X119.696 Y80.646 E0.04327
G1 X110.377 Y80.733 E0.29222
G1 X110.496 Y80.376
G1 E-4.55000 F3300.000
;WIPE_START
G1 F960.000
G1 X110.347 Y80.166 E-1.85250
;WIPE_END
G1 E-0.09750 F3300.000
G1 X119.124 Y79.962 F1200.000
G1 E6.50000 F2400.000
;TYPE:Gap fill
;WIDTH:0.291683
G1 F1200.000
G1 X110.876 Y80.038 E0.17062
G1 E-4.55000 F3300.000
;WIPE_START
G1 F960.000
G1 X111.443 Y80.033 E-1.85250
;WIPE_END
G1 E-0.09750 F3300.000
G1 X111.834 Y65.180 F1200.000
G1 E6.50000 F2400.000
;TYPE:External perimeter
;WIDTH:0.42
G1 F1200.000
G1 X111.764 Y65.013 E0.00567
G1 X111.832 Y64.846 E0.00567
G1 X112.041 Y64.759 E0.00709
G1 X117.957 Y64.734 E0.18551
G1 X118.166 Y64.820 E0.00709
G1 X118.236 Y64.987 E0.00567
G1 X118.168 Y65.154 E0.00567
G1 X117.959 Y65.241 E0.00709
G1 X112.043 Y65.266 E0.18551
G1 X111.889 Y65.203 E0.00521
G1 X111.881 Y65.005
G1 E-4.55000 F3300.000
;WIPE_START
G1 F960.000
G1 X111.764 Y65.013 E-0.74207
G1 X111.832 Y64.846 E-0.59048
G1 X111.979 Y64.784 E-0.51995
;WIPE_END
G1 E-0.09750 F3300.000
G1 X117.949 Y64.988 F1200.000
G1 E6.50000 F2400.000
;TYPE:Gap fill
;WIDTH:0.172939
G1 F1200.000
G1 X112.092 Y65.012 E0.06332
G1 X112.016 Y64.974 E0.00093
G1 E-4.55000 F3300.000
;WIPE_START
G1 F960.000
G1 X112.092 Y65.012 E-0.28003
G1 X112.574 Y65.010 E-1.57247
;WIPE_END
G1 E-0.09750 F3300.000
G1 X110.680 Y50.190 F1200.000
G1 E6.50000 F2400.000
;TYPE:Perimeter
;WIDTH:0.42
G1 F1200.000
G1 X110.698 Y49.565 E0.01962
G1 X119.320 Y49.810 E0.27046
G1 X119.302 Y50.435 E0.01962
G1 X110.740 Y50.192 E0.26858
G1 X110.292 Y50.556
;TYPE:External perimeter
G1 X110.331 Y49.177 E0.04327
G1 X119.708 Y49.444 E0.29410
G1 X119.669 Y50.823 E0.04327
G1 X110.352 Y50.558 E0.29222
G1 X110.485 Y50.206
G1 E-4.55000 F3300.000
;WIPE_START
G1 F960.000
G1 X110.344 Y49.991 E-1.85250
;WIPE_END
G1 E-0.09750 F3300.000
G1 X119.123 Y50.117 F1200.000
G1 E6.50000 F2400.000
;TYPE:Gap fill
;WIDTH:0.291685
G1 F1200.000
G1 X110.877 Y49.883 E0.17062
M106 S255
;LAYER_CHANGE
;Z:0.36
;HEIGHT:0.16
;BEFORE_LAYER_CHANGE
G92 E0
;0.36


G1 E-4.55000 F3300.000
;WIPE_START
G1 F960.000
G1 X111.444 Y49.899 E-1.85250
;WIPE_END
G1 E-0.09750 F3300.000
G1 Z0.360 F1200.000
;AFTER_LAYER_CHANGE
;0.36
M104 S190 ; set temperature
G1 X120.577 Y46.444
G1 E6.50000 F2400.000
;TYPE:Skirt
;WIDTH:0.42
G1 X121.355 Y46.730 E0.02127
G1 X122.013 Y47.235 E0.02127
G1 X122.490 Y47.912 E0.02127
G1 X122.746 Y48.705 E0.02138
G1 X122.753 Y81.193 E0.83344
G1 X121.295 Y95.666 E0.37318
G1 X120.861 Y96.752 E0.03001
G1 X120.323 Y97.446 E0.02252
G1 X119.620 Y97.923 E0.02179
G1 X118.439 Y98.337 E0.03210
G1 X111.979 Y98.385 E0.16575
G1 X111.223 Y98.273 E0.01961
G1 X110.195 Y97.841 E0.02861
G1 X109.520 Y97.300 E0.02221
G1 X109.063 Y96.612 E0.02117
G1 X108.656 Y95.446 E0.03168
G1 X107.257 Y81.135 E0.36891
G1 X107.221 Y50.779 E0.77875
G1 X107.301 Y48.490 E0.05876
G1 X107.432 Y47.945 E0.01439
G1 X107.671 Y47.438 E0.01439
G1 X108.111 Y46.884 E0.01815
G1 X108.677 Y46.460 E0.01815
G1 X109.333 Y46.194 E0.01815
G1 X110.034 Y46.104 E0.01815
G1 X120.517 Y46.442 E0.26906
G1 X120.457 Y46.805 F1200.000
G1 F2400.000
G1 X121.142 Y47.043 E0.01859
G1 X121.725 Y47.479 E0.01869
G1 X122.147 Y48.069 E0.01859
G1 X122.373 Y48.761 E0.01869
G1 X122.378 Y81.145 E0.83079
G1 X120.937 Y95.541 E0.37115
G1 X120.542 Y96.549 E0.02778
G1 X120.078 Y97.159 E0.01965
G1 X119.462 Y97.581 E0.01917
G1 X118.382 Y97.964 E0.02938
G1 X111.988 Y98.008 E0.16406
G1 X111.371 Y97.923 E0.01598
G1 X110.411 Y97.530 E0.02660
G1 X109.814 Y97.063 E0.01946
G1 X109.407 Y96.458 E0.01869
G1 X109.029 Y95.389 E0.02909
G1 X107.634 Y81.122 E0.36776
G1 X107.597 Y50.809 E0.77765
G1 X107.669 Y48.586 E0.05708
G1 X107.959 Y47.693 E0.02407
G1 X108.335 Y47.192 E0.01608
G1 X108.833 Y46.805 E0.01617
G1 X109.411 Y46.563 E0.01608
G1 X110.036 Y46.481 E0.01617
G1 X120.397 Y46.803 E0.26594
G1 E-4.55000 F3300.000
;WIPE_START
G1 F960.000
G1 X120.937 Y46.977 E-1.85250
;WIPE_END
G1 E-0.09750 F3300.000
G1 X118.269 Y94.723 F1200.000
G1 E6.50000 F2400.000
;TYPE:External perimeter
;WIDTH:0.45
G1 F1500.000
G1 X118.381 Y94.992 E0.00806
G1 X118.270 Y95.262 E0.00806
G1 X117.956 Y95.393 E0.00940
G1 X112.046 Y95.406 E0.16343
G1 X111.731 Y95.277 E0.00940
G1 X111.619 Y95.008 E0.00806
G1 X111.730 Y94.738 E0.00806
G1 X112.044 Y94.607 E0.00940
G1 X117.954 Y94.594 E0.16343
G1 X118.213 Y94.701 E0.00774
G1 X118.192 Y95.005 F1200.000
G1 E-4.55000 F3300.000
;WIPE_START
G1 F960.000
G1 X118.381 Y94.992 E-1.09928
G1 X118.293 Y95.206 E-0.75322
;WIPE_END
G1 E-0.09750 F3300.000
G1 X111.844 Y95.006 F1200.000
G1 E6.50000 F2400.000
;TYPE:Gap fill
;WIDTH:0.417504
G1 F1800.000
G1 X118.156 Y94.994 E0.16087
G1 E-4.55000 F3300.000
;WIPE_START
G1 F960.000
G1 X117.588 Y94.995 E-1.85250
;WIPE_END
G1 E-0.09750 F3300.000
G1 X119.362 Y80.319 F1200.000
G1 E6.50000 F2400.000
;TYPE:Perimeter
;WIDTH:0.45
G1 F1500.000
G1 X110.644 Y80.400 E0.24107
G1 X110.638 Y79.681 E0.01987
G1 X119.356 Y79.600 E0.24107
G1 X119.362 Y80.259 E0.01821
G1 X119.782 Y80.731 F1200.000
;TYPE:External perimeter
G1 F1500.000
G1 X110.232 Y80.819 E0.26406
G1 X110.218 Y79.269 E0.04286
G1 X119.768 Y79.181 E0.26406
G1 X119.781 Y80.671 E0.04120
G1 X119.382 Y80.713 F1200.000
G1 E-4.55000 F3300.000
;WIPE_START
G1 F960.000
G1 X119.214 Y80.680 E-1.85250
;WIPE_END
G1 E-0.09750 F3300.000
G1 X110.849 Y80.038 F1200.000
G1 E6.50000 F2400.000
;TYPE:Gap fill
;WIDTH:0.337348
G1 F1800.000
G1 X119.151 Y79.962 E0.16736
G1 E-4.55000 F3300.000
;WIPE_START
G1 F960.000
G1 X118.584 Y79.967 E-1.85250
;WIPE_END
G1 E-0.09750 F3300.000
G1 X117.873 Y64.991 F1200.000
G1 E6.50000 F2400.000
;TYPE:Perimeter
;WIDTH:0.45
G1 F1500.000
G1 X112.120 Y65.012 E0.15905
G1 X117.828 Y64.986 E0.15780
G1 X118.282 Y64.704 F1200.000
;TYPE:External perimeter
G1 F1500.000
G1 X118.400 Y64.986 E0.00847
G1 X118.284 Y65.269 E0.00847
G1 X117.957 Y65.406 E0.00980
G1 X112.046 Y65.431 E0.16343
G1 X111.718 Y65.296 E0.00980
G1 X111.600 Y65.014 E0.00847
G1 X111.716 Y64.731 E0.00847
G1 X112.043 Y64.594 E0.00980
G1 X117.954 Y64.569 E0.16343
G1 X118.226 Y64.681 E0.00815
G1 X118.201 Y64.999 F1200.000
G1 E-4.55000 F3300.000
;WIPE_START
G1 F960.000
G1 X118.400 Y64.986 E-1.14673
G1 X118.318 Y65.186 E-0.70576
;WIPE_END
G1 E-0.09750 F3300.000
G1 X119.347 Y50.483 F1200.000
G1 E6.50000 F2400.000
;TYPE:Perimeter
G1 F1500.000
G1 X110.632 Y50.235 E0.24107
G1 X110.653 Y49.517 E0.01987
G1 X119.368 Y49.765 E0.24107
G1 X119.349 Y50.423 E0.01821
G1 X119.751 Y50.910 F1200.000
;TYPE:External perimeter
G1 F1500.000
G1 X110.205 Y50.639 E0.26406
G1 X110.249 Y49.090 E0.04286
G1 X119.795 Y49.361 E0.26406
G1 X119.753 Y50.850 E0.04120
G1 X119.352 Y50.878 F1200.000
G1 E-4.55000 F3300.000
;WIPE_START
G1 F960.000
G1 X119.186 Y50.838 E-1.85250
;WIPE_END
G1 E-0.09750 F3300.000
G1 X110.850 Y49.882 F1200.000
G1 E6.50000 F2400.000
;TYPE:Gap fill
;WIDTH:0.33735
G1 F1800.000
G1 X119.150 Y50.118 E0.16736
;LAYER_CHANGE
;Z:0.52
;HEIGHT:0.16
;BEFORE_LAYER_CHANGE
G92 E0
;0.52


G1 E-4.55000 F3300.000
;WIPE_START
G1 F960.000
G1 X118.583 Y50.102 E-1.85250
;WIPE_END
G1 E-0.09750 F3300.000
G1 Z0.520 F1200.000
;AFTER_LAYER_CHANGE
;0.52
G1 X117.873 Y95.137
G1 E6.50000 F2400.000
;TYPE:Perimeter
;WIDTH:0.45
G1 F1060
G1 X112.128 Y95.150 E0.15885
G1 X111.936 Y95.071 E0.00574
G1 X111.909 Y95.007 E0.00193
G1 X111.936 Y94.943 E0.00193
G1 X112.127 Y94.863 E0.00572
G1 X117.895 Y94.859 E0.15950
G1 X118.064 Y94.929 E0.00505
G1 X118.091 Y94.993 E0.00193
G1 X118.064 Y95.057 E0.00193
G1 X117.928 Y95.114 E0.00408
G1 X118.383 Y95.375 F1200.000
;TYPE:External perimeter
G1 F1060
G1 X117.956 Y95.553 E0.01279
G1 X112.046 Y95.566 E0.16343
G1 X111.618 Y95.390 E0.01279
G1 X111.459 Y95.008 E0.01145
G1 X111.617 Y94.625 E0.01145
G1 X112.043 Y94.447 E0.01278
G1 X117.977 Y94.444 E0.16408
G1 X118.382 Y94.610 E0.01209
G1 X118.541 Y94.992 E0.01145
G1 X118.406 Y95.319 E0.00979
G1 X117.997 Y95.272 F1200.000
G1 E-4.55000 F3300.000
;WIPE_START
G1 F960.000
G1 X117.956 Y95.553 E-1.65442
G1 X117.896 Y95.553 E-0.19809
;WIPE_END
G1 E-0.09750 F3300.000
G1 X119.362 Y80.319 F1200.000
G1 E6.50000 F2400.000
;TYPE:Perimeter
G1 F1060
G1 X110.644 Y80.400 E0.24107
G1 X110.638 Y79.681 E0.01987
G1 X119.356 Y79.600 E0.24107
G1 X119.362 Y80.259 E0.01821
G1 X119.782 Y80.731 F1200.000
;TYPE:External perimeter
G1 F1060
G1 X110.232 Y80.819 E0.26406
G1 X110.218 Y79.269 E0.04286
G1 X119.768 Y79.181 E0.26406
G1 X119.781 Y80.671 E0.04120
G1 X119.382 Y80.713 F1200.000
G1 E-4.55000 F3300.000
;WIPE_START
G1 F960.000
G1 X119.214 Y80.680 E-1.85250
;WIPE_END
G1 E-0.09750 F3300.000
G1 X110.849 Y80.038 F1200.000
G1 E6.50000 F2400.000
;TYPE:Gap fill
;WIDTH:0.337348
G1 F1060
G1 X119.151 Y79.962 E0.16736
G1 E-4.55000 F3300.000
;WIPE_START
G1 F960.000
G1 X118.584 Y79.967 E-1.85250
;WIPE_END
G1 E-0.09750 F3300.000
G1 X118.078 Y65.065 F1200.000
G1 E6.50000 F2400.000
;TYPE:Perimeter
;WIDTH:0.45
G1 F1060
G1 X117.873 Y65.151 E0.00614
G1 X112.128 Y65.175 E0.15885
G1 X111.922 Y65.090 E0.00614
G1 X111.890 Y65.013 E0.00233
G1 X111.922 Y64.935 E0.00233
G1 X112.127 Y64.849 E0.00614
G1 X117.872 Y64.825 E0.15885
G1 X118.078 Y64.910 E0.00614
G1 X118.110 Y64.987 E0.00233
G1 X118.101 Y65.010 E0.00067
G1 X118.560 Y64.985 F1200.000
;TYPE:External perimeter
G1 F1060
G1 X118.398 Y65.382 E0.01185
G1 X117.958 Y65.566 E0.01319
G1 X112.047 Y65.591 E0.16343
G1 X111.606 Y65.410 E0.01319
G1 X111.440 Y65.015 E0.01185
G1 X111.602 Y64.618 E0.01185
G1 X112.042 Y64.434 E0.01319
G1 X117.953 Y64.409 E0.16343
G1 X118.394 Y64.590 E0.01319
G1 X118.537 Y64.930 E0.01019
G1 X118.216 Y65.189 F1200.000
G1 E-4.55000 F3300.000
;WIPE_START
G1 F960.000
G1 X118.398 Y65.382 E-1.54446
G1 X118.311 Y65.419 E-0.30804
;WIPE_END
G1 E-0.09750 F3300.000
G1 X119.347 Y50.483 F1200.000
G1 E6.50000 F2400.000
;TYPE:Perimeter
G1 F1060
G1 X110.632 Y50.235 E0.24107
G1 X110.653 Y49.517 E0.01987
G1 X119.368 Y49.765 E0.24107
G1 X119.349 Y50.423 E0.01821
G1 X119.751 Y50.910 F1200.000
;TYPE:External perimeter
G1 F1060
G1 X110.205 Y50.639 E0.26406
G1 X110.249 Y49.090 E0.04286
G1 X119.795 Y49.361 E0.26406
G1 X119.753 Y50.850 E0.04120
G1 X119.352 Y50.878 F1200.000
G1 E-4.55000 F3300.000
;WIPE_START
G1 F960.000
G1 X119.186 Y50.838 E-1.85250
;WIPE_END
G1 E-0.09750 F3300.000
G1 X110.850 Y49.882 F1200.000
G1 E6.50000 F2400.000
;TYPE:Gap fill
;WIDTH:0.337349
G1 F1060
G1 X119.150 Y50.118 E0.16736
;LAYER_CHANGE
;Z:0.68
;HEIGHT:0.16
;BEFORE_LAYER_CHANGE
G92 E0
;0.68


G1 E-4.55000 F3300.000
;WIPE_START
G1 F960.000
G1 X118.583 Y50.102 E-1.85250
;WIPE_END
G1 E-0.09750 F3300.000
G1 Z0.680 F1200.000
;AFTER_LAYER_CHANGE
;0.68
G1 X118.097 Y94.895
G1 E6.50000 F2400.000
;TYPE:Perimeter
;WIDTH:0.45
G1 F1213
G1 X118.138 Y94.993 E0.00292
G1 X118.098 Y95.091 E0.00292
G1 X117.873 Y95.184 E0.00674
G1 X112.128 Y95.197 E0.15885
G1 X111.903 Y95.105 E0.00674
G1 X111.862 Y95.007 E0.00292
G1 X111.902 Y94.909 E0.00292
G1 X112.127 Y94.816 E0.00674
G1 X117.872 Y94.803 E0.15885
G1 X118.042 Y94.873 E0.00508
G1 X118.415 Y94.577 F1200.000
;TYPE:External perimeter
G1 F1213
G1 X118.588 Y94.992 E0.01244
G1 X118.417 Y95.408 E0.01244
G1 X117.957 Y95.600 E0.01378
G1 X112.046 Y95.613 E0.16343
G1 X111.585 Y95.423 E0.01378
G1 X111.412 Y95.008 E0.01244
G1 X111.583 Y94.592 E0.01244
G1 X112.043 Y94.400 E0.01378
G1 X117.954 Y94.387 E0.16343
G1 X118.359 Y94.554 E0.01212
G1 X118.308 Y94.962 F1200.000
G1 E-4.55000 F3300.000
;WIPE_START
G1 F960.000
G1 X118.588 Y94.992 E-1.61404
G1 X118.560 Y95.059 E-0.23846
;WIPE_END
G1 E-0.09750 F3300.000
G1 X119.362 Y80.319 F1200.000
G1 E6.50000 F2400.000
;TYPE:Perimeter
G1 F1213
G1 X110.644 Y80.400 E0.24107
G1 X110.638 Y79.681 E0.01987
G1 X119.356 Y79.600 E0.24107
G1 X119.362 Y80.259 E0.01821
G1 X119.782 Y80.731 F1200.000
;TYPE:External perimeter
G1 F1213
G1 X110.232 Y80.819 E0.26406
G1 X110.218 Y79.269 E0.04286
G1 X119.768 Y79.181 E0.26406
G1 X119.781 Y80.671 E0.04120
G1 X119.382 Y80.713 F1200.000
G1 E-4.55000 F3300.000
;WIPE_START
G1 F960.000
G1 X119.214 Y80.680 E-1.85250
;WIPE_END
G1 E-0.09750 F3300.000
G1 X110.849 Y80.038 F1200.000
G1 E6.50000 F2400.000
;TYPE:Gap fill
;WIDTH:0.337348
G1 F1213
G1 X119.151 Y79.962 E0.16736
G1 E-4.55000 F3300.000
;WIPE_START
