; generated by PrusaSlicer 2.3.0+ on 2021-05-09 at 20:59:02 UTC

; 

; external perimeters extrusion width = 0.45mm
; perimeters extrusion width = 0.45mm
; infill extrusion width = 0.45mm
; solid infill extrusion width = 0.45mm
; top infill extrusion width = 0.40mm
; first layer extrusion width = 0.42mm

M201 X500 Y500 Z100 E5000 ; sets maximum accelerations, mm/sec^2
M203 X500 Y500 Z10 E60 ; sets maximum feedrates, mm/sec
M204 P500 R1000 T500 ; sets acceleration (P, T) and retract acceleration (R), mm/sec^2
M205 X8.00 Y8.00 Z0.40 E5.00 ; sets the jerk limits, mm/sec
M205 S0 T0 ; sets the minimum extruding and travel feed rate, mm/sec
M107
;TYPE:Custom
G90 ; use absolute coordinates
M83 ; extruder relative mode
M104 S200 ; set extruder temp
M140 S60 ; set bed temp
M190 S60 ; wait for bed temp
M109 S200 ; wait for extruder temp
G28 ; home all
G1 Z2 F240
G1 X2 Y10 F3000
G1 Z0.28 F240
G92 E0
G1 Y190 E15 F1500 ; intro line
G1 X2.3 F5000
G92 E0
G1 Y10 E15 F1200 ; intro line
G92 E0
G21 ; set units to millimeters
G90 ; use absolute coordinates
M83 ; use relative distances for extrusion
; Filament gcode
;LAYER_CHANGE
;Z:0.2
;HEIGHT:0.2
;BEFORE_LAYER_CHANGE
G92 E0
;0.2


G1 E-6.50000 F3300.000
G1 Z0.200 F9000.000
;AFTER_LAYER_CHANGE
;0.2
G1 X97.429 Y101.163
G1 E6.50000 F2400.000
;TYPE:Skirt
;WIDTH:0.42
G1 F1185
G1 X98.137 Y101.028 E0.02259
G1 X112.244 Y100.521 E0.44260
G1 X129.025 Y100.333 E0.52621
G1 X143.237 Y102.639 E0.45143
G1 X143.706 Y102.794 E0.01550
G1 X144.136 Y103.045 E0.01562
G1 X144.502 Y103.378 E0.01550
G1 X144.793 Y103.782 E0.01562
G1 X145.021 Y104.333 E0.01870
G1 X145.105 Y104.927 E0.01882
G1 X145.105 Y125.025 E0.63016
G1 X145.030 Y125.556 E0.01680
G1 X144.840 Y126.053 E0.01668
G1 X144.544 Y126.495 E0.01669
G1 X144.154 Y126.863 E0.01680
G1 X143.688 Y127.135 E0.01692
G1 X143.176 Y127.295 E0.01680
G1 X141.690 Y127.337 E0.04661
G1 X98.122 Y125.779 E1.36693
G1 X97.604 Y125.699 E0.01645
G1 X97.115 Y125.507 E0.01645
G1 X96.678 Y125.211 E0.01657
G1 X96.319 Y124.828 E0.01645
G1 X95.976 Y124.181 E0.02296
G1 X95.846 Y123.457 E0.02308
G1 X95.846 Y103.354 E0.63031
G1 X95.918 Y102.820 E0.01692
G1 X96.108 Y102.318 E0.01680
G1 X96.407 Y101.869 E0.01692
G1 X96.797 Y101.501 E0.01680
G1 X97.376 Y101.191 E0.02060
G1 E-4.55000 F3300.000
;WIPE_START
G1 F7200.000
G1 X98.137 Y101.028 E-0.33867
G1 X101.611 Y100.903 E-1.51383
;WIPE_END
G1 E-0.09750 F3300.000
G1 X142.138 Y105.171 F9000.000
G1 E6.50000 F2400.000
;TYPE:External perimeter
G1 F1185
G1 X142.339 Y105.171 E0.00630
G1 X142.339 Y124.751 E0.61392
G1 X142.138 Y124.751 E0.00630
G1 X142.138 Y105.231 E0.61204
G1 X142.312 Y105.270 F9000.000
G1 E-4.55000 F3300.000
;WIPE_START
G1 F7200.000
G1 X142.339 Y105.171 E-0.09132
G1 X142.339 Y109.215 E-1.76119
;WIPE_END
G1 E-0.09750 F3300.000
G1 X128.532 Y103.020 F9000.000
G1 E6.50000 F2400.000
G1 F1185
G1 X128.532 Y122.400 E0.60765
G1 X128.148 Y122.400 E0.01203
G1 X128.148 Y103.020 E0.60765
G1 X128.472 Y103.020 E0.01015
G1 X128.529 Y103.420 F9000.000
G1 E-4.55000 F3300.000
;WIPE_START
G1 F7200.000
G1 X128.485 Y107.274 E-1.85250
;WIPE_END
G1 E-0.09750 F3300.000
G1 X113.172 Y103.207 F9000.000
G1 E6.50000 F2400.000
G1 F1185
G1 X113.172 Y122.587 E0.60765
G1 X112.789 Y122.587 E0.01203
G1 X112.789 Y103.207 E0.60765
G1 X113.112 Y103.207 E0.01015
G1 X113.170 Y103.607 F9000.000
G1 E-4.55000 F3300.000
;WIPE_START
G1 F7200.000
G1 X113.125 Y107.462 E-1.85250
;WIPE_END
G1 E-0.09750 F3300.000
G1 X99.096 Y103.714 F9000.000
G1 E6.50000 F2400.000
G1 F1185
G1 X99.096 Y123.094 E0.60765
G1 X98.712 Y123.094 E0.01203
G1 X98.712 Y103.714 E0.60765
G1 X99.036 Y103.714 E0.01015
G1 X99.093 Y104.114 F9000.000
M106 S255
;LAYER_CHANGE
;Z:0.36
;HEIGHT:0.16
;BEFORE_LAYER_CHANGE
G92 E0
;0.36


G1 E-4.55000 F3300.000
;WIPE_START
G1 F7200.000
G1 X99.049 Y107.968 E-1.85250
;WIPE_END
G1 E-0.09750 F3300.000
G1 Z0.360 F9000.000
;AFTER_LAYER_CHANGE
;0.36
M104 S190 ; set temperature
G1 X97.429 Y101.163
G1 E6.50000 F2400.000
;TYPE:Skirt
G1 F2034
G1 X98.137 Y101.028 E0.01848
G1 X112.244 Y100.521 E0.36214
G1 X129.025 Y100.333 E0.43055
G1 X143.237 Y102.639 E0.36936
G1 X143.706 Y102.794 E0.01268
G1 X144.136 Y103.045 E0.01278
G1 X144.502 Y103.378 E0.01268
G1 X144.793 Y103.782 E0.01278
G1 X145.021 Y104.333 E0.01530
G1 X145.105 Y104.927 E0.01540
G1 X145.105 Y125.025 E0.51560
G1 X145.030 Y125.556 E0.01375
G1 X144.840 Y126.053 E0.01365
G1 X144.544 Y126.495 E0.01365
G1 X144.154 Y126.863 E0.01375
G1 X143.688 Y127.135 E0.01385
G1 X143.176 Y127.295 E0.01375
G1 X141.690 Y127.337 E0.03814
G1 X98.122 Y125.779 E1.11844
G1 X97.604 Y125.699 E0.01346
G1 X97.115 Y125.507 E0.01346
G1 X96.678 Y125.211 E0.01355
G1 X96.319 Y124.828 E0.01346
G1 X95.976 Y124.181 E0.01878
G1 X95.846 Y123.457 E0.01888
G1 X95.846 Y103.354 E0.51572
G1 X95.918 Y102.820 E0.01385
G1 X96.108 Y102.318 E0.01375
G1 X96.407 Y101.869 E0.01385
G1 X96.797 Y101.501 E0.01375
G1 X97.376 Y101.191 E0.01686
G1 E-4.55000 F3300.000
;WIPE_START
G1 F7200.000
G1 X98.137 Y101.028 E-0.33867
G1 X101.611 Y100.903 E-1.51383
;WIPE_END
G1 E-0.09750 F3300.000
G1 X141.973 Y105.186 F9000.000
G1 E6.50000 F2400.000
;TYPE:External perimeter
;WIDTH:0.45
G1 F1500.000
G1 X142.504 Y105.186 E0.01468
G1 X142.504 Y124.736 E0.54056
G1 X141.973 Y124.736 E0.01468
G1 X141.973 Y105.246 E0.53890
G1 X142.321 Y105.382 F9000.000
G1 E-4.55000 F3300.000
;WIPE_START
G1 F7200.000
G1 X142.504 Y105.186 E-0.23266
G1 X142.504 Y108.906 E-1.61984
;WIPE_END
G1 E-0.09750 F3300.000
G1 X142.238 Y124.528 F9000.000
G1 E6.50000 F2400.000
;TYPE:Gap fill
;WIDTH:0.149626
G1 F1800.000
G1 X142.238 Y105.393 E0.14674
G1 E-4.55000 F3300.000
;WIPE_START
G1 F7200.000
G1 X142.238 Y109.648 E-1.85250
;WIPE_END
G1 E-0.09750 F3300.000
G1 X128.381 Y103.350 F9000.000
G1 E6.50000 F2400.000
;TYPE:Perimeter
;WIDTH:0.45
G1 F1500.000
G1 X128.381 Y122.069 E0.51757
G1 X128.299 Y122.069 E0.00228
G1 X128.299 Y103.350 E0.51757
G1 X128.321 Y103.350 E0.00062
G1 X128.321 Y102.935 F9000.000
;TYPE:External perimeter
G1 F1500.000
G1 X128.797 Y102.935 E0.01315
G1 X128.797 Y122.485 E0.54056
G1 X127.883 Y122.485 E0.02526
G1 X127.883 Y102.935 E0.54056
G1 X128.261 Y102.935 E0.01045
G1 X128.666 Y103.137 F9000.000
G1 E-4.55000 F3300.000
;WIPE_START
G1 F7200.000
G1 X128.797 Y102.935 E-0.23324
G1 X128.797 Y106.654 E-1.61926
;WIPE_END
G1 E-0.09750 F3300.000
G1 X113.022 Y103.538 F9000.000
G1 E6.50000 F2400.000
;TYPE:Perimeter
G1 F1500.000
G1 X113.022 Y122.257 E0.51757
G1 X112.939 Y122.257 E0.00228
G1 X112.939 Y103.538 E0.51757
G1 X112.962 Y103.538 E0.00062
G1 X112.962 Y103.122 F9000.000
;TYPE:External perimeter
G1 F1500.000
G1 X113.437 Y103.122 E0.01315
G1 X113.437 Y122.672 E0.54056
G1 X112.524 Y122.672 E0.02526
G1 X112.524 Y103.122 E0.54056
G1 X112.902 Y103.122 E0.01045
G1 X113.307 Y103.325 F9000.000
G1 E-4.55000 F3300.000
;WIPE_START
G1 F7200.000
G1 X113.437 Y103.122 E-0.23324
G1 X113.437 Y106.841 E-1.61926
;WIPE_END
G1 E-0.09750 F3300.000
G1 X98.945 Y104.045 F9000.000
G1 E6.50000 F2400.000
;TYPE:Perimeter
G1 F1500.000
G1 X98.945 Y122.763 E0.51757
G1 X98.863 Y122.763 E0.00228
G1 X98.863 Y104.045 E0.51757
G1 X98.885 Y104.045 E0.00062
G1 X98.885 Y103.629 F9000.000
;TYPE:External perimeter
G1 F1500.000
G1 X99.361 Y103.629 E0.01315
G1 X99.361 Y123.179 E0.54056
G1 X98.447 Y123.179 E0.02526
G1 X98.447 Y103.629 E0.54056
G1 X98.825 Y103.629 E0.01045
G1 X99.230 Y103.831 F9000.000
;LAYER_CHANGE
;Z:0.52
;HEIGHT:0.16
;BEFORE_LAYER_CHANGE
G92 E0
;0.52


G1 E-4.55000 F3300.000
;WIPE_START
G1 F7200.000
G1 X99.361 Y103.629 E-0.23324
G1 X99.361 Y107.348 E-1.61926
;WIPE_END
G1 E-0.09750 F3300.000
G1 Z0.520 F9000.000
;AFTER_LAYER_CHANGE
;0.52
G1 X141.955 Y105.186
G1 E6.50000 F2400.000
G1 F1121
G1 X142.521 Y105.186 E0.01566
G1 X142.521 Y124.736 E0.54056
G1 X141.955 Y124.736 E0.01566
G1 X141.955 Y105.246 E0.53890
G1 X142.303 Y105.382 F9000.000
G1 E-4.55000 F3300.000
;WIPE_START
G1 F7200.000
G1 X142.521 Y105.186 E-0.24794
G1 X142.521 Y108.871 E-1.60456
;WIPE_END
G1 E-0.09750 F3300.000
G1 X142.238 Y124.528 F9000.000
G1 E6.50000 F2400.000
;TYPE:Gap fill
;WIDTH:0.184942
G1 F1121
G1 X142.238 Y105.393 E0.19169
G1 E-4.55000 F3300.000
;WIPE_START
G1 F7200.000
G1 X142.238 Y109.648 E-1.85250
;WIPE_END
G1 E-0.09750 F3300.000
G1 X128.541 Y103.350 F9000.000
G1 E6.50000 F2400.000
;TYPE:Perimeter
;WIDTH:0.45
G1 F1121
G1 X128.541 Y122.069 E0.51757
G1 X128.139 Y122.069 E0.01112
G1 X128.139 Y103.350 E0.51757
G1 X128.481 Y103.350 E0.00946
G1 X128.957 Y102.935 F9000.000
;TYPE:External perimeter
G1 F1121
G1 X128.957 Y122.485 E0.54056
G1 X127.723 Y122.485 E0.03411
G1 X127.723 Y102.935 E0.54056
G1 X128.897 Y102.935 E0.03245
G1 X128.948 Y103.335 F9000.000
G1 E-4.55000 F3300.000
;WIPE_START
G1 F7200.000
G1 X128.910 Y107.189 E-1.85250
;WIPE_END
G1 E-0.09750 F3300.000
G1 X113.182 Y103.538 F9000.000
G1 E6.50000 F2400.000
;TYPE:Perimeter
G1 F1121
G1 X113.182 Y122.257 E0.51757
G1 X112.779 Y122.257 E0.01112
G1 X112.779 Y103.538 E0.51757
G1 X113.122 Y103.538 E0.00946
G1 X113.597 Y103.122 F9000.000
;TYPE:External perimeter
G1 F1121
G1 X113.597 Y122.672 E0.54056
G1 X112.364 Y122.672 E0.03411
G1 X112.364 Y103.122 E0.54056
G1 X113.537 Y103.122 E0.03245
G1 X113.589 Y103.522 F9000.000
G1 E-4.55000 F3300.000
;WIPE_START
G1 F7200.000
G1 X113.550 Y107.377 E-1.85250
;WIPE_END
G1 E-0.09750 F3300.000
G1 X99.105 Y104.045 F9000.000
G1 E6.50000 F2400.000
;TYPE:Perimeter
G1 F1121
G1 X99.105 Y122.763 E0.51757
G1 X98.703 Y122.763 E0.01112
G1 X98.703 Y104.045 E0.51757
G1 X99.045 Y104.045 E0.00946
G1 X99.521 Y103.629 F9000.000
;TYPE:External perimeter
G1 F1121
G1 X99.521 Y123.179 E0.54056
G1 X98.287 Y123.179 E0.03411
G1 X98.287 Y103.629 E0.54056
G1 X99.461 Y103.629 E0.03245
G1 X99.512 Y104.029 F9000.000
;LAYER_CHANGE
;Z:0.68
;HEIGHT:0.16
;BEFORE_LAYER_CHANGE
G92 E0
;0.68


G1 E-4.55000 F3300.000
;WIPE_START
G1 F7200.000
G1 X99.474 Y107.883 E-1.85250
;WIPE_END
G1 E-0.09750 F3300.000
G1 Z0.680 F9000.000
;AFTER_LAYER_CHANGE
;0.68
G1 X141.955 Y105.186
G1 E6.50000 F2400.000
G1 F1488
G1 X142.521 Y105.186 E0.01566
G1 X142.521 Y124.736 E0.54056
G1 X141.955 Y124.736 E0.01566
G1 X141.955 Y105.246 E0.53890
G1 X142.303 Y105.382 F9000.000
G1 E-4.55000 F3300.000
;WIPE_START
G1 F7200.000
G1 X142.521 Y105.186 E-0.24794
G1 X142.521 Y108.871 E-1.60456
;WIPE_END
G1 E-0.09750 F3300.000
G1 X142.238 Y124.528 F9000.000
G1 E6.50000 F2400.000
;TYPE:Gap fill
;WIDTH:0.184942
G1 F1488
G1 X142.238 Y105.393 E0.19169
G1 E-4.55000 F3300.000
;WIPE_START
G1 F7200.000
G1 X142.238 Y109.648 E-1.85250
;WIPE_END
G1 E-0.09750 F3300.000
G1 X128.669 Y103.350 F9000.000
G1 E6.50000 F2400.000
;TYPE:Perimeter
;WIDTH:0.45
G1 F1488
G1 X128.669 Y122.069 E0.51757
G1 X128.010 Y122.069 E0.01822
G1 X128.010 Y103.350 E0.51757
G1 X128.609 Y103.350 E0.01656
G1 X129.085 Y102.935 F9000.000
;TYPE:External perimeter
G1 F1488
G1 X129.085 Y122.485 E0.54056
G1 X127.595 Y122.485 E0.04120
G1 X127.595 Y102.935 E0.54056
G1 X129.025 Y102.935 E0.03954
G1 X129.075 Y103.335 F9000.000
G1 E-4.55000 F3300.000
;WIPE_START
G1 F7200.000
G1 X129.038 Y107.189 E-1.85250
;WIPE_END
G1 E-0.09750 F3300.000
G1 X128.340 Y121.861 F9000.000
G1 E6.50000 F2400.000
;TYPE:Gap fill
;WIDTH:0.277496
G1 F1488
G1 X128.340 Y103.558 E0.29605
G1 E-4.55000 F3300.000
;WIPE_START
G1 F7200.000
G1 X128.340 Y107.813 E-1.85250
;WIPE_END
G1 E-0.09750 F3300.000
G1 X113.310 Y103.558 F9000.000
G1 E6.50000 F2400.000
;TYPE:Perimeter
;WIDTH:0.45
G1 F1488
G1 X113.310 Y122.257 E0.51702
G1 X112.651 Y122.257 E0.01822
G1 X112.651 Y103.538 E0.51757
G1 X113.270 Y103.538 E0.01711
G1 X113.726 Y103.122 F9000.000
;TYPE:External perimeter
G1 F1488
G1 X113.726 Y122.672 E0.54056
G1 X112.235 Y122.672 E0.04120
G1 X112.235 Y103.122 E0.54056
G1 X113.666 Y103.122 E0.03954
G1 X113.715 Y103.522 F9000.000
G1 E-4.55000 F3300.000
;WIPE_START
G1 F7200.000
G1 X113.679 Y107.377 E-1.85250
;WIPE_END
G1 E-0.09750 F3300.000
G1 X112.980 Y122.049 F9000.000
G1 E6.50000 F2400.000
;TYPE:Gap fill
;WIDTH:0.277496
G1 F1488
G1 X112.980 Y103.746 E0.29605
G1 E-4.55000 F3300.000
;WIPE_START
G1 F7200.000
G1 X112.980 Y108.001 E-1.85250
;WIPE_END
G1 E-0.09750 F3300.000
G1 X99.233 Y104.045 F9000.000
G1 E6.50000 F2400.000
;TYPE:Perimeter
;WIDTH:0.45
G1 F1488
G1 X99.233 Y122.763 E0.51757
G1 X98.575 Y122.763 E0.01822
G1 X98.575 Y104.045 E0.51757
G1 X99.173 Y104.045 E0.01656
G1 X99.649 Y103.629 F9000.000
;TYPE:External perimeter
G1 F1488
G1 X99.649 Y123.179 E0.54056
G1 X98.159 Y123.179 E0.04120
G1 X98.159 Y103.629 E0.54056
G1 X99.589 Y103.629 E0.03954
G1 X99.639 Y104.029 F9000.000
G1 E-4.55000 F3300.000
;WIPE_START
G1 F7200.000
G1 X99.602 Y107.883 E-1.85250
;WIPE_END
G1 E-0.09750 F3300.000
G1 X98.904 Y122.555 F9000.000
G1 E6.50000 F2400.000
;TYPE:Gap fill
;WIDTH:0.277496
G1 F1488
G1 X98.904 Y104.252 E0.29605
;LAYER_CHANGE
;Z:0.84
;HEIGHT:0.16
;BEFORE_LAYER_CHANGE
G92 E0
;0.84


G1 E-4.55000 F3300.000
;WIPE_START
G1 F7200.000
G1 X98.904 Y108.507 E-1.85250
;WIPE_END
G1 E-0.09750 F3300.000
G1 Z0.840 F9000.000
;AFTER_LAYER_CHANGE
;0.84
G1 X141.996 Y105.186
G1 E6.50000 F2400.000
;TYPE:External perimeter
;WIDTH:0.45
G1 F1488
G1 X142.480 Y105.186 E0.01337
G1 X142.480 Y124.736 E0.54056
G1 X141.996 Y124.736 E0.01337
G1 X141.996 Y105.246 E0.53890
G1 X142.344 Y105.383 F9000.000
G1 E-4.55000 F3300.000
;WIPE_START
G1 F7200.000
G1 X142.480 Y105.186 E-0.21213
G1 X142.480 Y108.953 E-1.64037
;WIPE_END
G1 E-0.09750 F3300.000
G1 X142.238 Y124.528 F9000.000
G1 E6.50000 F2400.000
;TYPE:Gap fill
;WIDTH:0.102162
G1 F1488
G1 X142.238 Y105.393 E0.08633
G1 E-4.55000 F3300.000
;WIPE_START
G1 F7200.000
G1 X142.238 Y109.648 E-1.85250
;WIPE_END
G1 E-0.09750 F3300.000
G1 X128.669 Y103.350 F9000.000
G1 E6.50000 F2400.000
;TYPE:Perimeter
;WIDTH:0.45
G1 F1488
G1 X128.669 Y122.069 E0.51757
G1 X128.010 Y122.069 E0.01822
G1 X128.010 Y103.350 E0.51757
G1 X128.609 Y103.350 E0.01656
G1 X129.085 Y102.935 F9000.000
;TYPE:External perimeter
G1 F1488
G1 X129.085 Y122.485 E0.54056
G1 X127.595 Y122.485 E0.04120
G1 X127.595 Y102.935 E0.54056
G1 X129.025 Y102.935 E0.03954
G1 X129.075 Y103.335 F9000.000
G1 E-4.55000 F3300.000
;WIPE_START
G1 F7200.000
G1 X129.038 Y107.189 E-1.85250
;WIPE_END
G1 E-0.09750 F3300.000
G1 X128.340 Y121.861 F9000.000
G1 E6.50000 F2400.000
;TYPE:Gap fill
;WIDTH:0.277496
G1 F1488
G1 X128.340 Y103.558 E0.29605
G1 E-4.55000 F3300.000
;WIPE_START
G1 F7200.000
G1 X128.340 Y107.813 E-1.85250
;WIPE_END
G1 E-0.09750 F3300.000
G1 X113.310 Y103.558 F9000.000
G1 E6.50000 F2400.000
;TYPE:Perimeter
;WIDTH:0.45
G1 F1488
G1 X113.310 Y122.257 E0.51702
G1 X112.651 Y122.257 E0.01822
G1 X112.651 Y103.538 E0.51757
G1 X113.270 Y103.538 E0.01711
G1 X113.726 Y103.122 F9000.000
;TYPE:External perimeter
G1 F1488
G1 X113.726 Y122.672 E0.54056
G1 X112.235 Y122.672 E0.04120
G1 X112.235 Y103.122 E0.54056
G1 X113.666 Y103.122 E0.03954
G1 X113.715 Y103.522 F9000.000
G1 E-4.55000 F3300.000
;WIPE_START
G1 F7200.000
G1 X113.679 Y107.377 E-1.85250
;WIPE_END
G1 E-0.09750 F3300.000
G1 X112.980 Y122.049 F9000.000
G1 E6.50000 F2400.000
;TYPE:Gap fill
;WIDTH:0.277496
G1 F1488
G1 X112.980 Y103.746 E0.29605
G1 E-4.55000 F3300.000
;WIPE_START
G1 F7200.000
G1 X112.980 Y108.001 E-1.85250
;WIPE_END
G1 E-0.09750 F3300.000
G1 X99.233 Y104.045 F9000.000
G1 E6.50000 F2400.000
;TYPE:Perimeter
;WIDTH:0.45
G1 F1488
G1 X99.233 Y122.763 E0.51757
G1 X98.575 Y122.763 E0.01822
G1 X98.575 Y104.045 E0.51757
G1 X99.173 Y104.045 E0.01656
G1 X99.649 Y103.629 F9000.000
;TYPE:External perimeter
G1 F1488
G1 X99.649 Y123.179 E0.54056
G1 X98.159 Y123.179 E0.04120
G1 X98.159 Y103.629 E0.54056
G1 X99.589 Y103.629 E0.03954
G1 X99.639 Y104.029 F9000.000
G1 E-4.55000 F3300.000
;WIPE_START
G1 F7200.000
G1 X99.602 Y107.883 E-1.85250
;WIPE_END
G1 E-0.09750 F3300.000
G1 X98.904 Y122.555 F9000.000
G1 E6.50000 F2400.000
;TYPE:Gap fill
;WIDTH:0.277496
G1 F1488
G1 X98.904 Y104.252 E0.29605
;LAYER_CHANGE
;Z:1
;HEIGHT:0.16
;BEFORE_LAYER_CHANGE
G92 E0
;1


G1 E-4.55000 F3300.000
;WIPE_START
G1 F7200.000
G1 X98.904 Y108.507 E-1.85250
;WIPE_END
G1 E-0.09750 F3300.000
G1 Z1.000 F9000.000
;AFTER_LAYER_CHANGE
;1
G1 X142.156 Y105.186
G1 E6.50000 F2400.000
;TYPE:External perimeter
;WIDTH:0.45
G1 F1357
G1 X142.320 Y105.186 E0.00452
G1 X142.320 Y124.736 E0.54056
