;FLAVOR:Marlin
;TIME:88
;Filament used: 0.027273m
;Layer height: 0.16
;MINX:105.975
;MINY:96.501
;MINZ:0.2
;MAXX:129.025
;MAXY:138.499
;MAXZ:1.44
;Generated with Cura_SteamEngine 4.8.0
M140 S60
M105
M190 S60
M104 S200
M105
M109 S200
M82 ;absolute extrusion mode
; Ender 3 Custom Start G-code
G92 E0 ; Reset Extruder
G28 ; Home all axes
G1 Z2.0 F3000 ; Move Z Axis up little to prevent scratching of Heat Bed
G1 X0.1 Y20 Z0.3 F5000.0 ; Move to start position
G1 X0.1 Y200.0 Z0.3 F1500.0 E15 ; Draw the first line
G1 X0.4 Y200.0 Z0.3 F5000.0 ; Move to side a little
G1 X0.4 Y20 Z0.3 F1500.0 E30 ; Draw the second line
G92 E0 ; Reset Extruder
G1 Z2.0 F3000 ; Move Z Axis up little to prevent scratching of Heat Bed
G1 X5 Y20 Z0.3 F5000.0 ; Move over to prevent blob squish
G92 E0
G92 E0
G1 F3000 E-6.5
;LAYER_COUNT:9
;LAYER:0
M107
G0 F1200 X109.17 Y99.767 Z0.2
;TYPE:SKIRT
G1 F3000 E0
G1 F1200 X109.858 Y99.13 E0.03119
G1 X110.598 Y98.553 E0.0624
G1 X111.384 Y98.042 E0.09358
G1 X112.211 Y97.599 E0.12478
G1 X113.072 Y97.229 E0.15595
G1 X113.962 Y96.933 E0.18715
G1 X114.874 Y96.714 E0.21834
G1 X115.802 Y96.574 E0.24956
G1 X116.676 Y96.514 E0.27869
G1 X117.034 Y96.504 E0.29061
G1 X117.504 Y96.501 E0.30624
G1 X118.179 Y96.511 E0.32869
G1 X119.115 Y96.565 E0.35987
G1 X120.044 Y96.698 E0.39109
G1 X120.957 Y96.911 E0.42227
G1 X121.849 Y97.2 E0.45346
G1 X122.714 Y97.564 E0.48467
G1 X123.544 Y98 E0.51585
G1 X124.334 Y98.505 E0.54704
G1 X125.078 Y99.076 E0.57823
G1 X125.771 Y99.708 E0.60943
G1 X126.407 Y100.397 E0.64061
G1 X126.983 Y101.138 E0.67183
G1 X127.493 Y101.925 E0.70302
G1 X127.934 Y102.753 E0.73422
G1 X128.303 Y103.615 E0.76541
G1 X128.598 Y104.505 E0.79659
G1 X128.815 Y105.417 E0.82777
G1 X128.954 Y106.345 E0.85898
G1 X129.012 Y107.202 E0.88755
G1 X129.021 Y107.523 E0.89823
G1 X129.025 Y107.83 E0.90845
G1 X129.025 Y126.916 E1.54325
G1 X129.016 Y127.629 E1.56697
G1 X128.964 Y128.565 E1.59814
G1 X128.833 Y129.494 E1.62935
G1 X128.623 Y130.408 E1.66054
G1 X128.336 Y131.301 E1.69174
G1 X127.974 Y132.166 E1.72293
G1 X127.539 Y132.997 E1.75412
G1 X127.035 Y133.788 E1.78532
G1 X126.466 Y134.534 E1.81652
G1 X125.835 Y135.228 E1.84772
G1 X125.148 Y135.866 E1.8789
G1 X124.409 Y136.443 E1.91009
G1 X123.623 Y136.954 E1.94127
G1 X122.796 Y137.398 E1.97249
G1 X121.935 Y137.769 E2.00367
G1 X121.045 Y138.065 E2.03487
G1 X120.133 Y138.285 E2.06607
G1 X119.206 Y138.426 E2.09726
G1 X118.324 Y138.486 E2.12666
G1 X117.966 Y138.496 E2.13857
G1 X117.512 Y138.499 E2.15367
G1 X116.837 Y138.49 E2.17613
G1 X115.901 Y138.438 E2.20731
G1 X114.972 Y138.306 E2.23851
G1 X114.059 Y138.095 E2.26968
G1 X113.166 Y137.807 E2.30089
G1 X112.301 Y137.444 E2.33209
G1 X111.47 Y137.009 E2.36329
G1 X110.679 Y136.505 E2.39448
G1 X109.934 Y135.935 E2.42568
G1 X109.241 Y135.304 E2.45685
G1 X108.603 Y134.616 E2.48806
G1 X108.027 Y133.876 E2.51925
G1 X107.516 Y133.09 E2.55043
G1 X107.073 Y132.263 E2.58164
G1 X106.703 Y131.402 E2.61281
G1 X106.407 Y130.511 E2.64403
G1 X106.188 Y129.6 E2.6752
G1 X106.048 Y128.672 E2.70641
G1 X105.987 Y127.766 E2.73661
G1 X105.978 Y127.406 E2.74859
G1 X105.975 Y127.132 E2.7577
G1 X105.975 Y108.04 E3.39271
G1 X105.984 Y107.364 E3.41519
G1 X106.036 Y106.427 E3.44641
G1 X106.168 Y105.499 E3.47758
G1 X106.379 Y104.585 E3.50878
G1 X106.667 Y103.692 E3.53999
G1 X107.03 Y102.827 E3.57119
G1 X107.465 Y101.996 E3.60239
G1 X107.969 Y101.206 E3.63355
G1 X108.539 Y100.461 E3.66475
G1 X109.17 Y99.767 E3.69595
G0 X109.562 Y99.941
G1 X110.247 Y99.326 E3.72657
G1 X110.982 Y98.772 E3.75718
G1 X111.763 Y98.284 E3.78781
G1 X112.583 Y97.866 E3.81842
G1 X113.437 Y97.521 E3.84906
G1 X114.317 Y97.251 E3.87967
G1 X115.217 Y97.058 E3.91029
G1 X116.131 Y96.944 E3.94092
G1 X116.687 Y96.914 E3.95944
G1 X117.045 Y96.904 E3.97136
G1 X117.498 Y96.901 E3.98642
G1 X118.173 Y96.911 E4.00888
G1 X119.092 Y96.965 E4.03949
G1 X120.003 Y97.098 E4.07012
G1 X120.899 Y97.31 E4.10074
G1 X121.773 Y97.598 E4.13135
G1 X122.619 Y97.962 E4.16198
G1 X123.43 Y98.397 E4.19259
G1 X124.201 Y98.901 E4.22322
G1 X124.924 Y99.47 E4.25382
G1 X125.596 Y100.1 E4.28446
G1 X126.21 Y100.786 E4.31508
G1 X126.763 Y101.522 E4.3457
G1 X127.249 Y102.304 E4.37633
G1 X127.666 Y103.125 E4.40695
G1 X128.01 Y103.979 E4.43757
G1 X128.279 Y104.859 E4.46818
G1 X128.47 Y105.76 E4.49881
G1 X128.583 Y106.673 E4.52941
G1 X128.612 Y107.213 E4.5474
G1 X128.621 Y107.534 E4.55808
G1 X128.625 Y107.83 E4.56792
G1 X128.625 Y126.911 E5.20256
G1 X128.616 Y127.624 E5.22628
G1 X128.565 Y128.543 E5.25689
G1 X128.433 Y129.454 E5.28751
G1 X128.224 Y130.351 E5.31814
G1 X127.937 Y131.226 E5.34877
G1 X127.575 Y132.072 E5.37937
G1 X127.142 Y132.884 E5.40998
G1 X126.639 Y133.656 E5.44063
G1 X126.072 Y134.381 E5.47124
G1 X125.443 Y135.054 E5.50188
G1 X124.759 Y135.67 E5.53249
G1 X124.024 Y136.224 E5.56311
G1 X123.243 Y136.712 E5.59374
G1 X122.423 Y137.131 E5.62436
G1 X121.57 Y137.477 E5.65498
G1 X120.69 Y137.747 E5.6856
G1 X119.79 Y137.941 E5.71622
G1 X118.877 Y138.055 E5.74682
G1 X118.313 Y138.086 E5.76561
G1 X117.955 Y138.096 E5.77752
G1 X117.518 Y138.099 E5.79205
G1 X116.843 Y138.09 E5.81451
G1 X115.924 Y138.038 E5.84512
G1 X115.012 Y137.906 E5.87577
G1 X114.116 Y137.696 E5.90638
G1 X113.241 Y137.408 E5.93702
G1 X112.395 Y137.046 E5.96762
G1 X111.583 Y136.612 E5.99825
G1 X110.812 Y136.109 E6.02886
G1 X110.088 Y135.541 E6.05947
G1 X109.415 Y134.912 E6.09011
G1 X108.8 Y134.227 E6.12073
G1 X108.246 Y133.492 E6.15134
G1 X107.758 Y132.711 E6.18197
G1 X107.34 Y131.891 E6.21258
G1 X106.995 Y131.037 E6.24322
G1 X106.725 Y130.157 E6.27383
G1 X106.532 Y129.257 E6.30445
G1 X106.418 Y128.343 E6.33508
G1 X106.387 Y127.756 E6.35463
G1 X106.378 Y127.396 E6.36661
G1 X106.375 Y127.132 E6.37539
G1 X106.375 Y108.045 E7.01023
G1 X106.384 Y107.369 E7.03272
G1 X106.436 Y106.45 E7.06333
G1 X106.568 Y105.539 E7.09395
G1 X106.778 Y104.642 E7.12459
G1 X107.066 Y103.768 E7.15519
G1 X107.428 Y102.921 E7.18583
G1 X107.862 Y102.109 E7.21645
G1 X108.365 Y101.338 E7.24707
G1 X108.933 Y100.614 E7.27768
G1 X109.562 Y99.941 E7.30832
G0 X109.953 Y100.119
G1 X110.635 Y99.526 E7.33838
G1 X111.366 Y98.996 E7.36841
G1 X112.141 Y98.533 E7.39843
G1 X112.954 Y98.14 E7.42847
G1 X113.798 Y97.82 E7.45849
G1 X114.668 Y97.576 E7.48854
G1 X115.556 Y97.41 E7.51859
G1 X116.698 Y97.314 E7.55671
G1 X117.056 Y97.304 E7.56862
G1 X117.492 Y97.301 E7.58312
G1 X118.167 Y97.311 E7.60557
G1 X119.069 Y97.364 E7.63562
G1 X119.962 Y97.497 E7.66565
G1 X120.84 Y97.709 E7.69569
G1 X121.696 Y97.997 E7.72573
G1 X122.523 Y98.36 E7.75577
G1 X123.315 Y98.794 E7.78581
G1 X124.065 Y99.297 E7.81585
G1 X124.767 Y99.864 E7.84586
G1 X125.417 Y100.491 E7.8759
G1 X126.009 Y101.174 E7.90596
G1 X126.538 Y101.905 E7.93597
G1 X127.001 Y102.681 E7.96603
G1 X127.392 Y103.495 E7.99606
G1 X127.711 Y104.34 E8.0261
G1 X127.953 Y105.21 E8.05614
G1 X128.118 Y106.098 E8.08618
G1 X128.212 Y107.224 E8.12376
G1 X128.221 Y107.545 E8.13444
G1 X128.225 Y107.83 E8.14392
G1 X128.225 Y126.906 E8.77839
G1 X128.216 Y127.619 E8.80211
G1 X128.165 Y128.52 E8.83212
G1 X128.034 Y129.414 E8.86217
G1 X127.824 Y130.292 E8.8922
G1 X127.538 Y131.149 E8.92225
G1 X127.177 Y131.977 E8.95229
G1 X126.744 Y132.769 E8.98231
G1 X126.243 Y133.521 E9.01237
G1 X125.678 Y134.225 E9.04239
G1 X125.052 Y134.876 E9.07243
G1 X124.371 Y135.469 E9.10246
G1 X123.64 Y136 E9.13252
G1 X122.865 Y136.464 E9.16256
G1 X122.053 Y136.858 E9.19258
G1 X121.208 Y137.178 E9.22263
G1 X120.339 Y137.422 E9.25265
G1 X119.451 Y137.589 E9.2827
G1 X118.302 Y137.686 E9.32106
G1 X117.944 Y137.696 E9.33297
G1 X117.523 Y137.699 E9.34697
G1 X116.848 Y137.69 E9.36942
G1 X115.946 Y137.638 E9.39947
G1 X115.053 Y137.507 E9.42949
G1 X114.175 Y137.296 E9.45953
G1 X113.318 Y137.01 E9.48958
G1 X112.491 Y136.648 E9.5196
G1 X111.698 Y136.215 E9.54965
G1 X110.947 Y135.713 E9.5797
G1 X110.244 Y135.147 E9.60972
G1 X109.593 Y134.521 E9.63975
G1 X109 Y133.839 E9.66981
G1 X108.47 Y133.108 E9.69984
G1 X108.007 Y132.333 E9.72987
G1 X107.613 Y131.52 E9.75992
G1 X107.294 Y130.675 E9.78996
G1 X107.05 Y129.806 E9.81998
G1 X106.884 Y128.918 E9.85003
G1 X106.787 Y127.746 E9.88914
G1 X106.778 Y127.386 E9.90112
G1 X106.775 Y127.132 E9.90957
G1 X106.775 Y108.05 E10.54424
G1 X106.784 Y107.374 E10.56672
G1 X106.836 Y106.473 E10.59674
G1 X106.967 Y105.579 E10.62679
G1 X107.177 Y104.701 E10.65682
G1 X107.464 Y103.844 E10.68688
G1 X107.826 Y103.017 E10.7169
G1 X108.259 Y102.225 E10.74693
G1 X108.761 Y101.474 E10.77697
G1 X109.327 Y100.77 E10.80702
G1 X109.953 Y100.119 E10.83705
G1 F3000 E4.33705
;MESH:final_1x6_pin.stl
G0 F1200 X116.322 Y128.153
G0 X118.679 Y128.153
G0 X118.69 Y127.299
G0 X117.826 Y127.3
M104 S185
;TYPE:WALL-OUTER
G1 F3000 E10.83705
G1 F1200 X117.175 Y127.3 E10.85871
G1 X117.174 Y107.7 E11.51061
G1 X117.825 Y107.7 E11.53226
G1 X117.826 Y127.3 E12.18416
G0 X117.499 Y126.833
;TYPE:SKIN
G1 X117.428 Y127.044 E12.18972
G1 X117.499 Y125.984 E12.21628
G1 X117.498 Y115.236 E12.48498
G1 X117.498 Y108.165 E12.66176
G0 X117.649 Y108.033
G1 X117.492 Y107.875 E12.66546
G1 F3000 E6.16546
;MESH:NONMESH
G0 F300 X117.492 Y107.875 Z0.36
G0 F1200 X116.31 Y107.876
G0 X116.321 Y106.847
G0 X118.678 Y106.847
G0 X118.69 Y126.899
G0 X117.586 Y126.9
;TIME_ELAPSED:33.210088
;LAYER:1
M106 S85
;TYPE:WALL-INNER
;MESH:final_1x6_pin.stl
G1 F3000 E12.66546
G1 F600 X117.415 Y126.9 E12.67001
G1 X117.414 Y108.1 E13.17024
G1 X117.585 Y108.1 E13.17479
G1 X117.586 Y126.9 E13.38919
G0 F1200 X117.986 Y127.3
;TYPE:WALL-OUTER
G1 F600 X117.015 Y127.3 E13.41503
G1 X117.014 Y107.7 E13.93655
G1 X117.985 Y107.7 E13.96238
G1 X117.986 Y127.3 E14.4839
;MESH:NONMESH
G0 F300 X117.986 Y127.3 Z0.52
G0 F1200 X117.685 Y126.9
;TIME_ELAPSED:41.543352
;LAYER:2
M106 S170
;TYPE:WALL-INNER
;MESH:final_1x6_pin.stl
G1 F600 X117.315 Y126.9 E14.49375
G1 X117.315 Y108.1 E14.99398
G1 X117.685 Y108.1 E15.00383
G1 X117.685 Y126.9 E15.4677
G0 F1200 X118.085 Y127.3
;TYPE:WALL-OUTER
G1 F600 X116.915 Y127.3 E15.49883
G1 X116.915 Y107.7 E16.02035
G1 X118.085 Y107.7 E16.05148
G1 X118.085 Y127.3 E16.573
;MESH:NONMESH
G0 F300 X118.085 Y127.3 Z0.72
G0 F1200 X117.685 Y126.9
;TIME_ELAPSED:49.740574
;LAYER:3
M106 S255
;TYPE:WALL-INNER
;MESH:final_1x6_pin.stl
G1 F600 X117.315 Y126.9 E16.58531
G1 X117.315 Y108.1 E17.2106
G1 X117.685 Y108.1 E17.2229
G1 X117.685 Y126.9 E17.80275
G0 F1200 X118.085 Y127.3
;TYPE:WALL-OUTER
G1 F600 X116.915 Y127.3 E17.84166
G1 X116.915 Y107.7 E18.49356
G1 X118.085 Y107.7 E18.53247
G1 X118.085 Y127.3 E19.18437
;MESH:NONMESH
G0 F300 X118.085 Y127.3 Z0.92
G0 F1200 X117.685 Y126.9
;TIME_ELAPSED:57.937796
;LAYER:4
;TYPE:WALL-INNER
;MESH:final_1x6_pin.stl
G1 F600 X117.315 Y126.9 E19.19668
G1 X117.315 Y108.1 E19.82197
G1 X117.685 Y108.1 E19.83428
G1 X117.685 Y126.9 E20.41412
G0 F1200 X118.085 Y127.3
;TYPE:WALL-OUTER
G1 F600 X116.915 Y127.3 E20.45303
G1 X116.915 Y107.7 E21.10493
G1 X118.085 Y107.7 E21.14385
G1 X118.085 Y127.3 E21.79575
;MESH:NONMESH
G0 F300 X118.085 Y127.3 Z1.12
G0 F1200 X117.675 Y126.9
;TIME_ELAPSED:66.135439
;LAYER:5
;TYPE:WALL-INNER
;MESH:final_1x6_pin.stl
G1 F600 X117.325 Y126.9 E21.80739
G1 X117.325 Y108.1 E22.43268
G1 X117.675 Y108.1 E22.44432
G1 X117.675 Y126.9 E22.99282
G0 F1200 X118.075 Y127.3
;TYPE:WALL-OUTER
G1 F600 X116.925 Y127.3 E23.03107
G1 X116.925 Y107.7 E23.68297
G1 X118.075 Y107.7 E23.72122
G1 X118.075 Y127.3 E24.37311
;MESH:NONMESH
G0 F300 X118.075 Y127.3 Z1.28
G0 F1200 X117.515 Y126.9
;TIME_ELAPSED:74.322470
;LAYER:6
;TYPE:WALL-INNER
;MESH:final_1x6_pin.stl
G1 F600 X117.485 Y126.9 E24.37391
G1 X117.485 Y108.1 E24.87415
G1 X117.515 Y108.1 E24.87494
G1 X117.515 Y126.9 E24.91255
G0 F1200 X117.915 Y127.3
;TYPE:WALL-OUTER
G1 F600 X117.085 Y127.3 E24.93464
G1 X117.085 Y107.7 E25.45616
G1 X117.915 Y107.7 E25.47824
G1 X117.915 Y127.3 E25.99976
;MESH:NONMESH
G0 F300 X117.915 Y127.3 Z1.44
G0 F1200 X117.755 Y127.3
;TIME_ELAPSED:82.340959
;LAYER:7
;TYPE:WALL-OUTER
;MESH:final_1x6_pin.stl
G1 F600 X117.245 Y127.3 E26.01333
G1 X117.245 Y107.7 E26.53485
G1 X117.755 Y107.7 E26.54842
G1 X117.755 Y127.3 E27.06994
G0 F1200 X117.556 Y127.101
;TYPE:SKIN
G1 F600 X117.499 Y126.876 E27.0724
G1 X117.499 Y108.208 E27.27059
G0 F1200 X117.42 Y108.005
G1 F600 X117.55 Y107.874 E27.27304
;TIME_ELAPSED:88.340130
G1 F3000 E20.77304
M140 S0
M107
G91 ;Relative positioning
G1 E-2 F2700 ;Retract a bit
G1 E-2 Z0.2 F2400 ;Retract and raise Z
G1 X5 Y5 F3000 ;Wipe out
G1 Z10 ;Raise Z more
G90 ;Absolute positionning

G1 X0 Y235 ;Present print
M106 S0 ;Turn-off fan
M104 S0 ;Turn-off hotend
M140 S0 ;Turn-off bed

M84 X Y E ;Disable all steppers but Z

M82 ;absolute extrusion mode
M104 S0
;End of Gcode
;SETTING_3 {"global_quality": "[general]\\nversion = 4\\nname = Small Parts - Dy
;SETTING_3 namic Quality\\ndefinition = creality_ender3pro\\n\\n[metadata]\\nqua
;SETTING_3 lity_type = adaptive\\nintent_category = default\\ntype = quality_cha
;SETTING_3 nges\\nsetting_version = 16\\n\\n[values]\\nretraction_combing = infi
;SETTING_3 ll\\n\\n", "extruder_quality": ["[general]\\nversion = 4\\nname = Sma
;SETTING_3 ll Parts - Dynamic Quality\\ndefinition = creality_ender3pro\\n\\n[me
;SETTING_3 tadata]\\nquality_type = adaptive\\nintent_category = default\\nposit
;SETTING_3 ion = 0\\ntype = quality_changes\\nsetting_version = 16\\n\\n[values]
;SETTING_3 \\ninfill_before_walls = True\\ninfill_pattern = grid\\nmaterial_fina
;SETTING_3 l_print_temperature = 185\\nmaterial_initial_print_temperature = 200\
;SETTING_3 \nmaterial_print_temperature = 185\\nmaterial_print_temperature_layer
;SETTING_3 _0 = 200\\nmin_infill_area = 200\\nretraction_count_max = 10\\nretrac
;SETTING_3 tion_extrusion_window = 6.5\\nretraction_speed = 50\\nspeed_travel = 
;SETTING_3 20\\nspeed_travel_layer_0 = 20\\n\\n"]}
