; generated by PrusaSlicer 2.3.0+ on 2021-05-09 at 02:27:04 UTC

; 

; external perimeters extrusion width = 0.45mm
; perimeters extrusion width = 0.45mm
; infill extrusion width = 0.45mm
; solid infill extrusion width = 0.45mm
; top infill extrusion width = 0.40mm
; first layer extrusion width = 0.42mm

M201 X500 Y500 Z100 E5000 ; sets maximum accelerations, mm/sec^2
M203 X500 Y500 Z10 E60 ; sets maximum feedrates, mm/sec
M204 P500 R1000 T500 ; sets acceleration (P, T) and retract acceleration (R), mm/sec^2
M205 X8.00 Y8.00 Z0.40 E5.00 ; sets the jerk limits, mm/sec
M205 S0 T0 ; sets the minimum extruding and travel feed rate, mm/sec
M107
;TYPE:Custom
G90 ; use absolute coordinates
M83 ; extruder relative mode
M104 S200 ; set extruder temp
M140 S60 ; set bed temp
M190 S60 ; wait for bed temp
M109 S200 ; wait for extruder temp
G28 ; home all
G1 Z2 F240
G1 X2 Y10 F3000
G1 Z0.28 F240
G92 E0
G1 Y190 E15 F1500 ; intro line
G1 X2.3 F5000
G92 E0
G1 Y10 E15 F1200 ; intro line
G92 E0
G21 ; set units to millimeters
G90 ; use absolute coordinates
M83 ; use relative distances for extrusion
; Filament gcode
;LAYER_CHANGE
;Z:0.2
;HEIGHT:0.2
;BEFORE_LAYER_CHANGE
G92 E0
;0.2


G1 E-6.50000 F3300.000
G1 Z0.200 F9000.000
;AFTER_LAYER_CHANGE
;0.2
G1 X103.534 Y112.381
G1 E6.50000 F2400.000
;TYPE:Skirt
;WIDTH:0.42
G1 F900
G1 X104.139 Y111.998 E0.02243
G1 X104.814 Y111.763 E0.02243
G1 X105.486 Y111.687 E0.02120
G1 X125.504 Y111.687 E0.62765
G1 X126.078 Y111.741 E0.01807
G1 X126.636 Y111.900 E0.01820
G1 X127.155 Y112.160 E0.01820
G1 X127.614 Y112.509 E0.01807
G1 X128.002 Y112.935 E0.01807
G1 X128.307 Y113.430 E0.01820
G1 X128.515 Y113.972 E0.01820
G1 X128.619 Y114.538 E0.01807
G1 X128.613 Y116.522 E0.06220
G1 X128.498 Y117.087 E0.01807
G1 X128.281 Y117.621 E0.01807
G1 X127.902 Y118.191 E0.02148
G1 X127.411 Y118.663 E0.02134
G1 X126.830 Y119.017 E0.02134
G1 X126.186 Y119.237 E0.02134
G1 X125.509 Y119.313 E0.02134
G1 X105.190 Y119.298 E0.63709
G1 X104.247 Y119.051 E0.03058
G1 X103.424 Y118.526 E0.03058
G1 X102.804 Y117.774 E0.03058
G1 X102.445 Y116.867 E0.03058
G1 X102.370 Y116.278 E0.01861
G1 X102.375 Y114.617 E0.05208
G1 X102.466 Y114.044 E0.01820
G1 X102.659 Y113.501 E0.01807
G1 X103.032 Y112.891 E0.02243
G1 X103.492 Y112.424 E0.02055
G1 X103.002 Y113.658 F9000.000
G1 F900
G1 X103.339 Y113.111 E0.02014
G1 X103.789 Y112.660 E0.02001
G1 X104.336 Y112.322 E0.02014
G1 X104.945 Y112.120 E0.02014
G1 X105.491 Y112.064 E0.01720
G1 X125.504 Y112.064 E0.62749
G1 X126.505 Y112.254 E0.03195
G1 X127.369 Y112.795 E0.03195
G1 X127.977 Y113.613 E0.03195
G1 X128.245 Y114.596 E0.03195
G1 X128.240 Y116.464 E0.05857
G1 X127.953 Y117.434 E0.03170
G1 X127.612 Y117.949 E0.01937
G1 X127.169 Y118.373 E0.01924
G1 X126.642 Y118.688 E0.01924
G1 X126.055 Y118.880 E0.01937
G1 X125.505 Y118.936 E0.01733
G1 X105.246 Y118.924 E0.63520
G1 X104.396 Y118.705 E0.02752
G1 X103.661 Y118.232 E0.02739
G1 X103.112 Y117.553 E0.02739
G1 X102.802 Y116.736 E0.02739
G1 X102.752 Y114.638 E0.06581
G1 X102.987 Y113.716 E0.02982
G1 X103.340 Y113.825 F9000.000
G1 F900
G1 X103.636 Y113.342 E0.01775
G1 X104.038 Y112.944 E0.01775
G1 X104.523 Y112.651 E0.01775
G1 X105.063 Y112.482 E0.01775
G1 X125.504 Y112.441 E0.64090
G1 X126.374 Y112.608 E0.02778
G1 X127.123 Y113.081 E0.02778
G1 X127.645 Y113.793 E0.02767
G1 X127.871 Y114.650 E0.02778
G1 X127.866 Y116.406 E0.05508
G1 X127.627 Y117.244 E0.02731
G1 X127.327 Y117.702 E0.01716
G1 X126.931 Y118.080 E0.01716
G1 X126.459 Y118.357 E0.01716
G1 X125.937 Y118.518 E0.01716
G1 X105.302 Y118.551 E0.64698
G1 X104.552 Y118.362 E0.02426
G1 X103.905 Y117.944 E0.02414
G1 X103.425 Y117.342 E0.02414
G1 X103.163 Y116.618 E0.02414
G1 X103.128 Y114.670 E0.06111
G1 X103.326 Y113.883 E0.02543
G1 E-4.55000 F3300.000
;WIPE_START
G1 F7200.000
G1 X103.636 Y113.342 E-0.27157
G1 X104.038 Y112.944 E-0.24653
G1 X104.523 Y112.651 E-0.24653
G1 X105.063 Y112.482 E-0.24653
G1 X106.996 Y112.478 E-0.84133
;WIPE_END
G1 E-0.09750 F3300.000
G1 X105.810 Y115.308 F9000.000
G1 E6.50000 F2400.000
;TYPE:External perimeter
G1 F900
G1 X125.190 Y115.308 E0.60765
G1 X125.190 Y115.692 E0.01203
G1 X105.810 Y115.692 E0.60765
G1 X105.810 Y115.368 E0.01015
G1 X106.210 Y115.311 F9000.000
M106 S255
;LAYER_CHANGE
;Z:0.36
;HEIGHT:0.16
;BEFORE_LAYER_CHANGE
G92 E0
;0.36


G1 E-4.55000 F3300.000
;WIPE_START
G1 F7200.000
G1 X110.065 Y115.355 E-1.85250
;WIPE_END
G1 E-0.09750 F3300.000
G1 Z0.360 F9000.000
;AFTER_LAYER_CHANGE
;0.36
M104 S190 ; set temperature
G1 X102.804 Y117.774
G1 E6.50000 F2400.000
;TYPE:Skirt
G1 F900
G1 X102.445 Y116.867 E0.02502
G1 X102.370 Y116.278 E0.01523
G1 X102.375 Y114.617 E0.04262
G1 X102.466 Y114.044 E0.01489
G1 X102.659 Y113.501 E0.01478
G1 X103.032 Y112.891 E0.01835
G1 X103.534 Y112.381 E0.01835
G1 X104.139 Y111.998 E0.01835
G1 X104.814 Y111.763 E0.01835
G1 X105.486 Y111.687 E0.01735
G1 X125.504 Y111.687 E0.51355
G1 X126.078 Y111.741 E0.01478
G1 X126.636 Y111.900 E0.01489
G1 X127.155 Y112.160 E0.01489
G1 X127.614 Y112.509 E0.01478
G1 X128.002 Y112.935 E0.01478
G1 X128.307 Y113.430 E0.01489
G1 X128.515 Y113.972 E0.01489
G1 X128.619 Y114.538 E0.01478
G1 X128.613 Y116.522 E0.05089
G1 X128.498 Y117.087 E0.01478
G1 X128.281 Y117.621 E0.01478
G1 X127.902 Y118.191 E0.01757
G1 X127.411 Y118.663 E0.01746
G1 X126.830 Y119.017 E0.01746
G1 X126.186 Y119.237 E0.01746
G1 X125.509 Y119.313 E0.01746
G1 X105.190 Y119.298 E0.52127
G1 X104.247 Y119.051 E0.02502
G1 X103.424 Y118.526 E0.02502
G1 X102.842 Y117.820 E0.02348
G1 X102.802 Y116.736 F9000.000
G1 F900
G1 X102.752 Y114.638 E0.05385
G1 X103.002 Y113.658 E0.02594
G1 X103.339 Y113.111 E0.01648
G1 X103.789 Y112.660 E0.01637
G1 X104.336 Y112.322 E0.01648
G1 X104.945 Y112.120 E0.01648
G1 X105.491 Y112.064 E0.01407
G1 X125.504 Y112.064 E0.51342
G1 X126.505 Y112.254 E0.02614
G1 X127.369 Y112.795 E0.02614
G1 X127.977 Y113.613 E0.02614
G1 X128.245 Y114.596 E0.02614
G1 X128.240 Y116.464 E0.04792
G1 X127.953 Y117.434 E0.02594
G1 X127.612 Y117.949 E0.01585
G1 X127.169 Y118.373 E0.01574
G1 X126.642 Y118.688 E0.01574
G1 X126.055 Y118.880 E0.01585
G1 X125.505 Y118.936 E0.01418
G1 X105.246 Y118.924 E0.51972
G1 X104.396 Y118.705 E0.02252
G1 X103.661 Y118.232 E0.02241
G1 X103.112 Y117.553 E0.02241
G1 X102.823 Y116.792 E0.02087
G1 X103.180 Y116.663 F9000.000
G1 F900
G1 X103.163 Y116.618 E0.00123
G1 X103.128 Y114.670 E0.05000
G1 X103.340 Y113.825 E0.02235
G1 X103.636 Y113.342 E0.01453
G1 X104.038 Y112.944 E0.01453
G1 X104.523 Y112.651 E0.01453
G1 X105.063 Y112.482 E0.01453
G1 X125.504 Y112.441 E0.52439
G1 X126.374 Y112.608 E0.02273
G1 X127.123 Y113.081 E0.02273
G1 X127.645 Y113.793 E0.02264
G1 X127.871 Y114.650 E0.02273
G1 X127.866 Y116.406 E0.04506
G1 X127.627 Y117.244 E0.02235
G1 X127.327 Y117.702 E0.01404
G1 X126.931 Y118.080 E0.01404
G1 X126.459 Y118.357 E0.01404
G1 X125.937 Y118.518 E0.01404
G1 X105.302 Y118.551 E0.52937
G1 X104.552 Y118.362 E0.01985
G1 X103.905 Y117.944 E0.01975
G1 X103.425 Y117.342 E0.01975
G1 X103.200 Y116.720 E0.01698
G1 E-4.55000 F3300.000
;WIPE_START
G1 F7200.000
G1 X103.163 Y116.618 E-0.04698
G1 X103.128 Y114.670 E-0.84865
G1 X103.340 Y113.825 E-0.37930
G1 X103.636 Y113.342 E-0.24653
G1 X104.038 Y112.944 E-0.24653
G1 X104.205 Y112.843 E-0.08451
;WIPE_END
G1 E-0.09750 F3300.000
G1 X106.141 Y115.541 F9000.000
G1 E6.50000 F2400.000
;TYPE:Perimeter
;WIDTH:0.45
G1 F900
G1 X106.141 Y115.459 E0.00228
G1 X124.859 Y115.459 E0.51757
G1 X124.859 Y115.541 E0.00228
G1 X106.201 Y115.541 E0.51591
G1 X105.725 Y115.957 F9000.000
;TYPE:External perimeter
G1 F900
G1 X105.725 Y115.043 E0.02526
G1 X125.275 Y115.043 E0.54056
G1 X125.275 Y115.957 E0.02526
G1 X105.785 Y115.957 E0.53890
G1 X105.920 Y115.607 F9000.000
;LAYER_CHANGE
;Z:0.52
;HEIGHT:0.16
;BEFORE_LAYER_CHANGE
G92 E0
;0.52


G1 E-4.55000 F3300.000
;WIPE_START
G1 F7200.000
G1 X105.725 Y115.043 E-0.39867
G1 X109.064 Y115.043 E-1.45383
;WIPE_END
G1 E-0.09750 F3300.000
G1 Z0.520 F9000.000
;AFTER_LAYER_CHANGE
;0.52
G1 X106.141 Y115.701
G1 E6.50000 F2400.000
;TYPE:Perimeter
G1 F900
G1 X106.141 Y115.299 E0.01112
G1 X124.859 Y115.299 E0.51757
G1 X124.859 Y115.701 E0.01112
G1 X106.201 Y115.701 E0.51591
G1 X105.725 Y116.117 F9000.000
;TYPE:External perimeter
G1 F900
G1 X105.725 Y114.883 E0.03411
G1 X125.275 Y114.883 E0.54056
G1 X125.275 Y116.117 E0.03411
G1 X105.785 Y116.117 E0.53890
G1 X105.918 Y115.766 F9000.000
;LAYER_CHANGE
;Z:0.68
;HEIGHT:0.16
;BEFORE_LAYER_CHANGE
G92 E0
;0.68


G1 E-4.55000 F3300.000
;WIPE_START
G1 F7200.000
G1 X105.725 Y114.883 E-0.53778
G1 X108.744 Y114.883 E-1.31472
;WIPE_END
G1 E-0.09750 F3300.000
G1 Z0.680 F9000.000
;AFTER_LAYER_CHANGE
;0.68
G1 X106.141 Y115.171
G1 E6.50000 F2400.000
;TYPE:Perimeter
G1 F900
G1 X124.859 Y115.171 E0.51757
G1 X124.859 Y115.829 E0.01822
G1 X106.141 Y115.829 E0.51757
G1 X106.141 Y115.231 E0.01656
G1 X105.725 Y114.755 F9000.000
;TYPE:External perimeter
G1 F900
G1 X125.275 Y114.755 E0.54056
G1 X125.275 Y116.245 E0.04120
G1 X105.725 Y116.245 E0.54056
G1 X105.725 Y114.815 E0.03954
G1 X106.125 Y114.765 F9000.000
G1 E-4.55000 F3300.000
;WIPE_START
G1 F7200.000
G1 X109.980 Y114.802 E-1.85250
;WIPE_END
G1 E-0.09750 F3300.000
G1 X124.652 Y115.500 F9000.000
G1 E6.50000 F2400.000
;TYPE:Gap fill
;WIDTH:0.277496
G1 F900
G1 X106.348 Y115.500 E0.29605
;LAYER_CHANGE
;Z:0.84
;HEIGHT:0.16
;BEFORE_LAYER_CHANGE
G92 E0
;0.84


G1 E-4.55000 F3300.000
;WIPE_START
G1 F7200.000
G1 X110.603 Y115.500 E-1.85250
;WIPE_END
G1 E-0.09750 F3300.000
G1 Z0.840 F9000.000
;AFTER_LAYER_CHANGE
;0.84
G1 X106.141 Y115.171
G1 E6.50000 F2400.000
;TYPE:Perimeter
;WIDTH:0.45
G1 F900
G1 X124.859 Y115.171 E0.51757
G1 X124.859 Y115.829 E0.01822
G1 X106.141 Y115.829 E0.51757
G1 X106.141 Y115.231 E0.01656
G1 X105.725 Y114.755 F9000.000
;TYPE:External perimeter
G1 F900
G1 X125.275 Y114.755 E0.54056
G1 X125.275 Y116.245 E0.04120
G1 X105.725 Y116.245 E0.54056
G1 X105.725 Y114.815 E0.03954
G1 X106.125 Y114.765 F9000.000
G1 E-4.55000 F3300.000
;WIPE_START
G1 F7200.000
G1 X109.980 Y114.802 E-1.85250
;WIPE_END
G1 E-0.09750 F3300.000
G1 X124.652 Y115.500 F9000.000
G1 E6.50000 F2400.000
;TYPE:Gap fill
;WIDTH:0.277496
G1 F900
G1 X106.348 Y115.500 E0.29605
;LAYER_CHANGE
;Z:1
;HEIGHT:0.16
;BEFORE_LAYER_CHANGE
G92 E0
;1


G1 E-4.55000 F3300.000
;WIPE_START
G1 F7200.000
G1 X110.603 Y115.500 E-1.85250
;WIPE_END
G1 E-0.09750 F3300.000
G1 Z1.000 F9000.000
;AFTER_LAYER_CHANGE
;1
G1 X106.141 Y115.171
G1 E6.50000 F2400.000
;TYPE:Perimeter
;WIDTH:0.45
G1 F900
G1 X124.859 Y115.171 E0.51757
G1 X124.859 Y115.829 E0.01822
G1 X106.141 Y115.829 E0.51757
G1 X106.141 Y115.231 E0.01656
G1 X105.725 Y114.755 F9000.000
;TYPE:External perimeter
G1 F900
G1 X125.275 Y114.755 E0.54056
G1 X125.275 Y116.245 E0.04120
G1 X105.725 Y116.245 E0.54056
G1 X105.725 Y114.815 E0.03954
G1 X106.125 Y114.765 F9000.000
G1 E-4.55000 F3300.000
;WIPE_START
G1 F7200.000
G1 X109.980 Y114.802 E-1.85250
;WIPE_END
G1 E-0.09750 F3300.000
G1 X124.652 Y115.500 F9000.000
G1 E6.50000 F2400.000
;TYPE:Gap fill
;WIDTH:0.277496
G1 F900
G1 X106.348 Y115.500 E0.29605
;LAYER_CHANGE
;Z:1.16
;HEIGHT:0.16
;BEFORE_LAYER_CHANGE
G92 E0
;1.16


G1 E-4.55000 F3300.000
;WIPE_START
G1 F7200.000
G1 X110.603 Y115.500 E-1.85250
;WIPE_END
G1 E-0.09750 F3300.000
G1 Z1.160 F9000.000
;AFTER_LAYER_CHANGE
;1.16
G1 X106.141 Y115.171
G1 E6.50000 F2400.000
;TYPE:Perimeter
;WIDTH:0.45
G1 F900
G1 X124.859 Y115.171 E0.51757
G1 X124.859 Y115.829 E0.01822
G1 X106.141 Y115.829 E0.51757
G1 X106.141 Y115.231 E0.01656
G1 X105.725 Y114.755 F9000.000
;TYPE:External perimeter
G1 F900
G1 X125.275 Y114.755 E0.54056
G1 X125.275 Y116.245 E0.04120
G1 X105.725 Y116.245 E0.54056
G1 X105.725 Y114.815 E0.03954
G1 X106.125 Y114.765 F9000.000
G1 E-4.55000 F3300.000
;WIPE_START
G1 F7200.000
G1 X109.980 Y114.802 E-1.85250
;WIPE_END
G1 E-0.09750 F3300.000
G1 X124.652 Y115.500 F9000.000
G1 E6.50000 F2400.000
;TYPE:Gap fill
;WIDTH:0.277496
G1 F900
G1 X106.348 Y115.500 E0.29605
;LAYER_CHANGE
;Z:1.32
;HEIGHT:0.16
;BEFORE_LAYER_CHANGE
G92 E0
;1.32


G1 E-4.55000 F3300.000
;WIPE_START
G1 F7200.000
G1 X110.603 Y115.500 E-1.85250
;WIPE_END
G1 E-0.09750 F3300.000
G1 Z1.320 F9000.000
;AFTER_LAYER_CHANGE
;1.32
G1 X106.141 Y115.171
G1 E6.50000 F2400.000
;TYPE:Perimeter
;WIDTH:0.45
G1 F900
G1 X124.859 Y115.171 E0.51757
G1 X124.859 Y115.829 E0.01822
G1 X106.141 Y115.829 E0.51757
G1 X106.141 Y115.231 E0.01656
G1 X105.725 Y114.755 F9000.000
;TYPE:External perimeter
G1 F900
G1 X125.275 Y114.755 E0.54056
G1 X125.275 Y116.245 E0.04120
G1 X105.725 Y116.245 E0.54056
G1 X105.725 Y114.815 E0.03954
G1 X106.125 Y114.765 F9000.000
G1 E-4.55000 F3300.000
;WIPE_START
G1 F7200.000
G1 X109.980 Y114.802 E-1.85250
;WIPE_END
G1 E-0.09750 F3300.000
G1 X124.652 Y115.500 F9000.000
G1 E6.50000 F2400.000
;TYPE:Gap fill
;WIDTH:0.277496
G1 F900
G1 X106.348 Y115.500 E0.29605
;LAYER_CHANGE
;Z:1.48
;HEIGHT:0.16
;BEFORE_LAYER_CHANGE
G92 E0
;1.48


G1 E-4.55000 F3300.000
;WIPE_START
G1 F7200.000
G1 X110.603 Y115.500 E-1.85250
;WIPE_END
G1 E-0.09750 F3300.000
G1 Z1.480 F9000.000
;AFTER_LAYER_CHANGE
;1.48
G1 X106.141 Y115.199
G1 E6.50000 F2400.000
;TYPE:Perimeter
;WIDTH:0.45
G1 F900
G1 X124.859 Y115.199 E0.51757
G1 X124.859 Y115.801 E0.01666
G1 X106.141 Y115.801 E0.51757
G1 X106.141 Y115.259 E0.01500
G1 X105.725 Y114.783 F9000.000
;TYPE:External perimeter
G1 F900
G1 X125.275 Y114.783 E0.54056
G1 X125.275 Y116.217 E0.03965
G1 X105.725 Y116.217 E0.54056
G1 X105.725 Y114.843 E0.03799
G1 X106.125 Y114.793 F9000.000
G1 E-4.55000 F3300.000
;WIPE_START
G1 F7200.000
G1 X109.980 Y114.830 E-1.85250
;WIPE_END
G1 E-0.09750 F3300.000
G1 X124.652 Y115.500 F9000.000
G1 E6.50000 F2400.000
;TYPE:Gap fill
;WIDTH:0.22128
G1 F900
G1 X106.348 Y115.500 E0.22761
;LAYER_CHANGE
;Z:1.64
;HEIGHT:0.16
;BEFORE_LAYER_CHANGE
G92 E0
;1.64


G1 E-4.55000 F3300.000
;WIPE_START
G1 F7200.000
G1 X110.603 Y115.500 E-1.85250
;WIPE_END
G1 E-0.09750 F3300.000
G1 Z1.640 F9000.000
;AFTER_LAYER_CHANGE
;1.64
G1 X106.141 Y115.359
G1 E6.50000 F2400.000
;TYPE:Perimeter
;WIDTH:0.45
G1 F900
G1 X124.859 Y115.359 E0.51757
G1 X124.859 Y115.641 E0.00781
G1 X106.141 Y115.641 E0.51757
G1 X106.141 Y115.419 E0.00616
G1 X105.725 Y114.943 F9000.000
;TYPE:External perimeter
G1 F900
G1 X125.275 Y114.943 E0.54056
G1 X125.275 Y116.057 E0.03080
G1 X105.725 Y116.057 E0.54056
G1 X105.725 Y115.003 E0.02914
G1 X106.125 Y114.951 F9000.000
;LAYER_CHANGE
;Z:1.8
;HEIGHT:0.16
;BEFORE_LAYER_CHANGE
G92 E0
;1.8


G1 E-4.55000 F3300.000
;WIPE_START
G1 F7200.000
G1 X109.980 Y114.990 E-1.85250
;WIPE_END
G1 E-0.09750 F3300.000
G1 Z1.800 F9000.000
;AFTER_LAYER_CHANGE
;1.8
G1 X105.725 Y115.103
G1 E6.50000 F2400.000
G1 F900
G1 X125.275 Y115.103 E0.54056
G1 X125.275 Y115.897 E0.02195
G1 X105.725 Y115.897 E0.54056
G1 X105.725 Y115.163 E0.02029
G1 X106.125 Y115.108 F9000.000
G1 E-4.55000 F3300.000
;WIPE_START
G1 F7200.000
G1 X109.980 Y115.150 E-1.85250
;WIPE_END
G1 E-0.09750 F3300.000
G1 X125.067 Y115.500 F9000.000
G1 E6.50000 F2400.000
;TYPE:Gap fill
;WIDTH:0.412606
G1 F900
G1 X105.933 Y115.500 E0.48147
;LAYER_CHANGE
;Z:1.96
;HEIGHT:0.16
;BEFORE_LAYER_CHANGE
G92 E0
;1.96


G1 E-4.55000 F3300.000
;WIPE_START
G1 F7200.000
G1 X110.187 Y115.500 E-1.85250
;WIPE_END
G1 E-0.09750 F3300.000
G1 Z1.960 F9000.000
;AFTER_LAYER_CHANGE
;1.96
G1 X105.725 Y115.263
G1 E6.50000 F2400.000
;TYPE:External perimeter
;WIDTH:0.45
G1 F900
G1 X125.275 Y115.263 E0.54056
G1 X125.275 Y115.737 E0.01310
G1 X105.725 Y115.737 E0.54056
G1 X105.725 Y115.323 E0.01145
G1 X106.125 Y115.266 F9000.000
G1 E-4.55000 F3300.000
;WIPE_START
G1 F7200.000
G1 X109.980 Y115.310 E-1.85250
;WIPE_END
G1 E-0.09750 F3300.000
G1 X125.067 Y115.500 F9000.000
G1 E6.50000 F2400.000
;TYPE:Gap fill
;WIDTH:0.0926063
G1 F900
G1 X105.933 Y115.500 E0.07417
G1 E-4.55000 F3300.000
;WIPE_START
G1 F7200.000;_WIPE
G1 X110.187 Y115.500 E-1.85250
;WIPE_END
G1 E-0.09750 F3300.000
M107
;TYPE:Custom
; Filament-specific end gcode 
;END gcode for filament
G1 Z3.96 F600 ; Move print head up
G1 X5 Y170 F9000 ; present print
G1 Z71.96 F600 ; Move print head further up
M140 S0 ; turn off heatbed
M104 S0 ; turn off temperature
M107 ; turn off fan
M84 X Y E ; disable motors
