;FLAVOR:Marlin
;TIME:173
;Filament used: 0.0344204m
;Layer height: 0.2
;MINX:113.017
;MINY:54.713
;MINZ:0.2
;MAXX:121.653
;MAXY:187.726
;MAXZ:1.8
;Generated with Cura_SteamEngine 4.8.0
M140 S60
M105
M190 S60
M104 S200
M105
M109 S200
M82 ;absolute extrusion mode
; Ender 3 Custom Start G-code
G92 E0 ; Reset Extruder
G28 ; Home all axes
G1 Z2.0 F3000 ; Move Z Axis up little to prevent scratching of Heat Bed
G1 X0.1 Y20 Z0.3 F5000.0 ; Move to start position
G1 X0.1 Y200.0 Z0.3 F1500.0 E15 ; Draw the first line
G1 X0.4 Y200.0 Z0.3 F5000.0 ; Move to side a little
G1 X0.4 Y20 Z0.3 F1500.0 E30 ; Draw the second line
G92 E0 ; Reset Extruder
G1 Z2.0 F3000 ; Move Z Axis up little to prevent scratching of Heat Bed
G1 X5 Y20 Z0.3 F5000.0 ; Move over to prevent blob squish
G92 E0
G92 E0
G1 F3000 E-6.5
;LAYER_COUNT:9
;LAYER:0
M107
;MESH:ShoulderPin.stl(2)
G0 F6000 X118.241 Y55.833 Z0.2
;TYPE:WALL-OUTER
G1 F3000 E0
G1 F600 X114.641 Y55.832 E0.11974
G1 X114.641 Y55.406 E0.13391
G1 X118.241 Y55.406 E0.25364
G1 X118.241 Y55.833 E0.26784
G1 F3000 E-6.23216
;MESH:ShoulderPin.stl(1)
G0 F6000 X118.241 Y56.698
G0 X116.617 Y95.555
G0 X116.617 Y96.847
;TYPE:WALL-OUTER
G1 F3000 E0.26784
G1 F600 X113.017 Y96.846 E0.38758
G1 X113.017 Y96.42 E0.40175
G1 X116.617 Y96.42 E0.52149
G1 X116.617 Y96.847 E0.53569
G1 F3000 E-5.96431
;MESH:ShoulderPin.stl
G0 F6000 X116.617 Y97.712
G0 X117.8 Y136.175
G0 X117.8 Y137.467
;TYPE:WALL-OUTER
G1 F3000 E0.53569
G1 F600 X114.2 Y137.466 E0.65542
G1 X114.2 Y137.04 E0.66959
G1 X117.8 Y137.04 E0.78933
G1 X117.8 Y137.467 E0.80353
G1 F3000 E-5.69647
;MESH:ShoulderPin.stl(3)
G0 F6000 X117.8 Y138.332
G0 X117.404 Y185.742
G0 X117.404 Y187.034
;TYPE:WALL-OUTER
G1 F3000 E0.80353
G1 F600 X113.804 Y187.033 E0.92327
G1 X113.804 Y186.607 E0.93744
G1 X117.404 Y186.607 E1.05717
G1 X117.404 Y187.034 E1.07138
G1 F3000 E-5.42862
;MESH:NONMESH
G0 F300 X117.404 Y187.034 Z0.4
G0 F6000 X117.404 Y185.742
G0 X121.653 Y138.057
G0 X121.653 Y136.449
G0 X120.47 Y95.829
G0 X117.841 Y56.698
G0 X117.841 Y55.708
;TIME_ELAPSED:12.577878
;LAYER:1
M106 S85
M104 S185
M105
M109 S185
G28
;TYPE:WALL-INNER
;MESH:ShoulderPin.stl(2)
G1 F3000 E1.07138
G1 F1099.4 X115.041 Y55.707 E1.1645
G1 X115.041 Y55.531 E1.17036
G1 X117.841 Y55.531 E1.21155
G1 X117.841 Y55.708 E1.21744
G0 F3750 X118.241 Y56.108
;TYPE:WALL-OUTER
G1 F1099.4 X114.641 Y56.107 E1.33718
G1 X114.641 Y55.131 E1.36964
G1 X118.241 Y55.131 E1.48938
G1 X118.241 Y55.392 E1.49806
G1 X121.241 Y55.393 E1.59784
G1 X121.241 Y55.845 E1.61287
G1 X118.241 Y55.845 E1.71265
G1 X118.241 Y56.108 E1.7214
G0 F3750 X118.328 Y55.618
;TYPE:SKIN
G1 F1099.4 X118.611 Y55.618 E1.72413
G1 X120.874 Y55.618 E1.74595
G0 F3750 X120.926 Y55.567
G0 X118.098 Y55.567
G1 F1099.4 X118 Y55.664 E1.74824
G1 F3000 E-4.75176
;MESH:ShoulderPin.stl(1)
G0 F3750 X118 Y56.973
G0 X116.217 Y95.28
G0 X116.217 Y96.722
;TYPE:WALL-INNER
G1 F3000 E1.74824
G1 F1099.4 X113.417 Y96.721 E1.84137
G1 X113.417 Y96.545 E1.84722
G1 X116.217 Y96.545 E1.88842
G1 X116.217 Y96.722 E1.8943
G0 F3750 X116.617 Y97.122
;TYPE:WALL-OUTER
G1 F1099.4 X113.017 Y97.121 E2.01404
G1 X113.017 Y96.145 E2.0465
G1 X116.617 Y96.145 E2.16624
G1 X116.617 Y96.406 E2.17492
G1 X119.617 Y96.407 E2.2747
G1 X119.617 Y96.859 E2.28973
G1 X116.617 Y96.859 E2.38951
G1 X116.617 Y97.122 E2.39826
G0 F3750 X116.63 Y96.632
;TYPE:SKIN
G1 F1099.4 X116.913 Y96.632 E2.40082
G1 X119.175 Y96.632 E2.42124
G1 X119.424 Y96.667 E2.42351
G1 F3000 E-4.07649
;MESH:ShoulderPin.stl
G0 F3750 X119.441 Y97.724
G0 X117.4 Y135.9
G0 X117.4 Y137.342
;TYPE:WALL-INNER
G1 F3000 E2.42351
G1 F1099.4 X114.6 Y137.341 E2.51664
G1 X114.6 Y137.165 E2.5225
G1 X117.4 Y137.165 E2.56369
G1 X117.4 Y137.342 E2.56958
G0 F3750 X117.8 Y137.742
;TYPE:WALL-OUTER
G1 F1099.4 X114.2 Y137.741 E2.68932
G1 X114.2 Y136.765 E2.72178
G1 X117.8 Y136.765 E2.84151
G1 X117.8 Y137.026 E2.85019
G1 X120.8 Y137.027 E2.94998
G1 X120.8 Y137.479 E2.96501
G1 X117.8 Y137.479 E3.06479
G1 X117.8 Y137.742 E3.07354
G0 F3750 X117.871 Y137.251
;TYPE:SKIN
G1 F1099.4 X118.154 Y137.251 E3.07627
G1 X120.417 Y137.251 E3.09812
G0 F3750 X120.469 Y137.2
G0 X117.64 Y137.2
G1 F1099.4 X117.56 Y137.281 E3.10001
G1 F3000 E-3.39999
;MESH:ShoulderPin.stl(3)
G0 F3750 X117.56 Y138.607
G0 X117.004 Y185.467
G0 X117.004 Y186.909
;TYPE:WALL-INNER
G1 F3000 E3.10001
G1 F1099.4 X114.204 Y186.908 E3.19314
G1 X114.204 Y186.732 E3.19899
G1 X117.004 Y186.732 E3.24019
G1 X117.004 Y186.909 E3.24608
G0 F3750 X117.404 Y187.309
;TYPE:WALL-OUTER
G1 F1099.4 X113.804 Y187.308 E3.36581
G1 X113.804 Y186.332 E3.39827
G1 X117.404 Y186.332 E3.51801
G1 X117.404 Y186.593 E3.52669
G1 X120.404 Y186.594 E3.62647
G1 X120.404 Y187.046 E3.64151
G1 X117.404 Y187.046 E3.74129
G1 X117.404 Y187.309 E3.75003
G0 F3750 X117.519 Y186.818
;TYPE:SKIN
G1 F1099.4 X117.802 Y186.818 E3.75276
G1 X120.064 Y186.818 E3.7746
G0 F3750 X120.116 Y186.767
G0 X117.288 Y186.767
G1 F1099.4 X117.185 Y186.87 E3.77702
G1 F3000 E-2.72298
;MESH:NONMESH
G0 F300 X117.185 Y186.87 Z0.6
G0 F3750 X117.185 Y185.467
G0 X113.347 Y138.594
G0 X113.347 Y135.912
G0 X120.47 Y97.712
G0 X120.47 Y95.965
G0 X117.841 Y56.973
G0 X117.841 Y55.984
;TIME_ELAPSED:25.757728
;LAYER:2
M106 S170
;TYPE:WALL-INNER
;MESH:ShoulderPin.stl(2)
G1 F3000 E3.77702
G1 F1500 X115.041 Y55.983 E3.87015
G1 X115.041 Y55.255 E3.89436
G1 X117.841 Y55.255 E3.98749
G1 X117.841 Y55.516 E3.99617
G1 X120.841 Y55.517 E4.09595
G1 X120.841 Y55.721 E4.10274
G1 X117.841 Y55.721 E4.15388
G1 X117.841 Y55.984 E4.16262
G0 X118.241 Y56.384
;TYPE:WALL-OUTER
G1 X114.641 Y56.383 E4.28236
G1 X114.641 Y54.855 E4.33318
G1 X118.241 Y54.855 E4.45292
G1 X118.241 Y55.116 E4.4616
G1 X121.241 Y55.117 E4.56138
G1 X121.241 Y56.121 E4.59477
G1 X118.241 Y56.121 E4.69455
G1 X118.241 Y56.384 E4.7033
G0 X117.417 Y55.903
;TYPE:FILL
G1 F3000 X116.849 Y55.335 E4.73002
G0 F1500 X116.609 Y55.903
G1 F3000 X116.041 Y55.335 E4.75673
G0 F1500 X115.802 Y55.903
G1 F3000 X115.234 Y55.335 E4.78345
G0 F1500 X115.311 Y55.525
G0 X117.571 Y55.525
G0 X117.656 Y55.335
G1 F3000 X117.76 Y55.438 E4.78832
G0 F1500 X117.518 Y55.576
;TYPE:SKIN
G1 X117.278 Y55.619 E4.79728
G1 X115.581 Y55.619 E4.85963
G1 X115.351 Y55.671 E4.86829
G1 F3000 E-1.63171
;MESH:ShoulderPin.stl(1)
G0 F1500 X115.341 Y55.555
G0 X115.966 Y55.764
G0 X115.966 Y57.249
G0 X115.966 Y95.005
G0 X115.966 Y96.49
G0 X116.217 Y96.998
;TYPE:WALL-INNER
G1 F3000 E4.86829
G1 F1500 X113.417 Y96.997 E4.96142
G1 X113.417 Y96.27 E4.9856
G1 X116.217 Y96.27 E5.07873
G1 X116.217 Y96.53 E5.08737
G1 X119.217 Y96.531 E5.18715
G1 X119.217 Y96.735 E5.19394
G1 X116.217 Y96.735 E5.24508
G1 X116.217 Y96.998 E5.25383
G0 X116.617 Y97.398
;TYPE:WALL-OUTER
G1 X113.017 Y97.397 E5.37356
G1 X113.017 Y95.87 E5.42435
G1 X116.617 Y95.87 E5.54409
G1 X116.617 Y96.13 E5.55274
G1 X119.617 Y96.131 E5.65252
G1 X119.617 Y97.135 E5.68591
G1 X116.617 Y97.135 E5.78569
G1 X116.617 Y97.398 E5.79444
G0 X115.792 Y96.917
;TYPE:FILL
G1 F3000 X115.225 Y96.35 E5.82111
G0 F1500 X114.985 Y96.917
G1 F3000 X114.418 Y96.35 E5.84778
G0 F1500 X114.177 Y96.917
G1 F3000 X113.61 Y96.35 E5.87445
G0 F1500 X113.687 Y96.54
G0 X115.947 Y96.54
G0 X116.033 Y96.35
G1 F3000 X116.135 Y96.452 E5.87925
G0 F1500 X116.001 Y96.485
;TYPE:SKIN
G1 X115.859 Y96.626 E5.88573
G1 X113.886 Y96.633 E5.94967
G1 X113.691 Y96.721 E5.9566
;MESH:ShoulderPin.stl
G0 X113.793 Y96.698
G0 X116.003 Y96.784
G0 X116.003 Y98.263
G0 X116.003 Y135.625
G0 X116.003 Y137.11
G0 X117.13 Y137.318
G0 X117.4 Y137.618
;TYPE:WALL-INNER
G1 X114.6 Y137.617 E6.04973
G1 X114.6 Y136.89 E6.07391
G1 X117.4 Y136.89 E6.16704
G1 X117.4 Y137.15 E6.17568
G1 X120.4 Y137.151 E6.27546
G1 X120.4 Y137.355 E6.28225
G1 X117.4 Y137.355 E6.33339
G1 X117.4 Y137.618 E6.34214
G0 X117.8 Y138.018
;TYPE:WALL-OUTER
G1 X114.2 Y138.017 E6.46187
G1 X114.2 Y136.49 E6.51266
G1 X117.8 Y136.49 E6.6324
G1 X117.8 Y136.75 E6.64105
G1 X120.8 Y136.751 E6.74083
G1 X120.8 Y137.755 E6.77422
G1 X117.8 Y137.755 E6.874
G1 X117.8 Y138.018 E6.88275
G0 X116.976 Y137.536
;TYPE:FILL
G1 F3000 X116.409 Y136.969 E6.90942
G0 F1500 X116.169 Y137.536
G1 F3000 X115.602 Y136.969 E6.93609
G0 F1500 X115.361 Y137.536
G1 F3000 X114.794 Y136.969 E6.96276
G0 F1500 X114.87 Y137.16
G0 X117.13 Y137.16
G0 X117.217 Y136.969
G1 F3000 X117.32 Y137.072 E6.9676
G0 F1500 X117.103 Y137.185
;TYPE:SKIN
G1 X116.888 Y137.252 E6.97516
G1 X114.935 Y137.28 E7.04074
G1 X114.793 Y137.421 E7.04746
G1 F3000 E0.54746
;MESH:ShoulderPin.stl(3)
G0 F1500 X114.9 Y137.318
G0 X116.756 Y137.398
G0 X116.756 Y138.883
G0 X116.756 Y185.191
G0 X116.756 Y186.676
G0 X117.004 Y187.185
;TYPE:WALL-INNER
G1 F3000 E7.04746
G1 F1500 X114.204 Y187.184 E7.14059
G1 X114.204 Y186.456 E7.1648
G1 X117.004 Y186.456 E7.25793
G1 X117.004 Y186.717 E7.26661
G1 X120.004 Y186.718 E7.36639
G1 X120.004 Y186.922 E7.37317
G1 X117.004 Y186.922 E7.42431
G1 X117.004 Y187.185 E7.43306
G0 X117.404 Y187.585
;TYPE:WALL-OUTER
G1 X113.804 Y187.584 E7.5528
G1 X113.804 Y186.056 E7.60362
G1 X117.404 Y186.056 E7.72336
G1 X117.404 Y186.317 E7.73204
G1 X120.404 Y186.318 E7.83182
G1 X120.404 Y187.322 E7.86521
G1 X117.404 Y187.322 E7.96499
G1 X117.404 Y187.585 E7.97374
G0 X116.58 Y187.103
;TYPE:FILL
G1 F3000 X116.012 Y186.535 E8.00046
G0 F1500 X115.773 Y187.103
G1 F3000 X115.205 Y186.535 E8.02717
G0 F1500 X114.965 Y187.103
G1 F3000 X114.397 Y186.535 E8.05389
G0 F1500 X114.474 Y186.726
G0 X116.734 Y186.726
G0 X116.82 Y186.535
G1 F3000 X116.923 Y186.638 E8.05873
G0 F1500 X116.798 Y186.66
;TYPE:SKIN
G1 X116.656 Y186.801 E8.06537
G1 X114.694 Y186.819 E8.13047
G0 X114.378 Y186.786
G1 X114.6 Y187.008 E8.13569
G1 F3000 E1.63569
;MESH:NONMESH
G0 F300 X114.6 Y187.008 Z0.8
G0 F1500 X114.601 Y186.885
G0 X116.79 Y186.67
G0 X116.79 Y185.191
G0 X113.347 Y138.87
G0 X113.347 Y135.637
G0 X120.47 Y97.988
G0 X120.47 Y95.549
G0 X116.846 Y57.249
G0 X116.846 Y55.764
G0 X117.571 Y55.684
G0 X117.841 Y56.125
;TIME_ELAPSED:47.288314
;LAYER:3
M106 S255
;TYPE:WALL-INNER
;MESH:ShoulderPin.stl(2)
G1 F3000 E8.13569
G1 F1500 X115.041 Y56.125 E8.22882
G1 X115.041 Y55.113 E8.26248
G1 X117.841 Y55.113 E8.3556
G1 X117.841 Y55.274 E8.36096
G1 X120.841 Y55.275 E8.46074
G1 X120.841 Y55.963 E8.48362
G1 X117.841 Y55.963 E8.5834
G1 X117.841 Y56.125 E8.58879
G0 X118.241 Y56.525
;TYPE:WALL-OUTER
G1 X114.641 Y56.525 E8.70853
G1 X114.641 Y54.713 E8.76879
G1 X118.241 Y54.713 E8.88853
G1 X118.241 Y54.874 E8.89389
G1 X121.241 Y54.875 E8.99367
G1 X121.241 Y56.363 E9.04316
G1 X118.241 Y56.363 E9.14294
G1 X118.241 Y56.525 E9.14833
G0 X118.483 Y55.883
;TYPE:FILL
G1 F3000 X119.013 Y55.353 E9.17326
G0 F1500 X119.291 Y55.883
G1 F3000 X119.82 Y55.353 E9.19816
G0 F1500 X120.098 Y55.883
G1 F3000 X120.628 Y55.353 E9.22309
G0 F1500 X120.627 Y55.574
G0 X118.204 Y55.574
G0 X118.205 Y55.353
G1 F3000 X117.514 Y56.045 E9.25562
G0 F1500 X116.706 Y56.045
G1 F3000 X117.559 Y55.192 E9.29574
G0 F1500 X116.751 Y55.192
G1 F3000 X115.899 Y56.045 E9.33584
G0 F1500 X115.12 Y56.016
G1 F3000 X115.944 Y55.192 E9.3746
G0 F1500 X115.944 Y55.413
G0 X117.571 Y55.544
G0 X117.625 Y55.473
;TYPE:SKIN
G1 X117.767 Y55.615 E9.38042
G1 X120.309 Y55.618 E9.45408
G1 X120.543 Y55.666 E9.461
G1 F3000 E2.961
;MESH:ShoulderPin.stl(1)
G0 F1500 X120.423 Y55.663
G0 X117.627 Y55.749
G0 X117.627 Y57.39
G0 X116.003 Y94.863
G0 X116.003 Y96.342
G0 X115.917 Y96.869
G0 X116.217 Y97.139
;TYPE:WALL-INNER
G1 F3000 E9.461
G1 F1500 X113.417 Y97.139 E9.55413
G1 X113.417 Y96.128 E9.58776
G1 X116.217 Y96.128 E9.68089
G1 X116.217 Y96.288 E9.68621
G1 X119.217 Y96.289 E9.78599
G1 X119.217 Y96.977 E9.80887
G1 X116.217 Y96.977 E9.90865
G1 X116.217 Y97.139 E9.91404
G0 X116.617 Y97.539
;TYPE:WALL-OUTER
G1 X113.017 Y97.539 E10.03378
G1 X113.017 Y95.728 E10.09401
G1 X116.617 Y95.728 E10.21375
G1 X116.617 Y95.888 E10.21907
G1 X119.617 Y95.889 E10.31885
G1 X119.617 Y97.377 E10.36834
G1 X116.617 Y97.377 E10.46812
G1 X116.617 Y97.539 E10.47351
G0 X116.86 Y96.896
;TYPE:FILL
G1 F3000 X117.388 Y96.368 E10.49834
G0 F1500 X117.667 Y96.896
G1 F3000 X118.196 Y96.368 E10.5232
G0 F1500 X118.475 Y96.896
G1 F3000 X119.003 Y96.368 E10.54804
G0 F1500 X119.002 Y96.588
G0 X116.58 Y96.588
G0 X116.581 Y96.368
G1 F3000 X115.89 Y97.058 E10.58052
G0 F1500 X115.083 Y97.058
G1 F3000 X115.934 Y96.207 E10.62055
G0 F1500 X115.126 Y96.207
G1 F3000 X114.275 Y97.058 E10.66057
G0 F1500 X113.496 Y97.03
G1 F3000 X114.319 Y96.207 E10.69928
G0 F1500 X114.319 Y96.428
G0 X115.947 Y96.707
G0 X116.105 Y96.591
;TYPE:SKIN
G1 X116.347 Y96.632 E10.70669
G1 X118.882 Y96.643 E10.78318
G1 X119.023 Y96.784 E10.7892
G1 F3000 E4.2892
;MESH:ShoulderPin.stl
G0 F1500 X118.917 Y96.677
G0 X117.13 Y96.757
G0 X117.47 Y98.23
G0 X117.13 Y135.483
G0 X117.13 Y136.968
G0 X117.13 Y137.459
G0 X117.4 Y137.759
;TYPE:WALL-INNER
G1 F3000 E10.7892
G1 F1500 X114.6 Y137.759 E10.88233
G1 X114.6 Y136.748 E10.91596
G1 X117.4 Y136.748 E11.00908
G1 X117.4 Y136.908 E11.01441
G1 X120.4 Y136.909 E11.11419
G1 X120.4 Y137.597 E11.13707
G1 X117.4 Y137.597 E11.23685
G1 X117.4 Y137.759 E11.24224
G0 X117.8 Y138.159
;TYPE:WALL-OUTER
G1 X114.2 Y138.159 E11.36197
G1 X114.2 Y136.348 E11.42221
G1 X117.8 Y136.348 E11.54194
G1 X117.8 Y136.508 E11.54727
G1 X120.8 Y136.509 E11.64705
G1 X120.8 Y137.997 E11.69654
G1 X117.8 Y137.997 E11.79632
G1 X117.8 Y138.159 E11.80171
G0 X118.042 Y137.516
;TYPE:FILL
G1 F3000 X118.572 Y136.987 E11.82661
G0 F1500 X118.85 Y137.516
G1 F3000 X119.38 Y136.987 E11.85152
G0 F1500 X119.658 Y137.516
G1 F3000 X120.187 Y136.987 E11.8764
G0 F1500 X120.186 Y137.208
G0 X117.764 Y137.208
G0 X117.765 Y136.987
G1 F3000 X117.074 Y137.677 E11.90888
G0 F1500 X116.266 Y137.677
G1 F3000 X117.117 Y136.827 E11.94888
G0 F1500 X116.309 Y136.827
G1 F3000 X115.459 Y137.677 E11.98887
G0 F1500 X114.679 Y137.649
G1 F3000 X115.502 Y136.827 E12.02755
G0 F1500 X115.502 Y137.048
G0 X117.13 Y137.178
G0 X117.176 Y137.098
;TYPE:SKIN
G1 X117.317 Y137.239 E12.03331
G1 X119.851 Y137.251 E12.10652
G1 X120.094 Y137.291 E12.11364
G1 F3000 E5.61364
;MESH:ShoulderPin.stl(3)
G0 F1500 X119.965 Y137.297
G0 X117.186 Y137.383
G0 X117.186 Y139.024
G0 X116.79 Y185.049
G0 X116.79 Y186.528
G0 X116.734 Y187.026
G0 X117.004 Y187.326
;TYPE:WALL-INNER
G1 F3000 E12.11364
G1 F1500 X114.204 Y187.326 E12.20677
G1 X114.204 Y186.314 E12.24043
G1 X117.004 Y186.314 E12.33356
G1 X117.004 Y186.475 E12.33891
G1 X120.004 Y186.476 E12.43869
G1 X120.004 Y187.164 E12.46157
G1 X117.004 Y187.164 E12.56135
G1 X117.004 Y187.326 E12.56674
G0 X117.404 Y187.726
;TYPE:WALL-OUTER
G1 X113.804 Y187.726 E12.68648
G1 X113.804 Y185.914 E12.74675
G1 X117.404 Y185.914 E12.86648
G1 X117.404 Y186.075 E12.87184
G1 X120.404 Y186.076 E12.97162
G1 X120.404 Y187.564 E13.02111
G1 X117.404 Y187.564 E13.12089
G1 X117.404 Y187.726 E13.12628
G0 X117.647 Y187.083
;TYPE:FILL
G1 F3000 X118.175 Y186.554 E13.15114
G0 F1500 X118.454 Y187.083
G1 F3000 X118.983 Y186.554 E13.17602
G0 F1500 X119.262 Y187.083
G1 F3000 X119.79 Y186.554 E13.20088
G0 F1500 X119.789 Y186.775
G0 X117.367 Y186.775
G0 X117.368 Y186.554
G1 F3000 X116.677 Y187.245 E13.23338
G0 F1500 X115.87 Y187.245
G1 F3000 X116.722 Y186.393 E13.27346
G0 F1500 X115.914 Y186.393
G1 F3000 X115.062 Y187.245 E13.31353
G0 F1500 X114.284 Y187.216
G1 F3000 X115.107 Y186.393 E13.35224
G0 F1500 X115.107 Y186.614
G0 X116.734 Y186.745
G0 X116.802 Y186.687
;TYPE:SKIN
G1 X116.953 Y186.818 E13.35819
G1 X119.498 Y186.819 E13.43386
G0 X119.829 Y186.772
G1 X119.612 Y186.988 E13.43895
G1 F3000 E6.93895
;MESH:NONMESH
G0 F300 X119.612 Y186.988 Z1
G0 F1500 X119.612 Y186.864
G0 X117.526 Y186.695
G0 X117.526 Y185.049
G0 X121.653 Y138.85
G0 X121.653 Y135.656
G0 X120.47 Y95.036
G0 X117.526 Y57.39
G0 X117.526 Y55.905
G0 X117.841 Y56.06
;TIME_ELAPSED:71.712504
;LAYER:4
;TYPE:WALL-INNER
;MESH:ShoulderPin.stl(2)
G1 F3000 E13.43895
G1 F1500 X115.041 Y56.06 E13.53208
G1 X115.041 Y55.178 E13.56142
G1 X117.841 Y55.178 E13.65455
G1 X117.841 Y55.339 E13.6599
G1 X120.841 Y55.34 E13.75968
G1 X120.841 Y55.898 E13.77824
G1 X117.841 Y55.898 E13.87802
G1 X117.841 Y56.06 E13.88341
G0 X118.241 Y56.46
;TYPE:WALL-OUTER
G1 X114.641 Y56.46 E14.00315
G1 X114.641 Y54.778 E14.05909
G1 X118.241 Y54.778 E14.17883
G1 X118.241 Y54.939 E14.18418
G1 X121.241 Y54.94 E14.28396
