;FLAVOR:Marlin
;TIME:548
;Filament used: 0.135991m
;Layer height: 0.2
;MINX:102.558
;MINY:42.542
;MINZ:0.2
;MAXX:132.428
;MAXY:137.459
;MAXZ:11.2
;Generated with Cura_SteamEngine 4.8.0
M140 S60
M105
M190 S60
M104 S200
M105
M109 S200
M82 ;absolute extrusion mode
; Ender 3 Custom Start G-code
G92 E0 ; Reset Extruder
G28 ; Home all axes
G1 Z2.0 F3000 ; Move Z Axis up little to prevent scratching of Heat Bed
G1 X0.1 Y20 Z0.3 F5000.0 ; Move to start position
G1 X0.1 Y200.0 Z0.3 F1500.0 E15 ; Draw the first line
G1 X0.4 Y200.0 Z0.3 F5000.0 ; Move to side a little
G1 X0.4 Y20 Z0.3 F1500.0 E30 ; Draw the second line
G92 E0 ; Reset Extruder
G1 Z2.0 F3000 ; Move Z Axis up little to prevent scratching of Heat Bed
G1 X5 Y20 Z0.3 F5000.0 ; Move over to prevent blob squish
G92 E0
G92 E0
G1 F3000 E-6.5
;LAYER_COUNT:55
;LAYER:0
M107
G1 F300 Z0.4
G0 F6000 X109.252 Y98.995 Z0.4
;TYPE:SKIRT
G1 F300 Z0.2
G1 F3000 E0
G1 F1200 X109.869 Y98.312 E0.03061
G1 X110.543 Y97.685 E0.06123
G1 X111.268 Y97.118 E0.09184
G1 X112.04 Y96.617 E0.12245
G1 X112.853 Y96.184 E0.15309
G1 X113.7 Y95.824 E0.1837
G1 X114.576 Y95.538 E0.21435
G1 X115.472 Y95.33 E0.24494
G1 X116.384 Y95.2 E0.27558
G1 X117.303 Y95.15 E0.30619
G1 X118.223 Y95.179 E0.33681
G1 X119.137 Y95.289 E0.36743
G1 X120.039 Y95.477 E0.39807
G1 X120.92 Y95.743 E0.42868
G1 X121.775 Y96.084 E0.4593
G1 X122.597 Y96.498 E0.48991
G1 X123.38 Y96.982 E0.52053
G1 X124.119 Y97.532 E0.55116
G1 X124.806 Y98.144 E0.58177
G1 X125.438 Y98.814 E0.6124
G1 X126.01 Y99.536 E0.64304
G1 X126.517 Y100.304 E0.67364
G1 X126.955 Y101.114 E0.70427
G1 X127.321 Y101.959 E0.7349
G1 X127.613 Y102.832 E0.76552
G1 X127.896 Y104.12 E0.80938
G1 X128.034 Y105.01 E0.83933
G1 X128.492 Y107.485 E0.92305
G1 X129.021 Y109.959 E1.0072
G1 X129.612 Y112.388 E1.09034
G1 X130.287 Y114.844 E1.17506
G1 X130.99 Y117.133 E1.2547
G1 X131.12 Y117.572 E1.26993
G1 X131.208 Y117.887 E1.28081
G1 X131.463 Y118.863 E1.31436
G1 X131.605 Y119.445 E1.33428
G1 X131.756 Y120.094 E1.35644
G1 X131.926 Y120.999 E1.38707
G1 X132.016 Y121.915 E1.41768
G1 X132.027 Y122.836 E1.44832
G1 X131.957 Y123.754 E1.47894
G1 X131.758 Y124.889 E1.51727
G1 X131.554 Y125.769 E1.54731
G1 X131.4 Y126.387 E1.56849
G1 X131.23 Y127.036 E1.59081
G1 X130.958 Y127.916 E1.62144
G1 X130.611 Y128.768 E1.65204
G1 X130.192 Y129.588 E1.68267
G1 X129.702 Y130.368 E1.71331
G1 X129.019 Y131.254 E1.75051
G1 X128.404 Y131.968 E1.78186
G1 X127.99 Y132.434 E1.80259
G1 X127.552 Y132.914 E1.8242
G1 X126.899 Y133.57 E1.85499
G1 X126.196 Y134.164 E1.8856
G1 X125.444 Y134.696 E1.91624
G1 X124.649 Y135.16 E1.94685
G1 X123.615 Y135.635 E1.9847
G1 X122.755 Y135.975 E2.01546
G1 X122.218 Y136.178 E2.03455
G1 X121.533 Y136.426 E2.05878
G1 X120.655 Y136.701 E2.08938
G1 X119.756 Y136.9 E2.12001
G1 X118.843 Y137.019 E2.15063
G1 X117.923 Y137.059 E2.18126
G1 X116.816 Y137.001 E2.21813
G1 X115.925 Y136.906 E2.24793
G1 X115.254 Y136.824 E2.27041
G1 X114.591 Y136.733 E2.29267
G1 X113.685 Y136.568 E2.3233
G1 X112.797 Y136.325 E2.35392
G1 X111.933 Y136.006 E2.38456
G1 X111.1 Y135.614 E2.41518
G1 X110.149 Y135.049 E2.45197
G1 X109.491 Y134.61 E2.47828
G1 X108.904 Y134.204 E2.50202
G1 X108.31 Y133.781 E2.52627
G1 X107.584 Y133.215 E2.55689
G1 X106.91 Y132.588 E2.5875
G1 X106.293 Y131.905 E2.61812
G1 X105.737 Y131.171 E2.64874
G1 X105.15 Y130.217 E2.686
G1 X104.778 Y129.534 E2.71187
G1 X104.437 Y128.884 E2.73628
G1 X104.113 Y128.244 E2.76014
G1 X103.733 Y127.405 E2.79077
G1 X103.428 Y126.537 E2.82137
G1 X103.198 Y125.645 E2.85201
G1 X103.048 Y124.737 E2.88262
G1 X102.971 Y123.62 E2.91986
G1 X102.958 Y122.68 E2.95113
G1 X102.959 Y122.085 E2.97092
G1 X102.97 Y121.379 E2.9944
G1 X103.025 Y120.46 E3.02502
G1 X103.158 Y119.549 E3.05565
G1 X103.427 Y118.461 E3.09292
G1 X103.611 Y117.861 E3.1138
G1 X104.147 Y116.196 E3.17197
G1 X104.856 Y113.762 E3.25629
G1 X105.494 Y111.311 E3.34053
G1 X106.056 Y108.878 E3.42358
G1 X106.567 Y106.337 E3.50979
G1 X106.974 Y103.961 E3.58997
G1 X107.168 Y103.061 E3.62059
G1 X107.44 Y102.182 E3.65119
G1 X107.787 Y101.329 E3.68182
G1 X108.207 Y100.51 E3.71243
G1 X108.697 Y99.73 E3.74307
G1 X109.252 Y98.995 E3.7737
G0 F6000 X109.626 Y99.171
G1 F1200 X110.239 Y98.507 E3.80376
G1 X110.908 Y97.9 E3.8338
G1 X111.627 Y97.355 E3.86381
G1 X112.393 Y96.875 E3.89388
G1 X113.197 Y96.465 E3.9239
G1 X114.035 Y96.128 E3.95394
G1 X114.899 Y95.866 E3.98397
G1 X115.783 Y95.682 E4.014
G1 X116.68 Y95.576 E4.04404
G1 X117.583 Y95.55 E4.07409
G1 X118.484 Y95.604 E4.10411
G1 X119.378 Y95.738 E4.13417
G1 X120.255 Y95.95 E4.16418
G1 X121.111 Y96.239 E4.19423
G1 X121.938 Y96.603 E4.22429
G1 X122.729 Y97.038 E4.25431
G1 X123.479 Y97.542 E4.28436
G1 X124.181 Y98.11 E4.3144
G1 X124.83 Y98.738 E4.34444
G1 X125.421 Y99.42 E4.37445
G1 X125.95 Y100.153 E4.40452
G1 X126.411 Y100.929 E4.43454
G1 X126.802 Y101.743 E4.46457
G1 X127.12 Y102.588 E4.4946
G1 X127.362 Y103.459 E4.52467
G1 X127.501 Y104.182 E4.54916
G1 X127.64 Y105.073 E4.57915
G1 X128.1 Y107.563 E4.66337
G1 X128.63 Y110.039 E4.74759
G1 X129.23 Y112.507 E4.83206
G1 X129.901 Y114.949 E4.91629
G1 X130.606 Y117.247 E4.99624
G1 X130.736 Y117.686 E5.01147
G1 X130.821 Y117.989 E5.02194
G1 X131.035 Y118.803 E5.04993
G1 X131.216 Y119.536 E5.07504
G1 X131.367 Y120.185 E5.09721
G1 X131.532 Y121.072 E5.12721
G1 X131.618 Y121.971 E5.15725
G1 X131.625 Y122.874 E5.18729
G1 X131.552 Y123.775 E5.21735
G1 X131.369 Y124.798 E5.25192
G1 X131.165 Y125.673 E5.2818
G1 X131.013 Y126.286 E5.30281
G1 X130.843 Y126.935 E5.32512
G1 X130.576 Y127.797 E5.35513
G1 X130.233 Y128.633 E5.38519
G1 X129.818 Y129.435 E5.41522
G1 X129.334 Y130.197 E5.44525
G1 X128.716 Y130.994 E5.47879
G1 X128.213 Y131.58 E5.50448
G1 X127.695 Y132.164 E5.53044
G1 X127.257 Y132.644 E5.55205
G1 X126.627 Y133.276 E5.58173
G1 X125.937 Y133.859 E5.61178
G1 X125.198 Y134.378 E5.64181
G1 X124.417 Y134.83 E5.67183
G1 X123.468 Y135.263 E5.70652
G1 X122.612 Y135.601 E5.73713
G1 X122.082 Y135.802 E5.75598
G1 X121.397 Y136.05 E5.78021
G1 X120.535 Y136.319 E5.81025
G1 X119.653 Y136.512 E5.84028
G1 X118.757 Y136.625 E5.87031
G1 X117.855 Y136.659 E5.90034
G1 X116.858 Y136.603 E5.93355
G1 X115.973 Y136.509 E5.96315
G1 X115.308 Y136.427 E5.98543
G1 X114.645 Y136.336 E6.00769
G1 X113.757 Y136.174 E6.03772
G1 X112.886 Y135.934 E6.06776
G1 X112.04 Y135.617 E6.09781
G1 X111.226 Y135.228 E6.12782
G1 X110.371 Y134.716 E6.16097
G1 X109.572 Y134.181 E6.19295
G1 X109.136 Y133.879 E6.21059
G1 X108.542 Y133.456 E6.23484
G1 X107.831 Y132.9 E6.26486
G1 X107.171 Y132.283 E6.29491
G1 X106.568 Y131.61 E6.32497
G1 X106.027 Y130.887 E6.355
G1 X105.501 Y130.026 E6.38856
G1 X105.129 Y129.343 E6.41443
G1 X104.794 Y128.703 E6.43845
G1 X104.47 Y128.063 E6.46231
G1 X104.098 Y127.24 E6.49235
G1 X103.8 Y126.387 E6.5224
G1 X103.579 Y125.512 E6.55242
G1 X103.437 Y124.62 E6.58246
G1 X103.371 Y123.614 E6.61599
G1 X103.358 Y122.68 E6.64706
G1 X103.359 Y122.091 E6.66665
G1 X103.37 Y121.385 E6.69014
G1 X103.424 Y120.484 E6.72016
G1 X103.558 Y119.59 E6.75022
G1 X103.81 Y118.578 E6.78491
G1 X103.992 Y117.984 E6.80557
G1 X104.526 Y116.326 E6.86351
G1 X105.247 Y113.848 E6.94935
G1 X105.885 Y111.396 E7.03362
G1 X106.452 Y108.942 E7.11739
G1 X106.955 Y106.445 E7.2021
G1 X107.368 Y104.029 E7.28363
G1 X107.56 Y103.146 E7.31368
G1 X107.829 Y102.284 E7.34372
G1 X108.173 Y101.449 E7.37375
G1 X108.589 Y100.648 E7.40377
G1 X109.075 Y99.886 E7.43383
G1 X109.626 Y99.171 E7.46386
G1 F3000 E0.96386
G1 F300 Z0.4
G0 F6000 X113.851 Y83.811 Z0.4
G1 F300 Z0.2
G1 F3000 E7.46386
G1 F1200 X113.02 Y83.458 E7.49389
G1 X112.223 Y83.032 E7.52394
G1 X111.467 Y82.538 E7.55398
G1 X110.758 Y81.979 E7.58401
G1 X110.101 Y81.359 E7.61405
G1 X109.501 Y80.684 E7.64409
G1 X108.964 Y79.958 E7.67413
G1 X108.493 Y79.188 E7.70415
G1 X108.091 Y78.379 E7.73419
G1 X107.763 Y77.537 E7.76425
G1 X107.511 Y76.67 E7.79428
G1 X107.367 Y75.978 E7.81779
G1 X106.961 Y73.609 E7.89773
G1 X106.47 Y71.148 E7.9812
G1 X105.893 Y68.641 E8.06676
G1 X105.256 Y66.189 E8.15102
G1 X104.553 Y63.764 E8.235
G1 X104.078 Y62.292 E8.28644
G1 X103.827 Y61.482 E8.31465
G1 X103.598 Y60.608 E8.3447
G1 X103.448 Y59.718 E8.37472
G1 X103.371 Y58.619 E8.41136
G1 X103.358 Y57.68 E8.44259
G1 X103.359 Y57.104 E8.46175
G1 X103.369 Y56.405 E8.485
G1 X103.422 Y55.504 E8.51502
G1 X103.554 Y54.61 E8.54508
G1 X103.765 Y53.732 E8.57511
G1 X104.053 Y52.876 E8.60515
G1 X104.467 Y51.946 E8.63901
G1 X104.927 Y51.04 E8.67281
G1 X105.154 Y50.611 E8.68895
G1 X105.49 Y49.992 E8.71237
G1 X105.955 Y49.218 E8.74241
G1 X106.487 Y48.488 E8.77245
G1 X107.082 Y47.809 E8.80248
G1 X107.734 Y47.184 E8.83252
G1 X108.534 Y46.552 E8.86643
G1 X109.304 Y46.005 E8.89784
G1 X109.759 Y45.691 E8.91623
G1 X110.347 Y45.297 E8.93977
G1 X111.119 Y44.828 E8.96981
G1 X111.929 Y44.429 E8.99984
G1 X112.771 Y44.104 E9.02986
G1 X113.639 Y43.854 E9.05991
G1 X114.639 Y43.666 E9.09375
G1 X115.518 Y43.546 E9.12326
G1 X116.151 Y43.471 E9.14446
G1 X116.835 Y43.398 E9.16734
G1 X117.736 Y43.342 E9.19736
G1 X118.639 Y43.366 E9.22741
G1 X119.536 Y43.469 E9.25744
G1 X120.42 Y43.652 E9.28746
G1 X121.387 Y43.948 E9.3211
G1 X122.289 Y44.276 E9.35302
G1 X122.821 Y44.478 E9.37195
G1 X123.46 Y44.731 E9.39481
G1 X124.284 Y45.101 E9.42485
G1 X125.072 Y45.541 E9.45487
G1 X125.818 Y46.05 E9.4849
G1 X126.517 Y46.623 E9.51497
G1 X127.232 Y47.331 E9.54843
G1 X127.714 Y47.858 E9.57219
G1 X128.249 Y48.461 E9.599
G1 X128.701 Y48.986 E9.62204
G1 X129.259 Y49.696 E9.65207
G1 X129.753 Y50.452 E9.68211
G1 X130.177 Y51.249 E9.71214
G1 X130.53 Y52.081 E9.7422
G1 X130.834 Y53.041 E9.77569
G1 X131.072 Y53.95 E9.80694
G1 X131.206 Y54.495 E9.82561
G1 X131.366 Y55.182 E9.84907
G1 X131.532 Y56.07 E9.87912
G1 X131.618 Y56.969 E9.90915
G1 X131.625 Y57.872 E9.93919
G1 X131.552 Y58.772 E9.96922
G1 X131.369 Y59.795 E10.00379
G1 X131.164 Y60.679 E10.03397
G1 X131.014 Y61.284 E10.0547
G1 X130.847 Y61.922 E10.07664
G1 X130.733 Y62.327 E10.09063
G1 X129.96 Y64.847 E10.1783
G1 X129.283 Y67.295 E10.26278
G1 X128.681 Y69.739 E10.34649
G1 X128.136 Y72.254 E10.43209
G1 X127.676 Y74.711 E10.51523
G1 X127.496 Y75.851 E10.55361
G1 X127.315 Y76.736 E10.58366
G1 X127.057 Y77.601 E10.61368
G1 X126.723 Y78.44 E10.64371
G1 X126.317 Y79.247 E10.67376
G1 X125.84 Y80.014 E10.7038
G1 X125.298 Y80.736 E10.73383
G1 X124.694 Y81.408 E10.76388
G1 X124.033 Y82.023 E10.79391
G1 X123.32 Y82.577 E10.82394
G1 X122.561 Y83.066 E10.85397
G1 X121.761 Y83.487 E10.88404
G1 X120.928 Y83.834 E10.91405
G1 X120.067 Y84.107 E10.94409
G1 X119.185 Y84.302 E10.97414
G1 X118.29 Y84.419 E11.00416
G1 X117.387 Y84.456 E11.03422
G1 X116.485 Y84.413 E11.06425
G1 X115.59 Y84.29 E11.0943
G1 X114.71 Y84.089 E11.12432
G1 X113.851 Y83.811 E11.15435
G1 F3000 E4.65435
G1 F300 Z0.4
G0 F6000 X103.753 Y51.585 Z0.4
G1 F300 Z0.2
G1 F3000 E11.15435
G1 F1200 X104.219 Y50.667 E11.18859
G1 X104.45 Y50.229 E11.20506
G1 X104.786 Y49.61 E11.22849
G1 X105.269 Y48.806 E11.25969
G1 X105.818 Y48.045 E11.2909
G1 X106.429 Y47.335 E11.32205
G1 X107.099 Y46.678 E11.35326
G1 X108.07 Y45.9 E11.39464
G1 X108.849 Y45.346 E11.42644
G1 X109.314 Y45.027 E11.44519
G1 X109.902 Y44.633 E11.46873
G1 X110.702 Y44.144 E11.49992
G1 X111.542 Y43.726 E11.53113
G1 X112.414 Y43.381 E11.56232
G1 X113.312 Y43.111 E11.59351
G1 X114.531 Y42.873 E11.63482
G1 X115.421 Y42.752 E11.66469
G1 X116.066 Y42.675 E11.68629
G1 X116.75 Y42.602 E11.70917
G1 X117.686 Y42.542 E11.74037
G1 X118.623 Y42.563 E11.77154
G1 X119.556 Y42.663 E11.80275
G1 X120.476 Y42.842 E11.83392
G1 X121.659 Y43.196 E11.87499
G1 X122.572 Y43.527 E11.90729
G1 X123.115 Y43.734 E11.92662
G1 X123.754 Y43.987 E11.94948
G1 X124.611 Y44.37 E11.9807
G1 X125.432 Y44.823 E12.01189
G1 X126.211 Y45.345 E12.04308
G1 X126.943 Y45.932 E12.07429
G1 X127.822 Y46.791 E12.11516
G1 X128.413 Y47.439 E12.14433
G1 X128.855 Y47.939 E12.16653
G1 X129.307 Y48.464 E12.18957
G1 X129.888 Y49.2 E12.22076
G1 X130.404 Y49.983 E12.25195
G1 X130.852 Y50.807 E12.28314
G1 X131.228 Y51.667 E12.31436
G1 X131.608 Y52.837 E12.35528
G1 X131.807 Y53.592 E12.38125
G1 X131.985 Y54.314 E12.40598
G1 X132.145 Y55.001 E12.42944
G1 X132.319 Y55.923 E12.46065
G1 X132.413 Y56.856 E12.49184
G1 X132.428 Y57.793 E12.52301
G1 X132.363 Y58.729 E12.55421
G1 X132.149 Y59.976 E12.59629
G1 X131.941 Y60.871 E12.62685
G1 X131.826 Y61.337 E12.64282
G1 X131.62 Y62.124 E12.66988
G1 X131.545 Y62.398 E12.67932
G1 X131.449 Y62.723 E12.6906
G1 X130.733 Y65.052 E12.77164
G1 X130.059 Y67.488 E12.8557
G1 X129.46 Y69.922 E12.93907
G1 X128.917 Y72.427 E13.02432
G1 X128.466 Y74.84 E13.10597
G1 X128.286 Y75.976 E13.14423
G1 X128.1 Y76.895 E13.17541
G1 X127.836 Y77.795 E13.20661
G1 X127.497 Y78.67 E13.23782
G1 X127.084 Y79.512 E13.26901
G1 X126.601 Y80.316 E13.30021
G1 X126.052 Y81.076 E13.33139
G1 X125.439 Y81.786 E13.36259
G1 X124.769 Y82.442 E13.39377
G1 X124.045 Y83.038 E13.42496
G1 X123.273 Y83.57 E13.45615
G1 X122.458 Y84.035 E13.48736
G1 X121.607 Y84.429 E13.51855
G1 X120.725 Y84.748 E13.54974
G1 X119.819 Y84.991 E13.58094
G1 X118.896 Y85.157 E13.61213
G1 X117.962 Y85.243 E13.64333
G1 X117.024 Y85.249 E13.67453
G1 X116.089 Y85.175 E13.70572
G1 X115.164 Y85.022 E13.73691
G1 X114.255 Y84.791 E13.7681
G1 X113.369 Y84.483 E13.7993
G1 X112.513 Y84.1 E13.83049
G1 X111.692 Y83.646 E13.86169
G1 X110.913 Y83.124 E13.89288
G1 X110.181 Y82.538 E13.92407
G1 X109.502 Y81.891 E13.95526
G1 X108.88 Y81.188 E13.98648
G1 X108.321 Y80.436 E14.01765
G1 X107.828 Y79.638 E14.04885
G1 X107.404 Y78.801 E14.08005
G1 X107.053 Y77.932 E14.11123
G1 X106.778 Y77.035 E14.14243
G1 X106.579 Y76.113 E14.1738
G1 X106.176 Y73.758 E14.25327
G1 X105.688 Y71.314 E14.33616
G1 X105.125 Y68.871 E14.41955
G1 X104.484 Y66.402 E14.50439
G1 X103.787 Y64 E14.58757
G1 X103.314 Y62.529 E14.63897
G1 X103.063 Y61.719 E14.66717
G1 X102.824 Y60.812 E14.69837
G1 X102.663 Y59.888 E14.72956
G1 X102.571 Y58.632 E14.77145
G1 X102.558 Y57.68 E14.80312
G1 X102.559 Y57.093 E14.82264
G1 X102.569 Y56.394 E14.84589
G1 X102.623 Y55.457 E14.87711
G1 X102.755 Y54.529 E14.90828
G1 X102.967 Y53.615 E14.93949
G1 X103.256 Y52.723 E14.97068
G1 X103.753 Y51.585 E15.01198
G0 F6000 X104.11 Y51.766
G1 F1200 X104.573 Y50.853 E15.04603
G1 X104.802 Y50.42 E15.06232
G1 X105.138 Y49.801 E15.08574
G1 X105.612 Y49.012 E15.11636
G1 X106.153 Y48.267 E15.14698
G1 X106.756 Y47.571 E15.17761
G1 X107.417 Y46.931 E15.20821
G1 X108.302 Y46.226 E15.24584
G1 X109.076 Y45.675 E15.27745
G1 X109.536 Y45.359 E15.29601
G1 X110.124 Y44.965 E15.31955
G1 X110.911 Y44.486 E15.35019
G1 X111.736 Y44.078 E15.3808
G1 X112.593 Y43.742 E15.41142
G1 X113.476 Y43.482 E15.44203
G1 X114.585 Y43.269 E15.47959
G1 X115.47 Y43.149 E15.5093
G1 X116.108 Y43.073 E15.53067
G1 X116.792 Y43 E15.55355
G1 X117.711 Y42.942 E15.58418
G1 X118.631 Y42.964 E15.61478
G1 X119.546 Y43.066 E15.6454
G1 X120.449 Y43.247 E15.67604
G1 X121.523 Y43.572 E15.71336
G1 X122.286 Y43.848 E15.74034
G1 X122.968 Y44.106 E15.7646
G1 X123.607 Y44.359 E15.78745
G1 X124.448 Y44.735 E15.81809
G1 X125.252 Y45.182 E15.84869
G1 X126.015 Y45.698 E15.87933
G1 X126.73 Y46.278 E15.90995
G1 X127.527 Y47.061 E15.94711
G1 X128.114 Y47.705 E15.97609
G1 X128.552 Y48.2 E15.99807
G1 X129.004 Y48.725 E16.02112
G1 X129.574 Y49.448 E16.05174
G1 X130.079 Y50.218 E16.08236
G1 X130.515 Y51.029 E16.11299
G1 X130.879 Y51.874 E16.14359
G1 X131.221 Y52.939 E16.18079
G1 X131.461 Y53.854 E16.21226
G1 X131.596 Y54.405 E16.23113
G1 X131.756 Y55.092 E16.25459
G1 X131.925 Y55.997 E16.28521
G1 X132.016 Y56.913 E16.31582
G1 X132.027 Y57.833 E16.34643
G1 X131.957 Y58.751 E16.37705
G1 X131.759 Y59.886 E16.41537
G1 X131.552 Y60.775 E16.44573
G1 X131.401 Y61.385 E16.46663
G1 X131.234 Y62.023 E16.48856
G1 X131.117 Y62.438 E16.5029
G1 X130.344 Y64.956 E16.59051
G1 X129.671 Y67.392 E16.67457
G1 X129.072 Y69.822 E16.75781
G1 X128.528 Y72.334 E16.84329
G1 X128.07 Y74.782 E16.92613
G1 X127.891 Y75.913 E16.96421
G1 X127.707 Y76.816 E16.99486
G1 X127.446 Y77.699 E17.02549
G1 X127.11 Y78.556 E17.05611
G1 X126.7 Y79.38 E17.08672
G1 X126.221 Y80.166 E17.11733
G1 X125.675 Y80.907 E17.14795
G1 X125.066 Y81.598 E17.17858
G1 X124.4 Y82.234 E17.20921
G1 X123.682 Y82.809 E17.2398
G1 X122.916 Y83.32 E17.27043
