;FLAVOR:Marlin
;TIME:81
;Filament used: 0.0267479m
;Layer height: 0.2
;MINX:104.199
;MINY:104.162
;MINZ:0.2
;MAXX:130.788
;MAXY:130.829
;MAXZ:7
;Generated with Cura_SteamEngine 4.8.0
M140 S60
M105
M190 S60
M104 S185
M105
M109 S185
M82 ;absolute extrusion mode
; Ender 3 Custom Start G-code
G92 E0 ; Reset Extruder
G28 ; Home all axes
G1 Z2.0 F3000 ; Move Z Axis up little to prevent scratching of Heat Bed
G1 X0.1 Y20 Z0.3 F5000.0 ; Move to start position
G1 X0.1 Y200.0 Z0.3 F1500.0 E15 ; Draw the first line
G1 X0.4 Y200.0 Z0.3 F5000.0 ; Move to side a little
G1 X0.4 Y20 Z0.3 F1500.0 E30 ; Draw the second line
G92 E0 ; Reset Extruder
G1 Z2.0 F3000 ; Move Z Axis up little to prevent scratching of Heat Bed
G1 X5 Y20 Z0.3 F5000.0 ; Move over to prevent blob squish
G92 E0
G92 E0
G1 F1500 E-6.5
;LAYER_COUNT:35
;LAYER:0
M107
G0 F6000 X107.415 Y108.711 Z0.2
;TYPE:SKIRT
G1 F1500 E0
G1 F1200 X108.209 Y107.965 E0.03624
G1 X108.557 Y107.672 E0.05137
G1 X108.91 Y107.385 E0.0665
G1 X109.433 Y106.97 E0.0887
G1 X109.975 Y106.55 E0.11151
G1 X110.754 Y105.997 E0.14328
G1 X111.576 Y105.512 E0.17503
G1 X112.436 Y105.096 E0.2068
G1 X113.327 Y104.755 E0.23853
G1 X114.244 Y104.489 E0.27029
G1 X115.18 Y104.3 E0.30205
G1 X116.129 Y104.191 E0.33382
G1 X117.083 Y104.162 E0.36557
G1 X118.036 Y104.212 E0.39731
G1 X119.067 Y104.358 E0.43194
G1 X119.55 Y104.453 E0.44831
G1 X119.982 Y104.548 E0.46302
G1 X120.684 Y104.708 E0.48697
G1 X121.36 Y104.874 E0.51012
G1 X122.277 Y105.14 E0.54188
G1 X123.168 Y105.482 E0.57362
G1 X124.028 Y105.898 E0.6054
G1 X124.849 Y106.384 E0.63713
G1 X125.628 Y106.937 E0.6689
G1 X126.357 Y107.553 E0.70065
G1 X127.032 Y108.228 E0.7324
G1 X127.648 Y108.957 E0.76414
G1 X128.202 Y109.736 E0.79594
G1 X128.704 Y110.589 E0.82886
G1 X128.926 Y111.015 E0.84483
G1 X129.158 Y111.486 E0.8623
G1 X129.407 Y112.005 E0.88144
G1 X129.723 Y112.683 E0.90632
G1 X130.09 Y113.565 E0.93809
G1 X130.381 Y114.474 E0.96984
G1 X130.596 Y115.404 E1.00159
G1 X130.732 Y116.349 E1.03334
G1 X130.788 Y117.302 E1.06509
G1 X130.765 Y118.257 E1.09687
G1 X130.661 Y119.206 E1.12862
G1 X130.479 Y120.143 E1.16037
G1 X130.219 Y121.062 E1.19213
G1 X129.862 Y122.005 E1.22567
G1 X129.791 Y122.17 E1.23164
G1 X129.642 Y122.5 E1.24369
G1 X129.465 Y122.878 E1.25757
G1 X129.162 Y123.502 E1.28064
G1 X128.847 Y124.135 E1.30416
G1 X128.386 Y124.971 E1.33591
G1 X127.857 Y125.766 E1.36767
G1 X127.263 Y126.514 E1.39944
G1 X126.609 Y127.209 E1.43118
G1 X125.899 Y127.847 E1.46293
G1 X125.138 Y128.424 E1.49469
G1 X124.331 Y128.934 E1.52644
G1 X123.485 Y129.376 E1.55819
G1 X122.604 Y129.745 E1.58996
G1 X121.57 Y130.073 E1.62604
G1 X121.136 Y130.185 E1.64095
G1 X120.67 Y130.296 E1.65688
G1 X120.032 Y130.44 E1.67863
G1 X119.332 Y130.589 E1.70244
G1 X118.391 Y130.749 E1.73418
G1 X117.44 Y130.829 E1.76593
G1 X116.485 Y130.829 E1.79769
G1 X115.533 Y130.75 E1.82946
G1 X114.592 Y130.591 E1.8612
G1 X113.667 Y130.353 E1.89297
G1 X112.765 Y130.04 E1.92473
G1 X111.893 Y129.652 E1.95647
G1 X111.056 Y129.192 E1.98824
G1 X110.207 Y128.624 E2.02221
G1 X110.056 Y128.513 E2.02844
G1 X109.791 Y128.313 E2.03949
G1 X109.462 Y128.055 E2.05339
G1 X108.877 Y127.587 E2.07831
G1 X108.359 Y127.16 E2.10064
G1 X107.648 Y126.522 E2.13241
G1 X106.993 Y125.827 E2.16417
G1 X106.399 Y125.08 E2.19592
G1 X105.869 Y124.286 E2.22767
G1 X105.408 Y123.45 E2.25942
G1 X105.018 Y122.578 E2.29119
G1 X104.702 Y121.677 E2.32295
G1 X104.463 Y120.753 E2.35469
G1 X104.302 Y119.812 E2.38645
G1 X104.218 Y118.783 E2.42079
G1 X104.21 Y118.566 E2.42801
G1 X104.203 Y118.257 E2.43829
G1 X104.199 Y117.838 E2.45222
G1 X104.2 Y117.143 E2.47534
G1 X104.21 Y116.468 E2.49779
G1 X104.264 Y115.515 E2.52954
G1 X104.398 Y114.57 E2.56129
G1 X104.61 Y113.639 E2.59304
G1 X104.9 Y112.729 E2.62481
G1 X105.264 Y111.846 E2.65658
G1 X105.702 Y110.998 E2.68832
G1 X106.208 Y110.188 E2.72009
G1 X106.781 Y109.424 E2.75185
G1 X107.415 Y108.711 E2.78358
G0 F6000 X107.807 Y108.882
G1 F1200 X108.469 Y108.269 E2.81359
G1 X108.81 Y107.982 E2.82842
G1 X109.16 Y107.698 E2.84341
G1 X109.678 Y107.286 E2.86542
G1 X110.22 Y106.866 E2.88823
G1 X110.985 Y106.324 E2.91941
G1 X111.794 Y105.849 E2.95061
G1 X112.64 Y105.444 E2.98181
G1 X113.518 Y105.113 E3.01302
G1 X114.42 Y104.858 E3.04419
G1 X115.341 Y104.68 E3.07539
G1 X116.274 Y104.582 E3.1066
G1 X117.211 Y104.564 E3.13777
G1 X118.147 Y104.625 E3.16896
G1 X118.993 Y104.751 E3.19741
G1 X119.163 Y104.783 E3.20317
G1 X119.465 Y104.844 E3.21341
G1 X119.894 Y104.938 E3.22802
G1 X120.588 Y105.096 E3.25169
G1 X121.264 Y105.262 E3.27485
G1 X122.165 Y105.525 E3.30606
G1 X123.04 Y105.863 E3.33726
G1 X123.882 Y106.274 E3.36843
G1 X124.687 Y106.756 E3.39963
G1 X125.448 Y107.304 E3.43082
G1 X126.159 Y107.915 E3.462
G1 X126.816 Y108.585 E3.49321
G1 X127.413 Y109.308 E3.5244
G1 X127.947 Y110.079 E3.55559
G1 X128.351 Y110.777 E3.58242
G1 X128.417 Y110.901 E3.58709
G1 X128.567 Y111.193 E3.59801
G1 X128.798 Y111.66 E3.61534
G1 X129.044 Y112.174 E3.63429
G1 X129.36 Y112.852 E3.65917
G1 X129.72 Y113.718 E3.69036
G1 X130.004 Y114.612 E3.72156
G1 X130.212 Y115.527 E3.75277
G1 X130.34 Y116.456 E3.78396
G1 X130.389 Y117.392 E3.81513
G1 X130.359 Y118.33 E3.84635
G1 X130.248 Y119.261 E3.87753
G1 X130.058 Y120.179 E3.90871
G1 X129.791 Y121.078 E3.9399
G1 X129.494 Y121.847 E3.96732
G1 X129.423 Y122.012 E3.9733
G1 X129.28 Y122.331 E3.98492
G1 X129.104 Y122.704 E3.99864
G1 X128.804 Y123.324 E4.02155
G1 X128.489 Y123.957 E4.04507
G1 X128.036 Y124.778 E4.07625
G1 X127.514 Y125.557 E4.10744
G1 X126.928 Y126.289 E4.13863
G1 X126.282 Y126.969 E4.16983
G1 X125.58 Y127.591 E4.20102
G1 X124.828 Y128.151 E4.23221
G1 X124.031 Y128.645 E4.26339
G1 X123.194 Y129.069 E4.2946
G1 X122.325 Y129.421 E4.32578
G1 X121.467 Y129.687 E4.35566
G1 X121.043 Y129.796 E4.37022
G1 X120.581 Y129.906 E4.38602
G1 X119.949 Y130.049 E4.40757
G1 X119.249 Y130.198 E4.43137
G1 X118.324 Y130.354 E4.46257
G1 X117.39 Y130.431 E4.49374
G1 X116.452 Y130.427 E4.52494
G1 X115.518 Y130.344 E4.55613
G1 X114.594 Y130.182 E4.58733
G1 X113.687 Y129.941 E4.61854
G1 X112.805 Y129.624 E4.64972
G1 X111.952 Y129.233 E4.68093
G1 X111.136 Y128.771 E4.71211
G1 X110.444 Y128.302 E4.73992
G1 X110.293 Y128.191 E4.74615
G1 X110.037 Y127.997 E4.75684
G1 X109.711 Y127.742 E4.7706
G1 X109.131 Y127.278 E4.79531
G1 X108.613 Y126.851 E4.81763
G1 X107.916 Y126.224 E4.84882
G1 X107.274 Y125.54 E4.88002
G1 X106.693 Y124.804 E4.9112
G1 X106.177 Y124.021 E4.94239
G1 X105.729 Y123.197 E4.97359
G1 X105.353 Y122.337 E5.00481
G1 X105.052 Y121.449 E5.03599
G1 X104.827 Y120.539 E5.06717
G1 X104.681 Y119.612 E5.09838
G1 X104.617 Y118.768 E5.12653
G1 X104.609 Y118.551 E5.13376
G1 X104.603 Y118.253 E5.14367
G1 X104.599 Y117.838 E5.15747
G1 X104.6 Y117.149 E5.18039
G1 X104.61 Y116.474 E5.20284
G1 X104.664 Y115.538 E5.23403
G1 X104.797 Y114.609 E5.26524
G1 X105.01 Y113.696 E5.29642
G1 X105.299 Y112.804 E5.32761
G1 X105.663 Y111.939 E5.35882
G1 X106.099 Y111.109 E5.39
G1 X106.604 Y110.319 E5.42119
G1 X107.175 Y109.575 E5.45238
G1 X107.807 Y108.882 E5.48358
G0 F6000 X108.199 Y109.057
G1 F1200 X108.728 Y108.574 E5.5074
G1 X109.063 Y108.292 E5.52197
G1 X109.409 Y108.011 E5.53679
G1 X109.923 Y107.602 E5.55864
G1 X110.465 Y107.182 E5.58145
G1 X111.217 Y106.65 E5.61208
G1 X112.012 Y106.186 E5.6427
G1 X112.844 Y105.792 E5.67332
G1 X113.707 Y105.472 E5.70393
G1 X114.595 Y105.228 E5.73456
G1 X115.5 Y105.062 E5.76516
G1 X116.417 Y104.975 E5.7958
G1 X117.337 Y104.968 E5.8264
G1 X118.255 Y105.041 E5.85703
G1 X118.919 Y105.144 E5.87938
G1 X119.089 Y105.176 E5.88513
G1 X119.38 Y105.235 E5.89501
G1 X119.806 Y105.328 E5.90951
G1 X120.493 Y105.485 E5.93295
G1 X121.169 Y105.651 E5.9561
G1 X122.053 Y105.909 E5.98673
G1 X122.911 Y106.243 E6.01735
G1 X123.736 Y106.65 E6.04795
G1 X124.524 Y107.127 E6.07859
G1 X125.267 Y107.671 E6.10921
G1 X125.96 Y108.277 E6.13983
G1 X126.597 Y108.941 E6.17044
G1 X127.175 Y109.658 E6.20107
G1 X127.688 Y110.422 E6.23168
G1 X127.998 Y110.965 E6.25247
G1 X128.209 Y111.37 E6.26766
G1 X128.437 Y111.834 E6.28486
G1 X128.682 Y112.343 E6.30365
G1 X128.998 Y113.021 E6.32853
G1 X129.35 Y113.872 E6.35916
G1 X129.627 Y114.75 E6.38978
G1 X129.827 Y115.648 E6.42038
G1 X129.948 Y116.561 E6.45101
G1 X129.99 Y117.481 E6.48164
G1 X129.952 Y118.4 E6.51223
G1 X129.834 Y119.313 E6.54285
G1 X129.637 Y120.213 E6.57349
G1 X129.363 Y121.092 E6.60412
G1 X129.127 Y121.689 E6.62547
G1 X129.056 Y121.854 E6.63144
G1 X128.918 Y122.161 E6.64264
G1 X128.744 Y122.53 E6.65621
G1 X128.446 Y123.145 E6.67894
G1 X128.131 Y123.778 E6.70245
G1 X127.685 Y124.584 E6.73309
G1 X127.172 Y125.348 E6.7637
G1 X126.593 Y126.065 E6.79435
G1 X125.955 Y126.728 E6.82495
G1 X125.262 Y127.334 E6.85557
G1 X124.519 Y127.877 E6.88618
G1 X123.731 Y128.354 E6.91682
G1 X122.905 Y128.761 E6.94744
G1 X122.047 Y129.094 E6.97806
G1 X121.364 Y129.3 E7.00178
G1 X120.95 Y129.407 E7.01601
G1 X120.492 Y129.516 E7.03166
G1 X119.866 Y129.658 E7.05301
G1 X119.166 Y129.807 E7.07682
G1 X118.258 Y129.959 E7.10744
G1 X117.34 Y130.032 E7.13807
G1 X116.42 Y130.025 E7.16867
G1 X115.503 Y129.939 E7.1993
G1 X114.597 Y129.773 E7.22994
G1 X113.71 Y129.529 E7.26053
G1 X112.846 Y129.209 E7.29118
G1 X112.014 Y128.815 E7.3218
G1 X111.219 Y128.351 E7.35241
G1 X110.681 Y127.98 E7.37415
G1 X110.53 Y127.869 E7.38038
G1 X110.284 Y127.682 E7.39066
G1 X109.96 Y127.429 E7.40433
G1 X109.522 Y127.08 E7.42296
G1 X108.868 Y126.542 E7.45113
G1 X108.183 Y125.926 E7.48177
G1 X107.555 Y125.253 E7.51238
G1 X106.988 Y124.528 E7.54299
G1 X106.485 Y123.757 E7.57361
G1 X106.051 Y122.945 E7.60424
G1 X105.69 Y122.098 E7.63486
G1 X105.403 Y121.223 E7.66549
G1 X105.194 Y120.327 E7.69609
G1 X105.062 Y119.416 E7.7267
G1 X105.017 Y118.754 E7.74877
G1 X105.009 Y118.537 E7.756
G1 X105.003 Y118.249 E7.76558
G1 X104.999 Y117.838 E7.77925
G1 X105 Y117.155 E7.80196
G1 X105.01 Y116.48 E7.82442
G1 X105.064 Y115.561 E7.85504
G1 X105.197 Y114.65 E7.88566
G1 X105.409 Y113.754 E7.91628
G1 X105.697 Y112.88 E7.94689
G1 X106.061 Y112.034 E7.97752
G1 X106.496 Y111.223 E8.00813
G1 X107 Y110.452 E8.03877
G1 X107.569 Y109.729 E8.06937
G1 X108.199 Y109.057 E8.1
G0 F6000 X108.59 Y109.236
G1 F1200 X108.988 Y108.878 E8.11781
G1 X109.315 Y108.602 E8.13204
G1 X109.658 Y108.324 E8.14673
G1 X110.168 Y107.918 E8.16841
G1 X110.71 Y107.498 E8.19121
G1 X111.448 Y106.977 E8.22126
G1 X112.229 Y106.524 E8.25129
G1 X113.047 Y106.141 E8.28133
G1 X113.895 Y105.832 E8.31135
G1 X114.768 Y105.599 E8.3414
G1 X115.658 Y105.444 E8.37145
G1 X116.558 Y105.369 E8.40149
G1 X117.461 Y105.373 E8.43152
G1 X118.36 Y105.458 E8.46155
G1 X118.845 Y105.537 E8.4779
G1 X119.015 Y105.569 E8.48365
G1 X119.295 Y105.626 E8.49316
G1 X119.718 Y105.718 E8.50755
G1 X120.397 Y105.873 E8.53072
G1 X121.073 Y106.039 E8.55387
G1 X121.94 Y106.293 E8.58392
G1 X122.781 Y106.623 E8.61397
G1 X123.589 Y107.026 E8.644
G1 X124.359 Y107.498 E8.67404
G1 X125.084 Y108.037 E8.70408
G1 X125.758 Y108.638 E8.73412
G1 X126.376 Y109.296 E8.76414
G1 X126.934 Y110.006 E8.79418
G1 X127.645 Y111.153 E8.83906
G1 X127.85 Y111.547 E8.85384
G1 X128.077 Y112.007 E8.8709
G1 X128.319 Y112.512 E8.88952
G1 X128.635 Y113.19 E8.9144
G1 X128.98 Y114.025 E8.94445
G1 X129.25 Y114.887 E8.97449
G1 X129.442 Y115.769 E9.00452
G1 X129.556 Y116.665 E9.03456
G1 X129.59 Y117.567 E9.06458
G1 X129.544 Y118.469 E9.09462
G1 X129.418 Y119.364 E9.12468
G1 X129.214 Y120.243 E9.15469
G1 X128.933 Y121.102 E9.18475
G1 X128.759 Y121.531 E9.20015
G1 X128.688 Y121.696 E9.20613
G1 X128.556 Y121.991 E9.21687
G1 X128.384 Y122.355 E9.23027
G1 X128.088 Y122.967 E9.25288
G1 X127.773 Y123.6 E9.27639
G1 X127.335 Y124.39 E9.30644
G1 X126.829 Y125.138 E9.33647
G1 X126.259 Y125.839 E9.36652
G1 X125.629 Y126.486 E9.39656
G1 X124.945 Y127.075 E9.42658
G1 X124.211 Y127.601 E9.45662
G1 X123.433 Y128.06 E9.48666
G1 X122.618 Y128.449 E9.5167
G1 X121.771 Y128.764 E9.54675
G1 X121.261 Y128.914 E9.56443
G1 X120.857 Y129.018 E9.57831
G1 X120.403 Y129.126 E9.59383
G1 X119.783 Y129.266 E9.61497
G1 X119.083 Y129.415 E9.63877
G1 X118.192 Y129.564 E9.66882
G1 X117.291 Y129.634 E9.69888
G1 X116.388 Y129.623 E9.72891
G1 X115.49 Y129.533 E9.75893
G1 X114.603 Y129.363 E9.78897
G1 X113.734 Y129.116 E9.81902
G1 X112.891 Y128.793 E9.84904
G1 X112.079 Y128.396 E9.87911
G1 X111.306 Y127.929 E9.90914
G1 X110.918 Y127.657 E9.9249
G1 X110.767 Y127.546 E9.93114
G1 X110.53 Y127.367 E9.94102
G1 X110.21 Y127.116 E9.95454
G1 X109.64 Y126.661 E9.9788
G1 X109.122 Y126.234 E10.00113
G1 X108.451 Y125.629 E10.03118
G1 X107.837 Y124.967 E10.06121
G1 X107.283 Y124.254 E10.09124
G1 X106.795 Y123.494 E10.12128
G1 X106.375 Y122.694 E10.15133
G1 X106.028 Y121.86 E10.18138
G1 X105.757 Y120.999 E10.2114
G1 X105.562 Y120.117 E10.24144
G1 X105.446 Y119.222 E10.27146
G1 X105.417 Y118.739 E10.28755
G1 X105.402 Y118.245 E10.30399
G1 X105.399 Y117.937 E10.31424
G1 X105.4 Y117.161 E10.34005
G1 X105.41 Y116.486 E10.3625
G1 X105.463 Y115.584 E10.39255
G1 X105.596 Y114.691 E10.42258
G1 X105.808 Y113.813 E10.45262
G1 X106.096 Y112.957 E10.48266
G1 X106.459 Y112.13 E10.5127
G1 X106.893 Y111.338 E10.54274
G1 X107.396 Y110.588 E10.57277
G1 X107.963 Y109.886 E10.60279
G1 X108.59 Y109.236 E10.63282
G1 F1500 E4.13282
;MESH:TestPlugRoundedTop1.stl
G0 F6000 X115.343 Y115.987
G0 X116.017 Y116.832
G0 X116.373 Y117.995
G0 X117.104 Y118.801
;TYPE:WALL-INNER
G1 F1500 E10.63282
G1 F1200 X116.199 Y118.079 E10.67133
G1 X116.199 Y116.921 E10.70985
G1 X117.104 Y116.199 E10.74835
G1 X118.234 Y116.456 E10.78689
G1 X118.736 Y117.5 E10.82542
G1 X118.234 Y118.544 E10.86395
G1 X117.104 Y118.801 E10.9025
G0 F6000 X117.005 Y119.234
;TYPE:WALL-OUTER
G1 F1200 X115.799 Y118.272 E10.95381
G1 X115.799 Y116.728 E11.00516
G1 X117.005 Y115.766 E11.05647
G1 X118.51 Y116.109 E11.10781
G1 X119.179 Y117.5 E11.15915
G1 X118.51 Y118.891 E11.21049
G1 X117.005 Y119.234 E11.26183
G0 F6000 X117.094 Y118.762
G0 X117.2 Y118.38
;TYPE:SKIN
G1 F1200 X116.589 Y117.892 E11.28783
G1 X116.589 Y117.108 E11.31391
G1 X117.2 Y116.62 E11.33992
G1 X117.965 Y116.795 E11.36602
G1 X118.304 Y117.5 E11.39204
G1 X117.965 Y118.205 E11.41806
G1 X117.2 Y118.38 E11.44416
G0 F6000 X117.026 Y118.597
G0 X116.373 Y117.995
G0 X116.309 Y117.314
G0 X116.748 Y117.314
G1 F1200 X117.564 Y118.13 E11.48254
G0 F6000 X117.923 Y117.923
G1 F1200 X116.991 Y116.991 E11.52638
G0 F6000 X117.395 Y116.83
G1 F1200 X118.105 Y117.54 E11.55977
G0 F6000 X118.422 Y117.692
;MESH:NONMESH
G0 F300 X118.422 Y117.692 Z0.4
G0 F6000 X118.502 Y117.731
G0 X118.113 Y118.392
G0 X117.104 Y118.801
;TIME_ELAPSED:23.852651
;LAYER:1
M106 S85
;TYPE:WALL-INNER
;MESH:TestPlugRoundedTop1.stl
G1 F600 X116.199 Y118.079 E11.59828
G1 X116.199 Y116.921 E11.6368
G1 X117.104 Y116.199 E11.6753
G1 X118.234 Y116.456 E11.71384
G1 X118.736 Y117.5 E11.75237
G1 X118.234 Y118.544 E11.7909
G1 X117.104 Y118.801 E11.82945
G0 F7500 X117.005 Y119.234
;TYPE:WALL-OUTER
G1 F600 X115.799 Y118.272 E11.88076
G1 X115.799 Y116.728 E11.93211
G1 X117.005 Y115.766 E11.98342
G1 X118.51 Y116.109 E12.03476
G1 X119.179 Y117.5 E12.0861
G1 X118.51 Y118.891 E12.13744
G1 X117.005 Y119.234 E12.18878
G0 F7500 X117.094 Y118.762
G0 X117.2 Y118.38
;TYPE:SKIN
G1 F600 X116.589 Y117.892 E12.21478
G1 X116.589 Y117.108 E12.24086
G1 X117.2 Y116.62 E12.26687
G1 X117.965 Y116.795 E12.29297
G1 X118.304 Y117.5 E12.31899
G1 X117.965 Y118.205 E12.34501
G1 X117.2 Y118.38 E12.37111
G0 F7500 X117.816 Y118.074
G1 F600 X117.881 Y118.009 E12.37416
G0 F7500 X117.172 Y118.152
G1 F600 X118.027 Y117.297 E12.41438
G0 F7500 X117.831 Y116.927
G1 F600 X116.857 Y117.901 E12.4602
G0 F7500 X116.748 Y117.444
G1 F600 X117.369 Y116.823 E12.48941
G0 F7500 X117.448 Y116.481
;MESH:NONMESH
G0 F300 X117.448 Y116.481 Z0.6
G0 F7500 X117.468 Y116.396
G0 X117.148 Y116.388
G0 X116.373 Y117.005
G0 X116.373 Y117.995
G0 X117.104 Y118.801
;TIME_ELAPSED:27.335169
;LAYER:2
M106 S170
;TYPE:WALL-INNER
;MESH:TestPlugRoundedTop1.stl
G1 F600 X116.199 Y118.079 E12.52791
G1 X116.199 Y116.921 E12.56643
G1 X117.104 Y116.199 E12.60493
G1 X118.234 Y116.456 E12.64348
G1 X118.736 Y117.5 E12.68201
G1 X118.234 Y118.544 E12.72053
G1 X117.104 Y118.801 E12.75908
G0 F9000 X117.005 Y119.234
;TYPE:WALL-OUTER
